; generated by PrusaSlicer 2.3.3+win64 on 2022-06-14 at 14:46:37 UTC


;
;

;
;
; 

; external perimeters extrusion width = 0.45mm
; perimeters extrusion width = 0.45mm
; infill extrusion width = 0.45mm
; solid infill extrusion width = 0.45mm
; top infill extrusion width = 0.40mm
; support material extrusion width = 0.35mm
; first layer extrusion width = 0.42mm

M73 P0 R23
M201 X1250 Y1250 Z400 E5000 ; sets maximum accelerations, mm/sec^2
M203 X180 Y180 Z12 E80 ; sets maximum feedrates, mm/sec
M204 P1250 R1250 T1250 ; sets acceleration (P, T) and retract acceleration (R), mm/sec^2
M205 X8.00 Y8.00 Z2.00 E10.00 ; sets the jerk limits, mm/sec
M205 S0 T0 ; sets the minimum extruding and travel feed rate, mm/sec
M107
;TYPE:Custom
G90 ; use absolute coordinates
M83 ; extruder relative mode
M104 S170 ; set extruder temp for bed leveling
M140 S60 ; set bed temp
M109 R170 ; wait for bed leveling temp
M190 S60 ; wait for bed temp
G28 ; home all without mesh bed level
G29 ; mesh bed leveling 
M104 S215 ; set extruder temp
G92 E0.0
G1 Y-2.0 X179 F2400
G1 Z3 F720
M109 S215 ; wait for extruder temp

; intro line
G1 X170 F1000
G1 Z0.2 F720
G1 X110.0 E8.0 F900
G1 X40.0 E10.0 F700
G92 E0.0

M221 S95 ; set flow
G21 ; set units to millimeters
G90 ; use absolute coordinates
M83 ; use relative distances for extrusion
M900 K0.2 ; Filament gcode LA 1.5
; ; Filament gcode LA 1.0
;LAYER_CHANGE
;Z:0.2
;HEIGHT:0.2
;BEFORE_LAYER_CHANGE
G92 E0.0
;0.2


M73 P1 R23
G1 E-3.20000 F4200.000
G1 Z0.200 F9000.000
;AFTER_LAYER_CHANGE
;0.2
G1 Z0.400
G1 X113.252 Y108.022
G1 Z0.200
G1 E3.20000 F2400.000
M204 S800
;TYPE:Skirt
;WIDTH:0.42
G1 F1200.000
G1 X112.658 Y108.787 E0.03036
G1 X111.949 Y109.204 E0.02579
G1 X111.137 Y109.354 E0.02590
G1 X68.863 Y109.184 E1.32548
G1 X68.357 Y109.125 E0.01597
G1 X67.878 Y108.961 E0.01585
G1 X67.442 Y108.698 E0.01597
G1 X67.073 Y108.347 E0.01597
G1 X66.666 Y107.663 E0.02496
G1 X66.508 Y106.883 E0.02496
G1 X66.529 Y91.153 E0.49319
G1 X70.394 Y77.954 E0.43121
G1 X70.901 Y76.960 E0.03501
G1 X71.546 Y76.224 E0.03069
G1 X72.622 Y75.497 E0.04070
G1 X73.352 Y75.249 E0.02417
G1 X73.875 Y75.175 E0.01657
G1 X106.054 Y75.174 E1.00896
G1 X106.579 Y75.233 E0.01657
G1 X107.264 Y75.449 E0.02250
G1 X108.157 Y75.985 E0.03267
G1 X108.631 Y76.423 E0.02024
G1 X109.438 Y77.541 E0.04322
G1 X109.713 Y78.287 E0.02493
G1 X113.449 Y91.190 E0.42119
G1 X113.491 Y107.084 E0.49833
G1 X113.266 Y107.964 E0.02848
M204 S1250
; printing object arm_1.stl id:0 copy 0
G1 E-2.24000 F4200.000
;WIPE_START
G1 F7200.000
G1 X112.658 Y108.787 E-0.56724
G1 X112.122 Y109.102 E-0.34476
;WIPE_END
G1 E-0.04800 F4200.000
G1 Z0.400 F9000.000
G1 X68.884 Y91.480
G1 Z0.200
G1 E3.20000 F2400.000
M204 S800
;TYPE:Support material
G1 F1200.000
G1 X68.884 Y106.807 E0.48059
G1 X69.638 Y106.807 E0.02365
G1 X69.638 Y91.649 E0.47527
G1 X70.392 Y91.649 E0.02365
G1 X70.392 Y106.807 E0.47527
G1 X71.146 Y106.807 E0.02365
G1 X71.146 Y91.649 E0.47527
M73 P2 R23
G1 X71.900 Y91.649 E0.02365
G1 X71.900 Y106.807 E0.47527
G1 X72.654 Y106.807 E0.02365
G1 X72.654 Y95.908 E0.34176
G1 X73.409 Y95.908 E0.02365
G1 X73.409 Y106.807 E0.34176
G1 X74.163 Y106.807 E0.02365
G1 X74.163 Y95.908 E0.34176
G1 X74.917 Y95.908 E0.02365
G1 X74.917 Y106.807 E0.34176
G1 X75.671 Y106.807 E0.02365
G1 X75.671 Y95.908 E0.34176
G1 X76.425 Y95.908 E0.02365
G1 X76.425 Y106.807 E0.34176
G1 X77.179 Y106.807 E0.02365
G1 X77.179 Y95.908 E0.34176
G1 X77.933 Y95.908 E0.02365
G1 X77.933 Y106.807 E0.34176
G1 X78.688 Y106.807 E0.02365
G1 X78.688 Y95.908 E0.34176
G1 X79.442 Y95.908 E0.02365
G1 X79.442 Y106.807 E0.34176
G1 X80.196 Y106.807 E0.02365
G1 X80.196 Y95.908 E0.34176
G1 X80.950 Y95.908 E0.02365
G1 X80.950 Y106.807 E0.34176
G1 X81.704 Y106.807 E0.02365
G1 X81.704 Y95.908 E0.34176
G1 X82.458 Y95.908 E0.02365
G1 X82.458 Y106.807 E0.34176
G1 X83.213 Y106.807 E0.02365
G1 X83.213 Y95.243 E0.36261
G1 X83.967 Y95.243 E0.02365
G1 X83.967 Y106.807 E0.36261
G1 X84.721 Y106.807 E0.02365
G1 X84.721 Y95.243 E0.36261
G1 X84.985 Y95.243 E0.00829
G1 X85.298 Y95.785 E0.01963
G1 X85.475 Y95.887 E0.00640
G1 X85.475 Y106.807 E0.34241
G1 X86.229 Y106.807 E0.02365
G1 X86.229 Y95.908 E0.34176
G1 X86.983 Y95.908 E0.02365
G1 X86.983 Y106.807 E0.34176
G1 X87.738 Y106.807 E0.02365
G1 X87.738 Y95.908 E0.34176
G1 X88.492 Y95.908 E0.02365
G1 X88.492 Y106.807 E0.34176
M73 P3 R23
G1 X89.246 Y106.807 E0.02365
G1 X89.246 Y95.908 E0.34176
G1 X90.000 Y95.908 E0.02365
G1 X90.000 Y106.807 E0.34176
G1 X90.754 Y106.807 E0.02365
G1 X90.754 Y95.908 E0.34176
G1 X91.508 Y95.908 E0.02365
G1 X91.508 Y106.807 E0.34176
G1 X92.262 Y106.807 E0.02365
G1 X92.262 Y95.908 E0.34176
G1 X93.017 Y95.908 E0.02365
G1 X93.017 Y106.807 E0.34176
G1 X93.771 Y106.807 E0.02365
G1 X93.771 Y95.908 E0.34176
G1 X94.489 Y95.908 E0.02251
G1 X94.525 Y95.887 E0.00131
G1 X94.525 Y106.807 E0.34241
G1 X95.279 Y106.807 E0.02365
G1 X95.279 Y95.243 E0.36261
G1 X96.033 Y95.243 E0.02365
G1 X96.033 Y106.807 E0.36261
G1 X96.787 Y106.807 E0.02365
G1 X96.787 Y95.243 E0.36261
G1 X96.985 Y95.243 E0.00620
G1 X97.298 Y95.785 E0.01963
G1 X97.511 Y95.908 E0.00770
G1 X97.542 Y95.908 E0.00095
G1 X97.542 Y106.807 E0.34176
G1 X98.296 Y106.807 E0.02365
G1 X98.296 Y95.908 E0.34176
G1 X99.050 Y95.908 E0.02365
G1 X99.050 Y106.807 E0.34176
G1 X99.804 Y106.807 E0.02365
G1 X99.804 Y95.908 E0.34176
G1 X100.558 Y95.908 E0.02365
G1 X100.558 Y106.807 E0.34176
G1 X101.312 Y106.807 E0.02365
G1 X101.312 Y95.908 E0.34176
G1 X102.067 Y95.908 E0.02365
G1 X102.067 Y106.807 E0.34176
G1 X102.821 Y106.807 E0.02365
G1 X102.821 Y95.908 E0.34176
G1 X103.575 Y95.908 E0.02365
G1 X103.575 Y106.807 E0.34176
G1 X104.329 Y106.807 E0.02365
G1 X104.329 Y95.908 E0.34176
G1 X105.083 Y95.908 E0.02365
G1 X105.083 Y106.807 E0.34176
G1 X105.837 Y106.807 E0.02365
G1 X105.837 Y95.908 E0.34176
M73 P4 R23
G1 X106.591 Y95.908 E0.02365
M73 P4 R22
G1 X106.591 Y106.807 E0.34176
G1 X107.346 Y106.807 E0.02365
G1 X107.346 Y95.908 E0.34176
G1 X107.690 Y95.908 E0.01079
G1 X107.959 Y95.639 E0.01191
G1 X107.959 Y91.649 E0.12509
G1 X108.100 Y91.649 E0.00443
G1 X108.100 Y106.807 E0.47527
G1 X108.854 Y106.807 E0.02365
G1 X108.854 Y91.649 E0.47527
G1 X109.608 Y91.649 E0.02365
G1 X109.608 Y106.807 E0.47527
G1 X110.362 Y106.807 E0.02365
G1 X110.362 Y91.649 E0.47527
G1 X111.116 Y91.649 E0.02365
G1 X111.116 Y106.977 E0.48059
M204 S1250
G1 E-2.24000 F4200.000
;WIPE_START
G1 F7200.000
G1 X111.116 Y105.331 E-0.91200
;WIPE_END
G1 E-0.04800 F4200.000
G1 Z0.400 F9000.000
G1 X92.547 Y89.292
G1 Z0.200
G1 E3.20000 F2400.000
M204 S800
;TYPE:External perimeter
G1 F1200.000
G1 X91.768 Y90.009 E0.03319
G1 X90.882 Y90.588 E0.03319
G1 X89.912 Y91.013 E0.03322
G1 X88.886 Y91.273 E0.03318
G1 X87.847 Y91.359 E0.03268
G1 X84.313 Y91.359 E0.11081
G1 X83.274 Y91.273 E0.03268
G1 X82.248 Y91.013 E0.03318
G1 X81.278 Y90.588 E0.03322
G1 X80.392 Y90.009 E0.03319
G1 X79.613 Y89.292 E0.03319
G1 X78.962 Y88.456 E0.03322
G1 X78.448 Y87.498 E0.03408
G1 X78.115 Y86.521 E0.03236
G1 X77.941 Y85.478 E0.03316
G1 X77.941 Y84.420 E0.03317
G1 X78.115 Y83.375 E0.03322
G1 X78.461 Y82.368 E0.03339
G1 X78.963 Y81.442 E0.03301
G1 X79.613 Y80.606 E0.03321
G1 X80.392 Y79.889 E0.03319
G1 X81.278 Y79.310 E0.03319
G1 X82.248 Y78.885 E0.03322
G1 X83.274 Y78.625 E0.03318
G1 X84.313 Y78.539 E0.03268
G1 X87.847 Y78.539 E0.11081
G1 X88.886 Y78.625 E0.03268
G1 X89.912 Y78.885 E0.03318
G1 X90.882 Y79.310 E0.03322
G1 X91.768 Y79.889 E0.03319
G1 X92.547 Y80.606 E0.03319
G1 X93.197 Y81.442 E0.03321
G1 X93.702 Y82.374 E0.03323
G1 X94.045 Y83.375 E0.03318
G1 X94.220 Y84.420 E0.03322
G1 X94.220 Y85.478 E0.03318
G1 X94.045 Y86.523 E0.03322
G1 X93.702 Y87.524 E0.03318
G1 X93.197 Y88.456 E0.03323
G1 X92.583 Y89.244 E0.03133
M204 S1250
G1 X92.666 Y89.673 F9000.000
G1 E-2.24000 F4200.000
;WIPE_START
G1 F7200.000
G1 X91.768 Y90.009 E-0.61947
G1 X91.326 Y90.297 E-0.29253
;WIPE_END
G1 E-0.04800 F4200.000
G1 Z0.400 F9000.000
G1 X104.370 Y82.970
G1 Z0.200
G1 E3.20000 F2400.000
M204 S800
;TYPE:Perimeter
G1 F1200.000
G1 X105.109 Y83.372 E0.02637
G1 X105.277 Y83.507 E0.00679
G1 X105.647 Y84.020 E0.01983
G1 X105.783 Y84.359 E0.01143
G1 X105.864 Y84.827 E0.01490
G1 X105.832 Y85.361 E0.01677
G1 X105.665 Y85.835 E0.01575
G1 X105.386 Y86.271 E0.01623
G1 X105.078 Y86.566 E0.01336
G1 X104.467 Y86.890 E0.02170
G1 X103.839 Y86.995 E0.01997
G1 X103.342 Y86.927 E0.01572
G1 X102.866 Y86.748 E0.01595
G1 X102.541 Y86.529 E0.01229
G1 X102.294 Y86.292 E0.01075
G1 X102.027 Y85.898 E0.01491
G1 X101.836 Y85.397 E0.01683
G1 X101.793 Y84.897 E0.01572
G1 X101.871 Y84.369 E0.01674
G1 X102.076 Y83.911 E0.01573
G1 X102.392 Y83.501 E0.01623
G1 X102.724 Y83.232 E0.01340
G1 X103.309 Y82.970 E0.02011
G1 X103.794 Y82.917 E0.01531
G1 X104.310 Y82.964 E0.01624
M204 S1250
G1 X104.258 Y83.338 F9000.000
M204 S800
;TYPE:External perimeter
G1 F1200.000
G1 X104.899 Y83.687 E0.02287
G1 X105.001 Y83.769 E0.00413
G1 X105.315 Y84.204 E0.01679
G1 X105.418 Y84.462 E0.00874
G1 X105.485 Y84.848 E0.01228
G1 X105.459 Y85.286 E0.01375
G1 X105.324 Y85.669 E0.01272
G1 X105.092 Y86.029 E0.01345
G1 X104.852 Y86.260 E0.01044
G1 X104.356 Y86.526 E0.01764
G1 X103.833 Y86.613 E0.01663
G1 X103.435 Y86.559 E0.01260
G1 X103.040 Y86.411 E0.01323
G1 X102.779 Y86.235 E0.00987
G1 X102.583 Y86.047 E0.00849
G1 X102.363 Y85.723 E0.01228
G1 X102.207 Y85.312 E0.01379
G1 X102.172 Y84.909 E0.01269
G1 X102.236 Y84.475 E0.01373
G1 X102.401 Y84.106 E0.01269
G1 X102.663 Y83.766 E0.01345
G1 X102.923 Y83.556 E0.01047
G1 X103.409 Y83.338 E0.01669
G1 X103.798 Y83.296 E0.01226
G1 X104.198 Y83.333 E0.01261
M204 S1250
G1 X104.560 Y83.076 F9000.000
G1 E-2.24000 F4200.000
;WIPE_START
G1 F7200.000
G1 X104.899 Y83.687 E-0.43486
G1 X105.001 Y83.769 E-0.07301
G1 X105.315 Y84.204 E-0.29676
G1 X105.387 Y84.383 E-0.10737
;WIPE_END
G1 E-0.04800 F4200.000
G1 Z0.400 F9000.000
G1 X97.704 Y93.997
G1 Z0.200
G1 E3.20000 F2400.000
M204 S800
;TYPE:Perimeter
G1 F1200.000
G1 X94.296 Y93.997 E0.10688
G1 X93.912 Y94.662 E0.02408
G1 X86.088 Y94.662 E0.24529
G1 X85.704 Y93.997 E0.02408
G1 X82.296 Y93.997 E0.10688
G1 X81.912 Y94.662 E0.02408
G1 X73.287 Y94.662 E0.27042
G1 X73.287 Y79.480 E0.47601
G1 X73.302 Y79.291 E0.00597
G1 X73.394 Y78.979 E0.01019
G1 X73.531 Y78.726 E0.00902
G1 X73.626 Y78.615 E0.00459
G1 X73.954 Y78.377 E0.01271
G1 X74.073 Y78.338 E0.00393
G1 X82.872 Y78.338 E0.27587
G1 X82.126 Y78.527 E0.02414
G1 X81.098 Y78.977 E0.03518
G1 X80.160 Y79.591 E0.03515
G1 X79.335 Y80.350 E0.03515
G1 X78.646 Y81.235 E0.03517
G1 X78.115 Y82.216 E0.03497
G1 X77.748 Y83.282 E0.03536
G1 X77.630 Y83.992 E0.02256
G1 X77.274 Y83.510 E0.01880
G1 X76.789 Y83.137 E0.01917
G1 X75.930 Y82.907 E0.02788
G1 X75.325 Y82.974 E0.01908
G1 X74.825 Y83.167 E0.01679
G1 X74.311 Y83.579 E0.02069
G1 X73.953 Y84.143 E0.02094
G1 X73.827 Y84.555 E0.01350
G1 X73.795 Y85.077 E0.01639
G1 X73.921 Y85.666 E0.01888
M73 P5 R22
G1 X74.181 Y86.152 E0.01729
G1 X74.426 Y86.430 E0.01160
G1 X74.963 Y86.802 E0.02049
G1 X75.609 Y86.979 E0.02102
G1 X76.039 Y86.979 E0.01347
G1 X76.542 Y86.858 E0.01623
G1 X76.967 Y86.644 E0.01493
G1 X77.251 Y86.414 E0.01144
G1 X77.631 Y85.912 E0.01973
G1 X77.748 Y86.614 E0.02229
G1 X78.101 Y87.649 E0.03431
G1 X78.645 Y88.662 E0.03605
G1 X79.335 Y89.548 E0.03520
G1 X80.160 Y90.307 E0.03515
G1 X81.098 Y90.921 E0.03515
G1 X82.126 Y91.371 E0.03518
G1 X83.212 Y91.646 E0.03513
G1 X84.297 Y91.736 E0.03415
G1 X87.863 Y91.736 E0.11178
G1 X88.948 Y91.646 E0.03415
G1 X90.034 Y91.371 E0.03513
G1 X91.062 Y90.921 E0.03518
G1 X92.000 Y90.307 E0.03515
G1 X92.825 Y89.548 E0.03515
G1 X93.514 Y88.663 E0.03517
G1 X94.048 Y87.676 E0.03519
G1 X94.412 Y86.616 E0.03514
G1 X94.597 Y85.510 E0.03517
G1 X94.597 Y84.388 E0.03515
G1 X94.412 Y83.282 E0.03517
G1 X94.048 Y82.222 E0.03514
G1 X93.514 Y81.235 E0.03519
G1 X92.825 Y80.350 E0.03517
G1 X92.000 Y79.591 E0.03515
G1 X91.062 Y78.977 E0.03515
G1 X90.034 Y78.527 E0.03518
G1 X89.288 Y78.338 E0.02414
G1 X105.926 Y78.338 E0.52167
G1 X106.056 Y78.380 E0.00430
G1 X106.253 Y78.516 E0.00749
G1 X106.582 Y78.927 E0.01651
G1 X106.669 Y79.171 E0.00814
G1 X106.713 Y79.503 E0.01049
G1 X106.713 Y94.662 E0.47529
G1 X98.088 Y94.662 E0.27042
G1 X97.734 Y94.049 E0.02220
M204 S1250
G1 E-2.24000 F4200.000
;WIPE_START
G1 F7200.000
G1 X96.089 Y94.024 E-0.91200
;WIPE_END
G1 E-0.04800 F4200.000
G1 Z0.400 F9000.000
G1 X76.619 Y83.482
G1 Z0.200
G1 E3.20000 F2400.000
M204 S800
;TYPE:External perimeter
G1 F1200.000
G1 X77.002 Y83.776 E0.01515
G1 X77.297 Y84.176 E0.01559
G1 X77.454 Y84.589 E0.01385
G1 X77.481 Y85.059 E0.01474
G1 X77.425 Y85.414 E0.01128
G1 X77.301 Y85.724 E0.01046
G1 X76.978 Y86.150 E0.01676
G1 X76.761 Y86.325 E0.00875
G1 X76.411 Y86.502 E0.01228
G1 X75.994 Y86.602 E0.01345
G1 X75.660 Y86.602 E0.01048
G1 X75.125 Y86.456 E0.01740
G1 X74.679 Y86.146 E0.01703
G1 X74.493 Y85.936 E0.00879
G1 X74.279 Y85.535 E0.01425
G1 X74.175 Y85.048 E0.01560
G1 X74.201 Y84.622 E0.01338
G1 X74.299 Y84.302 E0.01050
G1 X74.595 Y83.834 E0.01737
G1 X75.016 Y83.497 E0.01688
G1 X75.415 Y83.343 E0.01343
G1 X75.901 Y83.290 E0.01533
G1 X76.561 Y83.466 E0.02141
M204 S1250
G1 X76.955 Y83.265 F9000.000
G1 E-2.24000 F4200.000
;WIPE_START
G1 F7200.000
G1 X77.002 Y83.776 E-0.29865
G1 X77.297 Y84.176 E-0.27559
G1 X77.454 Y84.589 E-0.24480
G1 X77.464 Y84.757 E-0.09295
;WIPE_END
G1 E-0.04800 F4200.000
G1 Z0.400 F9000.000
G1 X97.487 Y94.374
G1 Z0.200
G1 E3.20000 F2400.000
M204 S800
G1 F1200.000
G1 X94.513 Y94.374 E0.09323
G1 X94.129 Y95.039 E0.02408
G1 X85.871 Y95.039 E0.25894
G1 X85.487 Y94.374 E0.02408
G1 X82.513 Y94.374 E0.09323
G1 X82.129 Y95.039 E0.02408
G1 X72.910 Y95.039 E0.28906
G1 X72.910 Y79.465 E0.48830
G1 X72.929 Y79.222 E0.00767
G1 X73.044 Y78.834 E0.01266
G1 X73.219 Y78.511 E0.01152
G1 X73.369 Y78.336 E0.00723
G1 X73.781 Y78.037 E0.01598
G1 X74.014 Y77.961 E0.00767
G1 X105.986 Y77.961 E1.00245
G1 X106.225 Y78.039 E0.00789
G1 X106.513 Y78.237 E0.01096
G1 X106.917 Y78.741 E0.02025
G1 X107.038 Y79.083 E0.01138
G1 X107.090 Y79.479 E0.01251
G1 X107.090 Y95.039 E0.48789
G1 X97.871 Y95.039 E0.28906
G1 X97.517 Y94.426 E0.02220
M204 S1250
G1 X97.295 Y94.023 F9000.000
G1 E-2.24000 F4200.000
;WIPE_START
G1 F7200.000
G1 X95.871 Y94.397 E-0.91200
;WIPE_END
G1 E-0.04800 F4200.000
G1 Z0.400 F9000.000
G1 X106.600 Y79.801
G1 Z0.200
G1 E3.20000 F2400.000
M204 S800
;TYPE:Solid infill
;WIDTH:0.422032
G1 F1200.000
G1 X105.420 Y78.621 E0.05262
G1 X104.883 Y78.621 E0.01690
G1 X106.430 Y80.168 E0.06896
G1 X106.430 Y80.704 E0.01690
G1 X104.347 Y78.621 E0.09286
G1 X103.811 Y78.621 E0.01690
G1 X106.430 Y81.240 E0.11676
G1 X106.430 Y81.776 E0.01690
G1 X103.275 Y78.621 E0.14066
G1 X102.739 Y78.621 E0.01690
G1 X106.430 Y82.312 E0.16456
G1 X106.430 Y82.848 E0.01690
G1 X102.203 Y78.621 E0.18846
G1 X101.666 Y78.621 E0.01690
G1 X106.430 Y83.385 E0.21237
G1 X106.430 Y83.921 E0.01690
G1 X101.130 Y78.621 E0.23627
G1 X100.594 Y78.621 E0.01690
G1 X106.600 Y84.626 E0.26773
M204 S1250
M73 P6 R22
G1 X105.919 Y84.482 F9000.000
M204 S800
G1 F1200.000
G1 X106.430 Y84.993 E0.02278
G1 X106.430 Y85.529 E0.01690
G1 X106.124 Y85.223 E0.01367
G1 X106.112 Y85.418 E0.00616
G1 X106.026 Y85.661 E0.00814
G1 X106.430 Y86.065 E0.01801
G1 X106.430 Y86.601 E0.01690
G1 X105.869 Y86.041 E0.02499
G1 X105.660 Y86.367 E0.01223
G1 X106.430 Y87.138 E0.03434
G1 X106.430 Y87.674 E0.01690
G1 X105.403 Y86.646 E0.04580
G1 X105.246 Y86.797 E0.00687
G1 X105.097 Y86.876 E0.00532
G1 X106.430 Y88.210 E0.05945
G1 X106.430 Y88.746 E0.01690
G1 X104.746 Y87.062 E0.07508
G1 X104.559 Y87.161 E0.00669
G1 X104.345 Y87.197 E0.00683
G1 X106.430 Y89.282 E0.09296
G1 X106.430 Y89.818 E0.01690
G1 X103.702 Y87.090 E0.12162
M204 S1250
G1 E-2.24000 F4200.000
;WIPE_START
G1 F7200.000
G1 X104.866 Y88.254 E-0.91200
;WIPE_END
G1 E-0.04800 F4200.000
G1 Z0.400 F9000.000
G1 X104.286 Y82.848
G1 Z0.200
G1 E3.20000 F2400.000
M204 S800
G1 F1200.000
G1 X100.058 Y78.621 E0.18847
G1 X99.522 Y78.621 E0.01690
G1 X103.559 Y82.658 E0.17998
G1 X103.234 Y82.693 E0.01030
G1 X103.113 Y82.748 E0.00420
G1 X98.986 Y78.621 E0.18398
G1 X98.450 Y78.621 E0.01690
G1 X102.742 Y82.914 E0.19137
G1 X102.574 Y82.989 E0.00580
G1 X102.413 Y83.120 E0.00657
G1 X97.913 Y78.621 E0.20057
