; generated by PrusaSlicer 2.3.3+win64 on 2022-06-14 at 15:31:09 UTC


;
;

;
;
; 

; external perimeters extrusion width = 0.45mm
; perimeters extrusion width = 0.45mm
; infill extrusion width = 0.45mm
; solid infill extrusion width = 0.45mm
; top infill extrusion width = 0.40mm
; support material extrusion width = 0.35mm
; first layer extrusion width = 0.42mm

M73 P0 R19
M201 X1250 Y1250 Z400 E5000 ; sets maximum accelerations, mm/sec^2
M203 X180 Y180 Z12 E80 ; sets maximum feedrates, mm/sec
M204 P1250 R1250 T1250 ; sets acceleration (P, T) and retract acceleration (R), mm/sec^2
M205 X8.00 Y8.00 Z2.00 E10.00 ; sets the jerk limits, mm/sec
M205 S0 T0 ; sets the minimum extruding and travel feed rate, mm/sec
M107
;TYPE:Custom
G90 ; use absolute coordinates
M83 ; extruder relative mode
M104 S170 ; set extruder temp for bed leveling
M140 S60 ; set bed temp
M109 R170 ; wait for bed leveling temp
M190 S60 ; wait for bed temp
G28 ; home all without mesh bed level
G29 ; mesh bed leveling 
M104 S215 ; set extruder temp
G92 E0.0
G1 Y-2.0 X179 F2400
G1 Z3 F720
M109 S215 ; wait for extruder temp

; intro line
G1 X170 F1000
G1 Z0.2 F720
G1 X110.0 E8.0 F900
G1 X40.0 E10.0 F700
G92 E0.0

M221 S95 ; set flow
G21 ; set units to millimeters
G90 ; use absolute coordinates
M83 ; use relative distances for extrusion
M900 K0.2 ; Filament gcode LA 1.5
; ; Filament gcode LA 1.0
;LAYER_CHANGE
;Z:0.2
;HEIGHT:0.2
;BEFORE_LAYER_CHANGE
G92 E0.0
;0.2


M73 P1 R19
G1 E-3.20000 F4200.000
G1 Z0.200 F9000.000
;AFTER_LAYER_CHANGE
;0.2
G1 Z0.400
G1 X68.501 Y76.241
G1 Z0.200
G1 E3.20000 F2400.000
M204 S800
;TYPE:Skirt
;WIDTH:0.42
G1 F1200.000
G1 X78.633 Y65.064 E0.47299
G1 X79.857 Y63.896 E0.05304
G1 X81.133 Y62.965 E0.04952
G1 X82.555 Y62.186 E0.05085
G1 X84.611 Y61.342 E0.06967
G1 X86.643 Y60.709 E0.06674
G1 X88.984 Y60.207 E0.07509
G1 X91.080 Y59.951 E0.06619
G1 X93.267 Y59.875 E0.06862
G1 X95.493 Y59.997 E0.06991
G1 X97.688 Y60.314 E0.06952
G1 X99.839 Y60.824 E0.06932
G1 X102.008 Y61.554 E0.07174
G1 X103.967 Y62.409 E0.06703
G1 X105.987 Y63.519 E0.07227
G1 X107.740 Y64.692 E0.06612
G1 X109.404 Y66.027 E0.06691
G1 X109.926 Y66.553 E0.02322
G1 X110.297 Y67.073 E0.02001
G1 X110.691 Y67.887 E0.02839
G1 X110.899 Y68.738 E0.02746
G1 X112.944 Y89.830 E0.66442
G1 X112.862 Y90.833 E0.03156
G1 X108.839 Y114.005 E0.73741
G1 X108.625 Y114.747 E0.02422
G1 X108.326 Y115.366 E0.02155
G1 X107.728 Y116.167 E0.03132
G1 X106.747 Y116.947 E0.03930
G1 X104.712 Y117.971 E0.07144
G1 X102.738 Y118.752 E0.06656
G1 X100.441 Y119.426 E0.07505
G1 X98.376 Y119.838 E0.06602
G1 X96.148 Y120.081 E0.07027
G1 X93.884 Y120.119 E0.07100
G1 X91.790 Y119.975 E0.06582
G1 X89.719 Y119.651 E0.06571
G1 X87.484 Y119.100 E0.07217
G1 X85.421 Y118.386 E0.06846
G1 X83.298 Y117.426 E0.07303
G1 X81.466 Y116.397 E0.06589
M73 P2 R19
G1 X79.732 Y115.217 E0.06577
G1 X78.408 Y114.092 E0.05447
G1 X77.277 Y112.817 E0.05344
G1 X76.408 Y111.534 E0.04858
G1 X69.265 Y99.475 E0.43946
G1 X68.392 Y96.946 E0.08389
G1 X68.221 Y95.915 E0.03276
G1 X67.056 Y80.764 E0.47647
G1 X67.119 Y79.900 E0.02716
G1 X67.241 Y79.401 E0.01609
G1 X67.970 Y77.175 E0.07343
G1 X68.472 Y76.293 E0.03182
M204 S1250
; printing object arm2.stl id:0 copy 0
G1 E-2.24000 F4200.000
;WIPE_START
G1 F7200.000
G1 X69.576 Y75.073 E-0.91200
;WIPE_END
G1 E-0.04800 F4200.000
G1 Z0.400 F9000.000
G1 X74.163 Y82.457
G1 Z0.200
G1 E3.20000 F2400.000
M204 S800
;TYPE:Support material
G1 F1200.000
G1 X74.163 Y80.070 E0.07486
G1 X74.382 Y79.765 E0.01176
G1 X74.631 Y79.526 E0.01084
G1 X74.917 Y79.333 E0.01080
G1 X74.917 Y82.885 E0.11135
G1 X75.073 Y82.971 E0.00559
G1 X75.399 Y83.087 E0.01086
G1 X75.671 Y83.133 E0.00865
G1 X75.671 Y79.093 E0.12667
G1 X75.913 Y79.073 E0.00761
G1 X76.257 Y79.102 E0.01083
G1 X76.425 Y79.146 E0.00544
G1 X76.425 Y83.087 E0.12359
G1 X76.753 Y82.971 E0.01089
G1 X77.055 Y82.803 E0.01086
G1 X77.179 Y82.702 E0.00501
G1 X77.179 Y79.516 E0.09992
G1 X77.443 Y79.765 E0.01139
G1 X77.649 Y80.044 E0.01086
G1 X77.805 Y80.352 E0.01083
G1 X77.906 Y80.683 E0.01086
G1 X77.933 Y80.896 E0.00672
G1 X77.933 Y81.990 E0.03431
M204 S1250
G1 E-2.24000 F4200.000
;WIPE_START
G1 F7200.000
G1 X77.933 Y80.896 E-0.60633
G1 X77.906 Y80.683 E-0.11869
G1 X77.808 Y80.361 E-0.18698
;WIPE_END
G1 E-0.04800 F4200.000
G1 Z0.400 F9000.000
G1 X75.671 Y93.548
G1 Z0.200
G1 E3.20000 F2400.000
M204 S800
G1 F1200.000
G1 X75.671 Y96.733 E0.09988
G1 X75.932 Y96.943 E0.01050
G1 X76.234 Y97.112 E0.01086
G1 X76.425 Y97.180 E0.00636
G1 X76.425 Y93.322 E0.12096
G1 X76.729 Y93.243 E0.00984
G1 X77.073 Y93.214 E0.01083
G1 X77.179 Y93.223 E0.00334
G1 X77.179 Y97.286 E0.12740
G1 X77.587 Y97.228 E0.01291
G1 X77.933 Y97.101 E0.01157
G1 X77.933 Y93.412 E0.11566
G1 X78.069 Y93.473 E0.00465
G1 X78.355 Y93.666 E0.01082
G1 X78.605 Y93.906 E0.01086
G1 X78.688 Y94.019 E0.00437
G1 X78.688 Y96.752 E0.08572
M204 S1250
G1 X79.349 Y97.629 F9000.000
M204 S800
;TYPE:Perimeter
G1 F1200.000
G1 X78.915 Y97.979 E0.01748
G1 X78.429 Y98.251 E0.01747
G1 X77.902 Y98.438 E0.01754
G1 X77.351 Y98.532 E0.01751
G1 X76.794 Y98.532 E0.01746
G1 X76.245 Y98.438 E0.01748
G1 X75.718 Y98.251 E0.01753
G1 X75.232 Y97.979 E0.01747
G1 X74.798 Y97.630 E0.01746
G1 X74.428 Y97.211 E0.01752
G1 X74.135 Y96.735 E0.01752
G1 X73.928 Y96.216 E0.01751
G1 X73.810 Y95.672 E0.01747
G1 X73.787 Y95.114 E0.01751
G1 X73.858 Y94.561 E0.01747
G1 X74.021 Y94.027 E0.01750
G1 X74.272 Y93.528 E0.01753
G1 X74.604 Y93.081 E0.01746
G1 X75.006 Y92.694 E0.01750
G1 X75.469 Y92.382 E0.01749
G1 X75.978 Y92.152 E0.01751
G1 X76.517 Y92.011 E0.01749
G1 X77.039 Y91.966 E0.01641
G1 X77.627 Y92.010 E0.01848
G1 X78.169 Y92.152 E0.01759
G1 X78.678 Y92.382 E0.01751
G1 X79.141 Y92.694 E0.01749
G1 X79.543 Y93.081 E0.01750
G1 X79.875 Y93.528 E0.01746
G1 X80.126 Y94.027 E0.01753
G1 X80.289 Y94.561 E0.01750
G1 X80.360 Y95.114 E0.01747
G1 X80.337 Y95.672 E0.01751
G1 X80.219 Y96.216 E0.01747
G1 X80.011 Y96.735 E0.01754
G1 X79.718 Y97.211 E0.01752
G1 X79.389 Y97.584 E0.01560
M204 S1250
G1 X79.106 Y97.335 F9000.000
M204 S800
;TYPE:External perimeter
G1 F1200.000
G1 X78.703 Y97.665 E0.01633
G1 X78.273 Y97.906 E0.01547
G1 X77.807 Y98.072 E0.01551
G1 X77.320 Y98.154 E0.01549
G1 X76.826 Y98.154 E0.01546
G1 X76.340 Y98.072 E0.01546
G1 X75.874 Y97.906 E0.01551
G1 X75.444 Y97.665 E0.01547
G1 X75.060 Y97.356 E0.01546
G1 X74.732 Y96.985 E0.01550
G1 X74.473 Y96.565 E0.01549
G1 X74.289 Y96.106 E0.01550
G1 X74.186 Y95.624 E0.01546
G1 X74.165 Y95.130 E0.01549
G1 X74.228 Y94.641 E0.01546
G1 X74.372 Y94.168 E0.01549
G1 X74.595 Y93.727 E0.01551
G1 X74.888 Y93.331 E0.01545
G1 X75.244 Y92.988 E0.01549
G1 X75.653 Y92.712 E0.01547
G1 X76.104 Y92.509 E0.01550
G1 X76.581 Y92.384 E0.01547
G1 X77.041 Y92.345 E0.01446
G1 X77.565 Y92.384 E0.01647
G1 X78.043 Y92.509 E0.01551
G1 X78.494 Y92.712 E0.01550
G1 X78.903 Y92.988 E0.01547
G1 X79.259 Y93.331 E0.01549
G1 X79.552 Y93.727 E0.01545
G1 X79.775 Y94.168 E0.01551
G1 X79.919 Y94.641 E0.01549
G1 X79.982 Y95.130 E0.01546
G1 X79.961 Y95.624 E0.01549
G1 X79.858 Y96.106 E0.01546
G1 X79.673 Y96.565 E0.01551
G1 X79.414 Y96.985 E0.01550
G1 X79.146 Y97.290 E0.01272
M204 S1250
G1 X79.204 Y97.723 F9000.000
G1 E-2.24000 F4200.000
;WIPE_START
G1 F7200.000
G1 X78.703 Y97.665 E-0.32152
G1 X78.273 Y97.906 E-0.27336
G1 X77.807 Y98.072 E-0.27415
G1 X77.730 Y98.085 E-0.04297
;WIPE_END
G1 E-0.04800 F4200.000
G1 Z0.400 F9000.000
G1 X81.237 Y95.784
G1 Z0.200
G1 E3.20000 F2400.000
M204 S800
;TYPE:Perimeter
G1 F1200.000
G1 X81.551 Y97.962 E0.06899
G1 X81.911 Y98.272 E0.01490
G1 X81.695 Y98.624 E0.01296
G1 X82.298 Y100.341 E0.05706
G1 X82.940 Y101.677 E0.04646
G1 X83.728 Y102.931 E0.04645
G1 X84.649 Y104.090 E0.04641
G1 X85.694 Y105.140 E0.04644
G1 X86.849 Y106.067 E0.04643
G1 X88.100 Y106.859 E0.04644
G1 X89.432 Y107.507 E0.04645
G1 X90.828 Y108.003 E0.04644
G1 X92.269 Y108.341 E0.04642
G1 X93.741 Y108.516 E0.04647
G1 X95.222 Y108.526 E0.04643
G1 X96.694 Y108.372 E0.04641
G1 X98.119 Y108.059 E0.04576
G1 X98.388 Y107.984 E0.00876
G1 X98.372 Y108.184 E0.00630
G1 X98.429 Y108.567 E0.01216
G1 X98.775 Y108.928 E0.01568
G1 X99.140 Y109.061 E0.01217
G1 X99.426 Y109.040 E0.00900
G1 X99.629 Y108.983 E0.00659
G1 X99.610 Y109.223 E0.00754
G1 X99.701 Y109.670 E0.01432
G1 X100.207 Y110.066 E0.02013
G1 X100.636 Y110.066 E0.01348
G1 X100.858 Y110.004 E0.00721
G1 X100.838 Y110.247 E0.00765
G1 X100.929 Y110.622 E0.01210
G1 X101.199 Y110.920 E0.01259
G1 X101.533 Y111.077 E0.01158
G1 X101.868 Y111.077 E0.01050
G1 X102.111 Y111.009 E0.00791
G1 X102.090 Y111.268 E0.00814
G1 X102.193 Y111.730 E0.01485
G1 X102.721 Y112.112 E0.02045
G1 X103.128 Y112.102 E0.01275
G1 X103.297 Y112.055 E0.00552
M73 P2 R18
G1 X103.282 Y112.165 E0.00349
G1 X103.321 Y112.530 E0.01151
G1 X103.624 Y112.921 E0.01551
G1 X104.027 Y113.082 E0.01362
G1 X104.327 Y113.067 E0.00942
G1 X104.463 Y113.030 E0.00441
G1 X104.445 Y113.162 E0.00419
G1 X104.518 Y113.527 E0.01167
G1 X104.733 Y113.809 E0.01112
G1 X104.956 Y113.955 E0.00835
G1 X105.223 Y114.041 E0.00879
G1 X105.381 Y114.033 E0.00498
G1 X105.119 Y114.233 E0.01035
G1 X103.414 Y115.085 E0.05975
G1 X101.625 Y115.789 E0.06028
G1 X99.781 Y116.332 E0.06027
G1 X97.896 Y116.710 E0.06028
G1 X95.985 Y116.920 E0.06030
G1 X94.064 Y116.960 E0.06025
G1 X92.145 Y116.830 E0.06029
G1 X90.246 Y116.530 E0.06028
G1 X88.381 Y116.064 E0.06028
G1 X86.565 Y115.435 E0.06026
G1 X84.811 Y114.647 E0.06028
G1 X83.134 Y113.708 E0.06027
G1 X81.553 Y112.628 E0.06004
G1 X80.622 Y111.829 E0.03848
G1 X79.810 Y110.919 E0.03823
G1 X79.126 Y109.910 E0.03822
G1 X78.580 Y108.819 E0.03824
G1 X78.183 Y107.666 E0.03824
M73 P3 R18
G1 X77.943 Y106.470 E0.03824
G1 X77.860 Y105.227 E0.03906
G1 X77.860 Y99.454 E0.18103
G1 X76.843 Y99.470 E0.03191
G1 X76.523 Y99.552 E0.01034
G1 X76.217 Y99.759 E0.01158
G1 X76.079 Y99.953 E0.00748
G1 X75.981 Y99.633 E0.01049
G1 X75.802 Y99.378 E0.00978
G1 X75.528 Y99.178 E0.01063
G1 X75.209 Y99.035 E0.01096
G1 X74.915 Y98.959 E0.00951
G1 X74.589 Y98.989 E0.01029
G1 X74.352 Y99.069 E0.00785
G1 X74.265 Y99.127 E0.00326
G1 X74.289 Y98.741 E0.01212
G1 X74.207 Y98.439 E0.00981
G1 X74.049 Y98.187 E0.00932
G1 X73.693 Y97.827 E0.01587
G1 X73.427 Y97.692 E0.00937
G1 X73.123 Y97.631 E0.00972
G1 X72.929 Y97.654 E0.00614
G1 X73.093 Y97.368 E0.01034
G1 X73.163 Y97.010 E0.01144
G1 X73.116 Y96.700 E0.00984
G1 X72.940 Y96.231 E0.01569
G1 X72.743 Y95.989 E0.00978
G1 X72.474 Y95.810 E0.01015
G1 X72.302 Y95.751 E0.00568
G1 X72.496 Y95.643 E0.00695
G1 X72.743 Y95.349 E0.01205
G1 X72.869 Y94.971 E0.01248
G1 X72.900 Y94.465 E0.01590
G1 X72.820 Y94.173 E0.00950
G1 X72.684 Y93.943 E0.00838
G1 X72.527 Y93.778 E0.00713
G1 X72.837 Y93.712 E0.00994
G1 X73.149 Y93.523 E0.01143
G1 X73.345 Y93.287 E0.00960
G1 X73.566 Y92.887 E0.01433
G1 X73.630 Y92.550 E0.01075
G1 X73.595 Y92.263 E0.00907
G1 X73.517 Y92.050 E0.00712
G1 X73.594 Y92.082 E0.00260
G1 X73.956 Y92.117 E0.01141
G1 X74.222 Y92.064 E0.00850
G1 X74.471 Y91.939 E0.00872
G1 X74.832 Y91.663 E0.01427
G1 X75.034 Y91.373 E0.01108
G1 X75.133 Y91.018 E0.01154
G1 X75.123 Y90.883 E0.00425
G1 X75.355 Y91.052 E0.00899
G1 X75.583 Y91.144 E0.00772
G1 X75.906 Y91.186 E0.01019
G1 X76.344 Y91.103 E0.01399
G1 X76.558 Y91.025 E0.00714
G1 X76.789 Y90.874 E0.00866
G1 X77.027 Y90.585 E0.01173
G1 X77.070 Y90.468 E0.00391
G1 X77.230 Y90.747 E0.01008
G1 X77.507 Y90.988 E0.01152
G1 X77.787 Y91.099 E0.00943
G1 X78.113 Y91.167 E0.01045
G1 X78.413 Y91.179 E0.00941
G1 X78.728 Y91.084 E0.01033
G1 X78.945 Y90.953 E0.00795
G1 X79.018 Y90.878 E0.00326
G1 X79.036 Y91.111 E0.00732
G1 X79.108 Y91.346 E0.00771
G1 X79.229 Y91.558 E0.00765
G1 X79.426 Y91.758 E0.00880
G1 X79.840 Y92.031 E0.01556
G1 X80.130 Y92.111 E0.00942
G1 X80.409 Y92.107 E0.00875
G1 X80.634 Y92.052 E0.00728
G1 X80.568 Y92.176 E0.00443
G1 X80.522 Y92.599 E0.01332
G1 X80.586 Y92.895 E0.00951
G1 X80.796 Y93.277 E0.01365
G1 X80.932 Y93.451 E0.00695
G1 X81.169 Y93.647 E0.00963
G1 X81.548 Y93.775 E0.01252
G1 X81.619 Y93.775 E0.00225
G1 X81.415 Y94.004 E0.00963
G1 X81.297 Y94.262 E0.00890
G1 X81.242 Y94.536 E0.00877
G1 X81.300 Y95.107 E0.01799
G1 X81.494 Y95.476 E0.01309
G1 X81.722 Y95.695 E0.00992
G1 X81.802 Y95.734 E0.00277
G1 X81.297 Y95.779 E0.01589
M204 S1250
G1 X81.667 Y96.125 F9000.000
M204 S800
;TYPE:External perimeter
G1 F1200.000
G1 X81.904 Y97.768 E0.05206
G1 X82.401 Y98.195 E0.02054
G1 X82.110 Y98.668 E0.01740
G1 X82.647 Y100.197 E0.05078
G1 X83.271 Y101.494 E0.04513
G1 X84.036 Y102.713 E0.04513
G1 X84.931 Y103.839 E0.04510
G1 X85.946 Y104.859 E0.04513
G1 X87.068 Y105.760 E0.04511
G1 X88.284 Y106.529 E0.04511
G1 X89.578 Y107.159 E0.04513
G1 X90.934 Y107.640 E0.04512
G1 X92.335 Y107.969 E0.04510
G1 X93.764 Y108.139 E0.04514
G1 X95.203 Y108.149 E0.04511
G1 X96.634 Y107.999 E0.04510
G1 X98.028 Y107.693 E0.04477
G1 X98.807 Y107.476 E0.02535
G1 X98.752 Y108.171 E0.02187
G1 X98.785 Y108.393 E0.00704
G1 X98.987 Y108.604 E0.00916
G1 X99.193 Y108.679 E0.00687
G1 X99.361 Y108.666 E0.00529
G1 X100.048 Y108.475 E0.02235
G1 X99.990 Y109.200 E0.02279
G1 X100.042 Y109.459 E0.00829
G1 X100.336 Y109.689 E0.01170
G1 X100.585 Y109.689 E0.00779
G1 X101.277 Y109.496 E0.02254
G1 X101.219 Y110.217 E0.02270
G1 X101.273 Y110.440 E0.00719
G1 X101.427 Y110.611 E0.00720
G1 X101.617 Y110.700 E0.00657
G1 X101.816 Y110.700 E0.00624
G1 X102.530 Y110.500 E0.02326
G1 X102.470 Y111.241 E0.02332
G1 X102.530 Y111.508 E0.00857
G1 X102.839 Y111.732 E0.01198
G1 X103.072 Y111.726 E0.00729
G1 X103.747 Y111.538 E0.02197
G1 X103.662 Y112.170 E0.02001
G1 X103.684 Y112.384 E0.00673
G1 X103.859 Y112.609 E0.00892
G1 X104.091 Y112.701 E0.00783
G1 X104.267 Y112.693 E0.00552
G1 X104.912 Y112.513 E0.02102
G1 X104.827 Y113.150 E0.02014
G1 X104.871 Y113.368 E0.00699
G1 X104.993 Y113.529 E0.00634
G1 X105.119 Y113.611 E0.00471
G1 X105.273 Y113.661 E0.00506
G1 X105.435 Y113.653 E0.00508
G1 X106.101 Y113.467 E0.02168
G1 X106.018 Y113.756 E0.00943
G1 X105.896 Y113.998 E0.00850
G1 X105.736 Y114.216 E0.00847
G1 X105.541 Y114.402 E0.00848
G1 X105.309 Y114.559 E0.00875
G1 X103.568 Y115.430 E0.06105
G1 X101.748 Y116.146 E0.06133
G1 X99.872 Y116.698 E0.06132
G1 X97.954 Y117.083 E0.06132
G1 X96.009 Y117.297 E0.06135
G1 X94.055 Y117.337 E0.06130
G1 X92.103 Y117.205 E0.06134
G1 X90.171 Y116.900 E0.06133
G1 X88.273 Y116.426 E0.06133
G1 X86.425 Y115.786 E0.06131
G1 X84.642 Y114.984 E0.06133
G1 X82.935 Y114.029 E0.06132
G1 X81.323 Y112.928 E0.06121
G1 X80.357 Y112.098 E0.03992
G1 X79.512 Y111.151 E0.03980
G1 X78.800 Y110.101 E0.03979
G1 X78.232 Y108.965 E0.03980
G1 X77.819 Y107.765 E0.03981
G1 X77.568 Y106.520 E0.03981
G1 X77.483 Y105.240 E0.04023
G1 X77.483 Y99.837 E0.16941
G1 X76.893 Y99.846 E0.01849
G1 X76.680 Y99.901 E0.00690
G1 X76.485 Y100.033 E0.00740
G1 X76.330 Y100.250 E0.00835
G1 X75.924 Y101.224 E0.03310
G1 X75.695 Y101.181 E0.00730
G1 X75.720 Y100.124 E0.03317
G1 X75.702 Y99.974 E0.00472
G1 X75.643 Y99.808 E0.00554
G1 X75.529 Y99.646 E0.00620
G1 X75.337 Y99.506 E0.00745
G1 X75.084 Y99.392 E0.00871
G1 X74.884 Y99.341 E0.00646
G1 X74.667 Y99.360 E0.00683
G1 X74.520 Y99.410 E0.00489
G1 X74.364 Y99.514 E0.00586
G1 X73.589 Y100.245 E0.03341
G1 X73.408 Y100.113 E0.00702
G1 X73.891 Y99.063 E0.03626
G1 X73.909 Y98.780 E0.00888
G1 X73.858 Y98.592 E0.00611
G1 X73.752 Y98.422 E0.00627
G1 X73.468 Y98.136 E0.01263
G1 X73.302 Y98.052 E0.00585
G1 X73.108 Y98.012 E0.00620
G1 X72.876 Y98.040 E0.00732
G1 X71.857 Y98.388 E0.03377
G1 X71.748 Y98.194 E0.00699
G1 X72.538 Y97.515 E0.03264
G1 X72.622 Y97.431 E0.00374
G1 X72.735 Y97.235 E0.00710
G1 X72.780 Y97.002 E0.00743
G1 X72.749 Y96.795 E0.00656
G1 X72.608 Y96.421 E0.01253
G1 X72.487 Y96.271 E0.00606
G1 X72.306 Y96.151 E0.00681
G1 X72.168 Y96.104 E0.00457
G1 X71.033 Y96.006 E0.03573
G1 X71.010 Y95.779 E0.00715
G1 X72.040 Y95.466 E0.03375
G1 X72.252 Y95.347 E0.00761
G1 X72.409 Y95.161 E0.00764
G1 X72.496 Y94.899 E0.00866
G1 X72.520 Y94.505 E0.01239
G1 X72.470 Y94.322 E0.00595
G1 X72.381 Y94.172 E0.00547
G1 X72.259 Y94.042 E0.00557
G1 X71.251 Y93.484 E0.03612
G1 X71.329 Y93.263 E0.00734
G1 X72.471 Y93.404 E0.03610
G1 X72.696 Y93.356 E0.00722
G1 X72.900 Y93.233 E0.00746
G1 X73.032 Y93.074 E0.00649
G1 X73.207 Y92.757 E0.01134
