; generated by PrusaSlicer 2.3.3+win64 on 2022-06-14 at 15:32:26 UTC


;
;

;
;
; 

; external perimeters extrusion width = 0.45mm
; perimeters extrusion width = 0.45mm
; infill extrusion width = 0.45mm
; solid infill extrusion width = 0.45mm
; top infill extrusion width = 0.40mm
; support material extrusion width = 0.35mm
; first layer extrusion width = 0.42mm

M73 P0 R73
M201 X1250 Y1250 Z400 E5000 ; sets maximum accelerations, mm/sec^2
M203 X180 Y180 Z12 E80 ; sets maximum feedrates, mm/sec
M204 P1250 R1250 T1250 ; sets acceleration (P, T) and retract acceleration (R), mm/sec^2
M205 X8.00 Y8.00 Z2.00 E10.00 ; sets the jerk limits, mm/sec
M205 S0 T0 ; sets the minimum extruding and travel feed rate, mm/sec
M107
;TYPE:Custom
G90 ; use absolute coordinates
M83 ; extruder relative mode
M104 S170 ; set extruder temp for bed leveling
M140 S60 ; set bed temp
M109 R170 ; wait for bed leveling temp
M190 S60 ; wait for bed temp
G28 ; home all without mesh bed level
G29 ; mesh bed leveling 
M104 S215 ; set extruder temp
G92 E0.0
G1 Y-2.0 X179 F2400
G1 Z3 F720
M109 S215 ; wait for extruder temp

; intro line
G1 X170 F1000
G1 Z0.2 F720
G1 X110.0 E8.0 F900
G1 X40.0 E10.0 F700
G92 E0.0

M221 S95 ; set flow
G21 ; set units to millimeters
G90 ; use absolute coordinates
M83 ; use relative distances for extrusion
M900 K0.2 ; Filament gcode LA 1.5
; ; Filament gcode LA 1.0
;LAYER_CHANGE
;Z:0.2
;HEIGHT:0.2
;BEFORE_LAYER_CHANGE
G92 E0.0
;0.2


G1 E-3.20000 F4200.000
G1 Z0.200 F9000.000
;AFTER_LAYER_CHANGE
;0.2
G1 Z0.400
G1 X23.829 Y75.825
G1 Z0.200
G1 E3.20000 F2400.000
M204 S800
;TYPE:Skirt
;WIDTH:0.42
G1 F1200.000
G1 X24.494 Y75.520 E0.02296
G1 X25.086 Y75.430 E0.01875
G1 X129.221 Y72.953 E3.26600
M73 P0 R72
G1 X154.957 Y73.125 E0.80697
G1 X155.494 Y73.209 E0.01704
G1 X155.998 Y73.414 E0.01704
G1 X156.442 Y73.727 E0.01704
G1 X156.801 Y74.130 E0.01692
G1 X157.119 Y74.768 E0.02237
G1 X157.235 Y75.472 E0.02237
G1 X157.234 Y109.322 E1.06134
G1 X157.160 Y109.876 E0.01752
G1 X156.958 Y110.397 E0.01752
G1 X156.641 Y110.856 E0.01752
G1 X156.228 Y111.227 E0.01740
G1 X155.586 Y111.547 E0.02249
G1 X154.882 Y111.661 E0.02237
G1 X129.071 Y111.487 E0.80929
G1 X24.954 Y104.733 E3.27137
G1 X24.253 Y104.567 E0.02260
G1 X23.633 Y104.199 E0.02260
G1 X23.152 Y103.662 E0.02260
G1 X22.855 Y103.009 E0.02249
G1 X22.765 Y102.370 E0.02024
G1 X22.769 Y77.666 E0.77458
G1 X22.923 Y76.954 E0.02284
G1 X23.288 Y76.319 E0.02296
G1 X23.785 Y75.866 E0.02108
M204 S1250
; printing object arm3.stl id:0 copy 0
G1 E-2.24000 F4200.000
;WIPE_START
G1 F7200.000
G1 X24.494 Y75.520 E-0.43756
G1 X25.086 Y75.430 E-0.33144
G1 X25.344 Y75.424 E-0.14301
;WIPE_END
G1 E-0.04800 F4200.000
G1 Z0.400 F9000.000
G1 X25.142 Y102.363
G1 Z0.200
G1 E3.20000 F2400.000
M204 S800
;TYPE:Support material
G1 F1200.000
G1 X25.142 Y77.807 E0.76994
G1 X25.896 Y77.807 E0.02365
G1 X25.896 Y102.193 E0.76462
G1 X26.651 Y102.193 E0.02365
G1 X26.651 Y77.807 E0.76462
G1 X27.405 Y77.807 E0.02365
G1 X27.405 Y102.363 E0.76994
M204 S1250
G1 X58.325 Y102.363 F9000.000
M204 S800
G1 F1200.000
G1 X58.325 Y99.322 E0.09534
G1 X58.190 Y99.458 E0.00600
G1 X57.571 Y99.458 E0.01940
G1 X57.571 Y102.193 E0.08578
G1 X56.817 Y102.193 E0.02365
G1 X56.817 Y99.458 E0.08578
G1 X56.063 Y99.458 E0.02365
G1 X56.063 Y102.193 E0.08578
G1 X55.309 Y102.193 E0.02365
G1 X55.309 Y99.458 E0.08578
G1 X54.555 Y99.458 E0.02365
G1 X54.555 Y102.193 E0.08578
G1 X53.800 Y102.193 E0.02365
G1 X53.800 Y99.458 E0.08578
G1 X53.046 Y99.458 E0.02365
G1 X53.046 Y102.193 E0.08578
G1 X52.292 Y102.193 E0.02365
G1 X52.292 Y99.458 E0.08578
G1 X51.538 Y99.458 E0.02365
G1 X51.538 Y102.193 E0.08578
G1 X50.784 Y102.193 E0.02365
G1 X50.784 Y99.458 E0.08578
G1 X50.030 Y99.458 E0.02365
G1 X50.030 Y102.193 E0.08578
G1 X49.275 Y102.193 E0.02365
G1 X49.275 Y99.458 E0.08578
G1 X48.521 Y99.458 E0.02365
G1 X48.521 Y102.193 E0.08578
G1 X47.767 Y102.193 E0.02365
G1 X47.767 Y99.458 E0.08578
G1 X47.013 Y99.458 E0.02365
G1 X47.013 Y102.193 E0.08578
G1 X46.259 Y102.193 E0.02365
G1 X46.259 Y99.458 E0.08578
G1 X45.505 Y99.458 E0.02365
G1 X45.505 Y102.193 E0.08578
G1 X44.750 Y102.193 E0.02365
G1 X44.750 Y99.458 E0.08578
G1 X43.996 Y99.458 E0.02365
G1 X43.996 Y102.193 E0.08578
G1 X43.242 Y102.193 E0.02365
G1 X43.242 Y99.458 E0.08578
G1 X42.488 Y99.458 E0.02365
G1 X42.488 Y102.193 E0.08578
G1 X41.734 Y102.193 E0.02365
G1 X41.734 Y99.458 E0.08578
G1 X40.980 Y99.458 E0.02365
G1 X40.980 Y102.193 E0.08578
G1 X40.226 Y102.193 E0.02365
M73 P1 R72
G1 X40.226 Y99.458 E0.08578
G1 X39.471 Y99.458 E0.02365
G1 X39.471 Y102.193 E0.08578
G1 X38.717 Y102.193 E0.02365
G1 X38.717 Y99.458 E0.08578
G1 X37.963 Y99.458 E0.02365
G1 X37.963 Y102.193 E0.08578
G1 X37.209 Y102.193 E0.02365
G1 X37.209 Y99.458 E0.08578
G1 X36.455 Y99.458 E0.02365
G1 X36.455 Y102.193 E0.08578
G1 X35.701 Y102.193 E0.02365
G1 X35.701 Y99.458 E0.08578
G1 X34.946 Y99.458 E0.02365
G1 X34.946 Y102.193 E0.08578
G1 X34.192 Y102.193 E0.02365
G1 X34.192 Y99.458 E0.08578
G1 X33.438 Y99.458 E0.02365
G1 X33.438 Y102.193 E0.08578
G1 X32.684 Y102.193 E0.02365
G1 X32.684 Y99.458 E0.08578
G1 X31.930 Y99.458 E0.02365
G1 X31.930 Y102.193 E0.08578
G1 X31.176 Y102.193 E0.02365
G1 X31.176 Y99.458 E0.08578
G1 X30.421 Y99.458 E0.02365
G1 X30.421 Y102.193 E0.08578
G1 X29.667 Y102.193 E0.02365
G1 X29.667 Y99.458 E0.08578
G1 X28.913 Y99.458 E0.02365
G1 X28.913 Y102.193 E0.08578
G1 X28.159 Y102.193 E0.02365
G1 X28.159 Y77.807 E0.76462
G1 X28.913 Y77.807 E0.02365
G1 X28.913 Y80.542 E0.08578
G1 X29.667 Y80.542 E0.02365
G1 X29.667 Y77.807 E0.08578
G1 X30.421 Y77.807 E0.02365
G1 X30.421 Y80.542 E0.08578
G1 X31.176 Y80.542 E0.02365
G1 X31.176 Y77.807 E0.08578
G1 X31.930 Y77.807 E0.02365
G1 X31.930 Y80.542 E0.08578
G1 X32.684 Y80.542 E0.02365
G1 X32.684 Y77.807 E0.08578
G1 X33.438 Y77.807 E0.02365
G1 X33.438 Y80.542 E0.08578
G1 X34.192 Y80.542 E0.02365
G1 X34.192 Y77.807 E0.08578
G1 X34.946 Y77.807 E0.02365
G1 X34.946 Y80.542 E0.08578
G1 X35.701 Y80.542 E0.02365
G1 X35.701 Y77.807 E0.08578
G1 X36.455 Y77.807 E0.02365
G1 X36.455 Y80.542 E0.08578
G1 X37.209 Y80.542 E0.02365
G1 X37.209 Y77.807 E0.08578
G1 X37.963 Y77.807 E0.02365
G1 X37.963 Y80.542 E0.08578
G1 X38.717 Y80.542 E0.02365
G1 X38.717 Y77.807 E0.08578
G1 X39.471 Y77.807 E0.02365
G1 X39.471 Y80.542 E0.08578
G1 X40.226 Y80.542 E0.02365
G1 X40.226 Y77.807 E0.08578
G1 X40.980 Y77.807 E0.02365
G1 X40.980 Y80.542 E0.08578
G1 X41.734 Y80.542 E0.02365
G1 X41.734 Y77.807 E0.08578
G1 X42.488 Y77.807 E0.02365
G1 X42.488 Y80.542 E0.08578
G1 X43.242 Y80.542 E0.02365
G1 X43.242 Y77.807 E0.08578
G1 X43.996 Y77.807 E0.02365
G1 X43.996 Y80.542 E0.08578
G1 X44.750 Y80.542 E0.02365
G1 X44.750 Y77.807 E0.08578
G1 X45.505 Y77.807 E0.02365
G1 X45.505 Y80.542 E0.08578
G1 X46.259 Y80.542 E0.02365
G1 X46.259 Y77.807 E0.08578
G1 X47.013 Y77.807 E0.02365
G1 X47.013 Y80.542 E0.08578
G1 X47.767 Y80.542 E0.02365
G1 X47.767 Y77.807 E0.08578
G1 X48.521 Y77.807 E0.02365
G1 X48.521 Y80.542 E0.08578
G1 X49.275 Y80.542 E0.02365
G1 X49.275 Y77.807 E0.08578
G1 X50.030 Y77.807 E0.02365
G1 X50.030 Y80.542 E0.08578
G1 X50.784 Y80.542 E0.02365
G1 X50.784 Y77.807 E0.08578
G1 X51.538 Y77.807 E0.02365
G1 X51.538 Y80.542 E0.08578
G1 X52.292 Y80.542 E0.02365
G1 X52.292 Y77.807 E0.08578
G1 X53.046 Y77.807 E0.02365
G1 X53.046 Y80.542 E0.08578
G1 X53.800 Y80.542 E0.02365
G1 X53.800 Y77.807 E0.08578
G1 X54.555 Y77.807 E0.02365
G1 X54.555 Y80.542 E0.08578
G1 X55.309 Y80.542 E0.02365
G1 X55.309 Y77.807 E0.08578
G1 X56.063 Y77.807 E0.02365
G1 X56.063 Y80.542 E0.08578
G1 X56.817 Y80.542 E0.02365
G1 X56.817 Y77.807 E0.08578
G1 X57.571 Y77.807 E0.02365
G1 X57.571 Y80.542 E0.08578
G1 X58.190 Y80.542 E0.01940
G1 X58.325 Y80.678 E0.00600
G1 X58.325 Y77.637 E0.09534
M204 S1250
G1 E-2.24000 F4200.000
;WIPE_START
G1 F7200.000
G1 X58.325 Y79.283 E-0.91200
;WIPE_END
G1 E-0.04800 F4200.000
G1 Z0.400 F9000.000
G1 X129.216 Y75.330
G1 Z0.200
G1 E3.20000 F2400.000
M204 S800
G1 F1200.000
G1 X129.216 Y87.042 E0.36724
G1 X129.970 Y87.042 E0.02365
G1 X129.970 Y75.500 E0.36192
G1 X130.725 Y75.500 E0.02365
G1 X130.725 Y87.042 E0.36192
G1 X131.479 Y87.042 E0.02365
G1 X131.479 Y75.500 E0.36192
G1 X132.233 Y75.500 E0.02365
G1 X132.233 Y87.212 E0.36724
M204 S1250
G1 E-2.24000 F4200.000
;WIPE_START
G1 F7200.000
G1 X132.233 Y85.566 E-0.91200
;WIPE_END
G1 E-0.04800 F4200.000
G1 Z0.400 F9000.000
G1 X129.216 Y92.790
G1 Z0.200
G1 E3.20000 F2400.000
M204 S800
G1 F1200.000
G1 X129.216 Y109.114 E0.51185
G1 X129.970 Y109.114 E0.02365
G1 X129.970 Y92.960 E0.50653
G1 X130.725 Y92.960 E0.02365
G1 X130.725 Y109.114 E0.50653
G1 X131.479 Y109.114 E0.02365
G1 X131.479 Y92.960 E0.50653
G1 X132.233 Y92.960 E0.02365
G1 X132.233 Y109.114 E0.50653
G1 X132.987 Y109.114 E0.02365
G1 X132.987 Y104.959 E0.13031
G1 X133.741 Y104.959 E0.02365
G1 X133.741 Y109.114 E0.13031
G1 X134.495 Y109.114 E0.02365
G1 X134.495 Y104.959 E0.13031
G1 X135.250 Y104.959 E0.02365
G1 X135.250 Y109.114 E0.13031
G1 X136.004 Y109.114 E0.02365
G1 X136.004 Y104.959 E0.13031
G1 X136.758 Y104.959 E0.02365
G1 X136.758 Y109.114 E0.13031
G1 X137.512 Y109.114 E0.02365
G1 X137.512 Y104.959 E0.13031
G1 X138.266 Y104.959 E0.02365
G1 X138.266 Y109.114 E0.13031
G1 X139.020 Y109.114 E0.02365
G1 X139.020 Y104.959 E0.13031
G1 X139.774 Y104.959 E0.02365
G1 X139.774 Y109.114 E0.13031
G1 X140.529 Y109.114 E0.02365
G1 X140.529 Y104.959 E0.13031
G1 X141.283 Y104.959 E0.02365
G1 X141.283 Y109.114 E0.13031
G1 X142.037 Y109.114 E0.02365
G1 X142.037 Y104.959 E0.13031
G1 X142.791 Y104.959 E0.02365
G1 X142.791 Y109.114 E0.13031
G1 X143.545 Y109.114 E0.02365
G1 X143.545 Y104.959 E0.13031
G1 X144.299 Y104.959 E0.02365
G1 X144.299 Y109.114 E0.13031
G1 X145.054 Y109.114 E0.02365
G1 X145.054 Y104.959 E0.13031
G1 X145.808 Y104.959 E0.02365
G1 X145.808 Y109.114 E0.13031
G1 X146.562 Y109.114 E0.02365
G1 X146.562 Y104.959 E0.13031
G1 X147.316 Y104.959 E0.02365
G1 X147.316 Y109.114 E0.13031
G1 X148.070 Y109.114 E0.02365
G1 X148.070 Y104.959 E0.13031
G1 X148.824 Y104.959 E0.02365
G1 X148.824 Y109.114 E0.13031
G1 X149.579 Y109.114 E0.02365
G1 X149.579 Y104.959 E0.13031
G1 X150.333 Y104.959 E0.02365
G1 X150.333 Y109.114 E0.13031
G1 X151.087 Y109.114 E0.02365
G1 X151.087 Y104.959 E0.13031
G1 X151.190 Y104.959 E0.00323
G1 X151.459 Y104.690 E0.01191
G1 X151.459 Y75.500 E0.91524
G1 X151.841 Y75.500 E0.01199
G1 X151.841 Y109.114 E1.05397
G1 X152.595 Y109.114 E0.02365
G1 X152.595 Y75.500 E1.05397
G1 X153.349 Y75.500 E0.02365
G1 X153.349 Y109.114 E1.05397
M73 P1 R71
G1 X154.104 Y109.114 E0.02365
G1 X154.104 Y75.500 E1.05397
G1 X154.858 Y75.500 E0.02365
G1 X154.858 Y109.284 E1.05929
M204 S1250
G1 E-2.24000 F4200.000
;WIPE_START
G1 F7200.000
G1 X154.858 Y107.638 E-0.91200
;WIPE_END
G1 E-0.04800 F4200.000
G1 Z0.400 F9000.000
G1 X150.213 Y103.713
G1 Z0.200
G1 E3.20000 F2400.000
M204 S800
;TYPE:Perimeter
G1 F1200.000
G1 X133.790 Y103.713 E0.51493
G1 X133.790 Y91.714 E0.37622
G1 X57.213 Y91.714 E2.40102
G1 X57.213 Y98.212 E0.20374
G1 X29.787 Y98.212 E0.85992
M73 P2 R71
G1 X29.787 Y81.788 E0.51496
G1 X57.213 Y81.788 E0.85992
G1 X57.213 Y88.288 E0.20380
G1 X133.790 Y88.288 E2.40102
G1 X133.790 Y76.287 E0.37628
G1 X150.213 Y76.287 E0.51493
G1 X150.213 Y103.653 E0.85804
M204 S1250
G1 E-2.24000 F4200.000
;WIPE_START
G1 F7200.000
G1 X148.567 Y103.659 E-0.91200
;WIPE_END
G1 E-0.04800 F4200.000
G1 Z0.400 F9000.000
G1 X133.413 Y92.091
G1 Z0.200
G1 E3.20000 F2400.000
M204 S800
;TYPE:External perimeter
G1 F1200.000
G1 X57.590 Y92.091 E2.37738
G1 X57.590 Y98.589 E0.20374
G1 X29.410 Y98.589 E0.88356
G1 X29.410 Y81.411 E0.53860
G1 X57.590 Y81.411 E0.88356
G1 X57.590 Y87.911 E0.20380
G1 X133.413 Y87.911 E2.37738
G1 X133.413 Y75.910 E0.37628
G1 X150.590 Y75.910 E0.53857
G1 X150.590 Y104.090 E0.88356
G1 X133.413 Y104.090 E0.53857
G1 X133.413 Y92.151 E0.37434
M204 S1250
G1 X133.287 Y91.711 F9000.000
G1 E-2.24000 F4200.000
;WIPE_START
G1 F7200.000
G1 X131.767 Y92.150 E-0.91200
;WIPE_END
G1 E-0.04800 F4200.000
G1 Z0.400 F9000.000
G1 X150.100 Y77.163
G1 Z0.200
G1 E3.20000 F2400.000
M204 S800
;TYPE:Solid infill
;WIDTH:0.420327
G1 F1200.000
G1 X149.507 Y76.570 E0.02633
G1 X148.973 Y76.570 E0.01675
G1 X149.930 Y77.527 E0.04249
G1 X149.930 Y78.061 E0.01675
G1 X148.439 Y76.570 E0.06617
G1 X147.905 Y76.570 E0.01675
G1 X149.930 Y78.595 E0.08986
G1 X149.930 Y79.128 E0.01675
G1 X147.372 Y76.570 E0.11355
G1 X146.838 Y76.570 E0.01675
G1 X149.930 Y79.662 E0.13724
G1 X149.930 Y80.196 E0.01675
G1 X146.304 Y76.570 E0.16092
G1 X145.770 Y76.570 E0.01675
G1 X149.930 Y80.730 E0.18461
G1 X149.930 Y81.263 E0.01675
G1 X145.237 Y76.570 E0.20830
G1 X144.703 Y76.570 E0.01675
G1 X149.930 Y81.797 E0.23198
G1 X149.930 Y82.331 E0.01675
G1 X144.169 Y76.570 E0.25567
G1 X143.635 Y76.570 E0.01675
G1 X149.930 Y82.865 E0.27936
G1 X149.930 Y83.398 E0.01675
G1 X143.102 Y76.570 E0.30305
G1 X142.568 Y76.570 E0.01675
G1 X149.930 Y83.932 E0.32673
G1 X149.930 Y84.466 E0.01675
G1 X142.034 Y76.570 E0.35042
G1 X141.501 Y76.570 E0.01675
G1 X149.930 Y84.999 E0.37411
G1 X149.930 Y85.533 E0.01675
G1 X140.967 Y76.570 E0.39779
G1 X140.433 Y76.570 E0.01675
G1 X149.930 Y86.067 E0.42148
G1 X149.930 Y86.601 E0.01675
G1 X139.899 Y76.570 E0.44517
G1 X139.366 Y76.570 E0.01675
G1 X149.930 Y87.134 E0.46886
G1 X149.930 Y87.668 E0.01675
G1 X138.832 Y76.570 E0.49254
G1 X138.298 Y76.570 E0.01675
G1 X149.930 Y88.202 E0.51623
G1 X149.930 Y88.736 E0.01675
G1 X137.764 Y76.570 E0.53992
G1 X137.231 Y76.570 E0.01675
G1 X149.930 Y89.269 E0.56361
G1 X149.930 Y89.803 E0.01675
G1 X136.697 Y76.570 E0.58729
G1 X136.163 Y76.570 E0.01675
G1 X149.930 Y90.337 E0.61098
G1 X149.930 Y90.871 E0.01675
G1 X135.629 Y76.570 E0.63467
G1 X135.096 Y76.570 E0.01675
G1 X149.930 Y91.404 E0.65835
M73 P3 R71
G1 X149.930 Y91.938 E0.01675
G1 X134.562 Y76.570 E0.68204
G1 X134.073 Y76.570 E0.01535
G1 X134.073 Y76.615 E0.00140
G1 X149.930 Y92.472 E0.70375
G1 X149.930 Y93.005 E0.01675
G1 X134.073 Y77.148 E0.70375
G1 X134.073 Y77.682 E0.01675
G1 X149.930 Y93.539 E0.70375
G1 X149.930 Y94.073 E0.01675
G1 X134.073 Y78.216 E0.70375
M73 P3 R70
G1 X134.073 Y78.749 E0.01675
G1 X149.930 Y94.607 E0.70375
G1 X149.930 Y95.140 E0.01675
G1 X134.073 Y79.283 E0.70375
G1 X134.073 Y79.817 E0.01675
G1 X149.930 Y95.674 E0.70375
G1 X149.930 Y96.208 E0.01675
G1 X134.073 Y80.351 E0.70375
G1 X134.073 Y80.884 E0.01675
G1 X149.930 Y96.742 E0.70375
G1 X149.930 Y97.275 E0.01675
G1 X134.073 Y81.418 E0.70375
G1 X134.073 Y81.952 E0.01675
G1 X149.930 Y97.809 E0.70375
G1 X149.930 Y98.343 E0.01675
G1 X134.073 Y82.486 E0.70375
G1 X134.073 Y83.019 E0.01675
G1 X149.930 Y98.877 E0.70375
G1 X149.930 Y99.410 E0.01675
G1 X134.073 Y83.553 E0.70375
G1 X134.073 Y84.087 E0.01675
G1 X149.930 Y99.944 E0.70375
G1 X149.930 Y100.478 E0.01675
G1 X134.073 Y84.621 E0.70375
G1 X134.073 Y85.154 E0.01675
G1 X149.930 Y101.012 E0.70375
G1 X149.930 Y101.545 E0.01675
G1 X134.073 Y85.688 E0.70375
G1 X134.073 Y86.222 E0.01675
G1 X149.930 Y102.079 E0.70375
G1 X149.930 Y102.613 E0.01675
G1 X134.073 Y86.755 E0.70375
G1 X134.073 Y87.289 E0.01675
G1 X149.930 Y103.146 E0.70375
G1 X149.930 Y103.430 E0.00890
G1 X149.680 Y103.430 E0.00785
G1 X134.073 Y87.823 E0.69265
G1 X134.073 Y88.357 E0.01675
G1 X149.146 Y103.430 E0.66896
G1 X148.613 Y103.430 E0.01675
G1 X133.753 Y88.571 E0.65946
G1 X133.220 Y88.571 E0.01675
G1 X148.079 Y103.430 E0.65946
G1 X147.545 Y103.430 E0.01675
G1 X132.686 Y88.571 E0.65946
G1 X132.152 Y88.571 E0.01675
G1 X147.011 Y103.430 E0.65946
G1 X146.478 Y103.430 E0.01675
G1 X131.618 Y88.571 E0.65946
G1 X131.085 Y88.571 E0.01675
G1 X145.944 Y103.430 E0.65946
G1 X145.410 Y103.430 E0.01675
G1 X134.073 Y92.093 E0.50315
G1 X134.073 Y92.627 E0.01675
G1 X144.876 Y103.430 E0.47946
G1 X144.343 Y103.430 E0.01675
G1 X134.073 Y93.160 E0.45578
G1 X134.073 Y93.694 E0.01675
G1 X143.809 Y103.430 E0.43209
G1 X143.275 Y103.430 E0.01675
G1 X134.073 Y94.228 E0.40840
G1 X134.073 Y94.761 E0.01675
G1 X142.742 Y103.430 E0.38472
G1 X142.208 Y103.430 E0.01675
G1 X134.073 Y95.295 E0.36103
G1 X134.073 Y95.829 E0.01675
G1 X141.674 Y103.430 E0.33734
G1 X141.140 Y103.430 E0.01675
G1 X134.073 Y96.363 E0.31365
G1 X134.073 Y96.896 E0.01675
G1 X140.607 Y103.430 E0.28997
