; generated by PrusaSlicer 2.3.3+win64 on 2022-06-14 at 12:08:15 UTC


;
;

;
;
; 

; external perimeters extrusion width = 0.45mm
; perimeters extrusion width = 0.45mm
; infill extrusion width = 0.45mm
; solid infill extrusion width = 0.45mm
; top infill extrusion width = 0.40mm
; support material extrusion width = 0.35mm
; first layer extrusion width = 0.42mm

M73 P0 R175
M201 X1250 Y1250 Z400 E5000 ; sets maximum accelerations, mm/sec^2
M203 X180 Y180 Z12 E80 ; sets maximum feedrates, mm/sec
M204 P1250 R1250 T1250 ; sets acceleration (P, T) and retract acceleration (R), mm/sec^2
M205 X8.00 Y8.00 Z2.00 E10.00 ; sets the jerk limits, mm/sec
M205 S0 T0 ; sets the minimum extruding and travel feed rate, mm/sec
M107
;TYPE:Custom
G90 ; use absolute coordinates
M83 ; extruder relative mode
M104 S170 ; set extruder temp for bed leveling
M140 S60 ; set bed temp
M109 R170 ; wait for bed leveling temp
M190 S60 ; wait for bed temp
G28 ; home all without mesh bed level
G29 ; mesh bed leveling 
M104 S215 ; set extruder temp
G92 E0.0
G1 Y-2.0 X179 F2400
G1 Z3 F720
M109 S215 ; wait for extruder temp

; intro line
G1 X170 F1000
G1 Z0.2 F720
G1 X110.0 E8.0 F900
G1 X40.0 E10.0 F700
G92 E0.0

M221 S95 ; set flow
G21 ; set units to millimeters
G90 ; use absolute coordinates
M83 ; use relative distances for extrusion
M900 K0.2 ; Filament gcode LA 1.5
; ; Filament gcode LA 1.0
;LAYER_CHANGE
;Z:0.2
;HEIGHT:0.2
;BEFORE_LAYER_CHANGE
G92 E0.0
;0.2


G1 E-3.20000 F4200.000
G1 Z0.200 F9000.000
;AFTER_LAYER_CHANGE
;0.2
G1 Z0.400
G1 X39.910 Y8.779
G1 Z0.200
G1 E3.20000 F2400.000
M204 S800
;TYPE:Skirt
;WIDTH:0.42
G1 F1200.000
G1 X40.615 Y8.553 E0.02319
G1 X136.008 Y8.355 E2.99099
G1 X139.404 Y8.555 E0.10667
G1 X140.028 Y8.748 E0.02048
G1 X140.576 Y9.104 E0.02048
G1 X156.587 Y25.420 E0.71675
G1 X156.998 Y26.016 E0.02272
G1 X157.210 Y26.709 E0.02272
G1 X157.235 Y150.819 E3.89138
G1 X157.150 Y151.440 E0.01965
G1 X156.904 Y152.021 E0.01977
G1 X140.794 Y170.851 E0.77699
G1 X140.166 Y171.351 E0.02520
G1 X139.406 Y171.614 E0.02520
G1 X40.972 Y171.645 E3.08633
G1 X40.351 Y171.561 E0.01965
G1 X39.771 Y171.315 E0.01977
G1 X39.177 Y170.818 E0.02426
G1 X23.317 Y152.164 E0.76772
G1 X22.956 Y151.575 E0.02166
G1 X22.781 Y150.911 E0.02154
G1 X22.765 Y27.043 E3.88378
G1 X22.850 Y26.422 E0.01965
G1 X23.096 Y25.842 E0.01977
G1 X23.440 Y25.392 E0.01775
G1 X39.309 Y9.210 E0.71065
G1 X39.861 Y8.814 E0.02131
M204 S1250
; printing object chassis.stl id:0 copy 0
G1 E-2.24000 F4200.000
;WIPE_START
G1 F7200.000
G1 X40.615 Y8.553 E-0.44170
G1 X41.463 Y8.551 E-0.47030
;WIPE_END
G1 E-0.04800 F4200.000
G1 Z0.400 F9000.000
G1 X45.505 Y14.779
G1 Z0.200
G1 E3.20000 F2400.000
M204 S800
;TYPE:Support material
G1 F1200.000
G1 X45.505 Y26.229 E0.35902
M204 S1250
G1 X43.242 Y26.229 F9000.000
M204 S800
G1 F1200.000
G1 X43.242 Y10.901 E0.48059
G1 X42.488 Y10.901 E0.02365
G1 X42.488 Y26.060 E0.47527
M73 P0 R174
G1 X41.734 Y26.060 E0.02365
G1 X41.734 Y10.901 E0.47527
G1 X40.980 Y10.901 E0.02365
G1 X40.980 Y26.229 E0.48059
M204 S1250
G1 X47.013 Y20.267 F9000.000
M204 S800
G1 F1200.000
G1 X47.013 Y26.060 E0.18162
G1 X46.259 Y26.060 E0.02365
G1 X46.259 Y14.949 E0.34838
G1 X47.013 Y14.949 E0.02365
G1 X47.013 Y16.524 E0.04940
G1 X47.767 Y16.524 E0.02365
G1 X47.767 Y14.949 E0.04940
G1 X48.521 Y14.949 E0.02365
G1 X48.521 Y16.524 E0.04940
G1 X49.275 Y16.524 E0.02365
G1 X49.275 Y14.949 E0.04940
G1 X50.030 Y14.949 E0.02365
G1 X50.030 Y16.524 E0.04940
G1 X50.429 Y16.524 E0.01252
G1 X50.429 Y17.541 E0.03189
G1 X50.784 Y17.541 E0.01112
G1 X50.784 Y14.949 E0.08129
G1 X51.323 Y14.949 E0.01691
G1 X51.323 Y15.540 E0.01854
G1 X51.538 Y15.358 E0.00883
G1 X51.538 Y17.541 E0.06846
G1 X52.292 Y17.541 E0.02365
G1 X52.292 Y14.919 E0.08224
G1 X53.046 Y14.919 E0.02365
G1 X53.046 Y17.711 E0.08756
M204 S1250
G1 X55.309 Y17.711 F9000.000
M204 S800
G1 F1200.000
G1 X55.309 Y10.901 E0.21351
G1 X54.555 Y10.901 E0.02365
G1 X54.555 Y17.541 E0.20819
G1 X53.800 Y17.541 E0.02365
G1 X53.800 Y10.901 E0.20819
G1 X53.046 Y10.901 E0.02365
G1 X53.046 Y13.524 E0.08224
G1 X52.292 Y13.524 E0.02365
G1 X52.292 Y10.901 E0.08224
G1 X51.538 Y10.901 E0.02365
G1 X51.538 Y13.524 E0.08224
G1 X50.784 Y13.524 E0.02365
G1 X50.784 Y10.901 E0.08224
G1 X50.030 Y10.901 E0.02365
G1 X50.030 Y13.524 E0.08224
G1 X49.275 Y13.524 E0.02365
G1 X49.275 Y10.901 E0.08224
G1 X48.521 Y10.901 E0.02365
G1 X48.521 Y13.524 E0.08224
G1 X47.767 Y13.524 E0.02365
G1 X47.767 Y10.901 E0.08224
G1 X47.013 Y10.901 E0.02365
G1 X47.013 Y13.524 E0.08224
G1 X46.259 Y13.524 E0.02365
G1 X46.259 Y10.901 E0.08224
G1 X45.505 Y10.901 E0.02365
G1 X45.505 Y13.524 E0.08224
G1 X44.750 Y13.524 E0.02365
G1 X44.750 Y10.901 E0.08224
G1 X43.996 Y10.901 E0.02365
G1 X43.996 Y13.524 E0.08224
G1 X43.516 Y13.524 E0.01505
G1 X43.516 Y23.437 E0.31080
G1 X43.996 Y23.437 E0.01505
G1 X43.996 Y26.060 E0.08224
G1 X44.750 Y26.060 E0.02365
G1 X44.750 Y23.267 E0.08756
M204 S1250
G1 X44.363 Y23.233 F9000.000
M204 S800
;TYPE:Support material interface
;WIDTH:0.35
G1 F1200.000
G1 X44.363 Y13.866 E0.23916
G1 X44.870 Y13.866 E0.01295
G1 X44.870 Y14.707 E0.02147
G1 X44.971 Y14.607 E0.00364
G1 X45.377 Y14.607 E0.01037
G1 X45.377 Y13.866 E0.01890
G1 X45.884 Y13.866 E0.01295
G1 X45.884 Y14.607 E0.01890
G1 X46.391 Y14.607 E0.01295
G1 X46.391 Y13.866 E0.01890
G1 X46.898 Y13.866 E0.01295
G1 X46.898 Y14.607 E0.01890
G1 X47.405 Y14.607 E0.01295
G1 X47.405 Y13.866 E0.01890
G1 X47.912 Y13.866 E0.01295
G1 X47.912 Y14.607 E0.01890
G1 X48.420 Y14.607 E0.01295
G1 X48.420 Y13.866 E0.01890
G1 X48.927 Y13.866 E0.01295
G1 X48.927 Y14.607 E0.01890
G1 X49.434 Y14.607 E0.01295
G1 X49.434 Y13.866 E0.01890
G1 X49.941 Y13.866 E0.01295
G1 X49.941 Y14.607 E0.01890
G1 X50.448 Y14.607 E0.01295
G1 X50.448 Y13.866 E0.01890
G1 X50.955 Y13.866 E0.01295
G1 X50.955 Y14.607 E0.01890
G1 X51.462 Y14.607 E0.01295
G1 X51.462 Y13.866 E0.01890
G1 X51.969 Y13.866 E0.01295
G1 X51.969 Y14.592 E0.01853
G1 X52.012 Y14.576 E0.00116
G1 X52.476 Y14.576 E0.01186
G1 X52.476 Y13.866 E0.01813
G1 X52.983 Y13.866 E0.01295
G1 X52.983 Y14.715 E0.02166
M204 S1250
G1 E-2.24000 F4200.000
;WIPE_START
G1 F7200.000
G1 X52.983 Y13.866 E-0.47010
G1 X52.476 Y13.866 E-0.28101
G1 X52.476 Y14.157 E-0.16089
;WIPE_END
G1 E-0.04800 F4200.000
G1 Z0.400 F9000.000
G1 X39.471 Y34.713
G1 Z0.200
G1 E3.20000 F2400.000
M204 S800
;TYPE:Support material
;WIDTH:0.42
G1 F1200.000
G1 X39.471 Y27.051 E0.24024
G1 X38.717 Y27.051 E0.02365
G1 X38.717 Y34.543 E0.23492
G1 X37.963 Y34.543 E0.02365
G1 X37.963 Y27.051 E0.23492
G1 X37.209 Y27.051 E0.02365
G1 X37.209 Y34.543 E0.23492
G1 X36.455 Y34.543 E0.02365
G1 X36.455 Y31.921 E0.08224
G1 X36.400 Y31.938 E0.00181
G1 X36.116 Y32.329 E0.01514
G1 X35.856 Y32.244 E0.00860
G1 X35.856 Y31.951 E0.00921
G1 X35.701 Y31.951 E0.00486
G1 X35.701 Y34.543 E0.08129
G1 X34.946 Y34.543 E0.02365
G1 X34.946 Y31.951 E0.08129
G1 X34.192 Y31.951 E0.02365
G1 X34.192 Y32.674 E0.02267
G1 X33.438 Y32.674 E0.02365
G1 X33.438 Y31.951 E0.02267
G1 X32.684 Y31.951 E0.02365
G1 X32.684 Y32.674 E0.02267
G1 X31.930 Y32.674 E0.02365
G1 X31.930 Y31.951 E0.02267
G1 X31.176 Y31.951 E0.02365
G1 X31.176 Y32.843 E0.02799
M204 S1250
G1 X28.159 Y29.844 F9000.000
M204 S800
G1 F1200.000
G1 X28.159 Y27.051 E0.08756
G1 X28.913 Y27.051 E0.02365
G1 X28.913 Y29.674 E0.08224
G1 X29.667 Y29.674 E0.02365
G1 X29.667 Y27.051 E0.08224
G1 X30.421 Y27.051 E0.02365
G1 X30.421 Y29.674 E0.08224
G1 X31.176 Y29.674 E0.02365
G1 X31.176 Y27.051 E0.08224
G1 X31.930 Y27.051 E0.02365
G1 X31.930 Y29.674 E0.08224
G1 X32.684 Y29.674 E0.02365
G1 X32.684 Y27.051 E0.08224
G1 X33.438 Y27.051 E0.02365
G1 X33.438 Y29.674 E0.08224
G1 X34.192 Y29.674 E0.02365
G1 X34.192 Y27.051 E0.08224
G1 X34.946 Y27.051 E0.02365
G1 X34.946 Y29.674 E0.08224
G1 X35.701 Y29.674 E0.02365
G1 X35.701 Y27.051 E0.08224
G1 X36.455 Y27.051 E0.02365
G1 X36.455 Y29.844 E0.08756
M204 S1250
G1 E-2.24000 F4200.000
;WIPE_START
G1 F7200.000
G1 X36.455 Y28.198 E-0.91200
;WIPE_END
G1 E-0.04800 F4200.000
G1 Z0.400 F9000.000
G1 X36.757 Y31.717
G1 Z0.200
G1 E3.20000 F2400.000
M204 S800
;TYPE:Support material interface
;WIDTH:0.35
G1 F1200.000
G1 X36.757 Y30.016 E0.04343
G1 X36.250 Y30.016 E0.01295
G1 X36.250 Y31.631 E0.04124
G1 X36.198 Y31.657 E0.00149
G1 X36.198 Y31.609 E0.00125
G1 X35.743 Y31.609 E0.01162
G1 X35.743 Y30.016 E0.04067
G1 X35.235 Y30.016 E0.01295
G1 X35.235 Y31.609 E0.04067
G1 X34.728 Y31.609 E0.01295
G1 X34.728 Y30.016 E0.04067
G1 X34.221 Y30.016 E0.01295
G1 X34.221 Y31.609 E0.04067
G1 X33.714 Y31.609 E0.01295
G1 X33.714 Y30.016 E0.04067
G1 X33.207 Y30.016 E0.01295
G1 X33.207 Y31.609 E0.04067
G1 X32.700 Y31.609 E0.01295
G1 X32.700 Y30.016 E0.04067
G1 X32.193 Y30.016 E0.01295
G1 X32.193 Y31.609 E0.04067
G1 X31.686 Y31.609 E0.01295
G1 X31.686 Y30.016 E0.04067
G1 X31.179 Y30.016 E0.01295
G1 X31.179 Y31.609 E0.04067
G1 X30.672 Y31.609 E0.01295
G1 X30.672 Y30.016 E0.04067
G1 X30.165 Y30.016 E0.01295
G1 X30.165 Y31.747 E0.04419
M204 S1250
G1 X30.421 Y31.781 F9000.000
M204 S800
;TYPE:Support material
;WIDTH:0.42
G1 F1200.000
G1 X30.421 Y46.823 E0.47164
G1 X31.176 Y46.823 E0.02365
G1 X31.176 Y41.201 E0.17630
G1 X31.930 Y41.201 E0.02365
G1 X31.930 Y46.993 E0.18162
M204 S1250
G1 E-2.24000 F4200.000
;WIPE_START
G1 F7200.000
G1 X31.930 Y45.347 E-0.91200
;WIPE_END
G1 E-0.04800 F4200.000
G1 Z0.400 F9000.000
G1 X29.658 Y43.997
G1 Z0.200
G1 E3.20000 F2400.000
M204 S800
;TYPE:Support material interface
;WIDTH:0.35
G1 F1200.000
G1 X29.658 Y30.016 E0.35698
G1 X29.151 Y30.016 E0.01295
G1 X29.151 Y43.858 E0.35345
G1 X28.643 Y43.858 E0.01295
G1 X28.643 Y30.016 E0.35345
G1 X28.136 Y30.016 E0.01295
G1 X28.136 Y43.997 E0.35698
M204 S1250
G1 X28.159 Y44.031 F9000.000
M204 S800
;TYPE:Support material
;WIDTH:0.42
G1 F1200.000
G1 X28.159 Y46.823 E0.08756
G1 X28.913 Y46.823 E0.02365
G1 X28.913 Y44.200 E0.08224
G1 X29.667 Y44.200 E0.02365
G1 X29.667 Y46.993 E0.08756
M204 S1250
G1 X27.405 Y46.993 F9000.000
M204 S800
G1 F1200.000
G1 X27.405 Y27.051 E0.62527
G1 X26.651 Y27.051 E0.02365
G1 X26.651 Y46.823 E0.61995
G1 X25.896 Y46.823 E0.02365
G1 X25.896 Y27.051 E0.61995
G1 X25.142 Y27.051 E0.02365
G1 X25.142 Y46.993 E0.62527
M204 S1250
G1 E-2.24000 F4200.000
;WIPE_START
G1 F7200.000
G1 X25.142 Y45.347 E-0.91200
;WIPE_END
G1 E-0.04800 F4200.000
G1 Z0.400 F9000.000
G1 X25.142 Y133.007
G1 Z0.200
G1 E3.20000 F2400.000
M204 S800
G1 F1200.000
G1 X25.142 Y150.642 E0.55293
G1 X25.896 Y150.642 E0.02365
G1 X25.896 Y133.177 E0.54761
G1 X26.651 Y133.177 E0.02365
G1 X26.651 Y150.812 E0.55293
M204 S1250
G1 E-2.24000 F4200.000
;WIPE_START
G1 F7200.000
G1 X26.651 Y149.166 E-0.91200
;WIPE_END
G1 E-0.04800 F4200.000
G1 Z0.400 F9000.000
G1 X28.136 Y147.815
G1 Z0.200
G1 E3.20000 F2400.000
M204 S800
;TYPE:Support material interface
;WIDTH:0.35
G1 F1200.000
G1 X28.136 Y136.142 E0.29807
G1 X28.643 Y136.142 E0.01295
G1 X28.643 Y147.677 E0.29454
G1 X29.151 Y147.677 E0.01295
G1 X29.151 Y136.142 E0.29454
G1 X29.576 Y136.142 E0.01088
G1 X29.576 Y137.445 E0.03327
G1 X29.602 Y137.547 E0.00270
G1 X29.658 Y137.649 E0.00296
G1 X29.658 Y147.677 E0.25605
G1 X30.165 Y147.677 E0.01295
G1 X30.165 Y147.391 E0.00729
G1 X30.672 Y147.391 E0.01295
G1 X30.672 Y147.677 E0.00729
G1 X31.179 Y147.677 E0.01295
G1 X31.179 Y147.391 E0.00729
G1 X31.686 Y147.391 E0.01295
G1 X31.686 Y147.677 E0.00729
G1 X32.193 Y147.677 E0.01295
G1 X32.193 Y147.391 E0.00729
G1 X32.700 Y147.391 E0.01295
G1 X32.700 Y147.677 E0.00729
G1 X33.207 Y147.677 E0.01295
G1 X33.207 Y147.391 E0.00729
G1 X33.714 Y147.391 E0.01295
G1 X33.714 Y147.677 E0.00729
G1 X34.221 Y147.677 E0.01295
G1 X34.221 Y147.391 E0.00729
G1 X34.728 Y147.391 E0.01295
G1 X34.728 Y147.677 E0.00729
G1 X35.235 Y147.677 E0.01295
G1 X35.235 Y147.391 E0.00729
G1 X35.473 Y147.391 E0.00605
G1 X35.473 Y147.343 E0.00125
G1 X35.627 Y147.422 E0.00444
G1 X35.743 Y147.422 E0.00294
G1 X35.743 Y147.677 E0.00652
G1 X36.250 Y147.677 E0.01295
G1 X36.250 Y147.422 E0.00652
G1 X36.757 Y147.422 E0.01295
G1 X36.757 Y147.815 E0.01005
M204 S1250
G1 X36.455 Y147.249 F9000.000
M204 S800
;TYPE:Support material
;WIDTH:0.42
G1 F1200.000
G1 X36.455 Y144.457 E0.08756
G1 X35.701 Y144.457 E0.02365
G1 X35.701 Y147.075 E0.08209
G1 X35.391 Y146.671 E0.01596
G1 X35.130 Y146.756 E0.00860
G1 X35.130 Y147.049 E0.00921
G1 X34.946 Y147.049 E0.00577
G1 X34.946 Y144.457 E0.08129
G1 X34.279 Y144.457 E0.02091
G1 X34.279 Y145.019 E0.01764
G1 X34.192 Y145.019 E0.00273
G1 X34.192 Y147.049 E0.06366
G1 X33.438 Y147.049 E0.02365
G1 X33.438 Y145.019 E0.06366
G1 X32.684 Y145.019 E0.02365
G1 X32.684 Y147.049 E0.06366
G1 X31.930 Y147.049 E0.02365
G1 X31.930 Y145.019 E0.06366
G1 X31.176 Y145.019 E0.02365
G1 X31.176 Y147.049 E0.06366
G1 X30.421 Y147.049 E0.02365
G1 X30.421 Y133.177 E0.43497
G1 X31.176 Y133.177 E0.02365
G1 X31.176 Y138.799 E0.17630
G1 X31.930 Y138.799 E0.02365
G1 X31.930 Y133.007 E0.18162
M204 S1250
G1 X29.667 Y135.969 F9000.000
M204 S800
G1 F1200.000
G1 X29.667 Y133.177 E0.08756
G1 X28.913 Y133.177 E0.02365
G1 X28.913 Y135.799 E0.08224
G1 X28.159 Y135.799 E0.02365
G1 X28.159 Y133.177 E0.08224
G1 X27.405 Y133.177 E0.02365
G1 X27.405 Y150.642 E0.54761
G1 X28.159 Y150.642 E0.02365
G1 X28.159 Y148.019 E0.08224
G1 X28.913 Y148.019 E0.02365
G1 X28.913 Y150.642 E0.08224
G1 X29.667 Y150.642 E0.02365
G1 X29.667 Y148.019 E0.08224
G1 X30.421 Y148.019 E0.02365
G1 X30.421 Y150.642 E0.08224
G1 X31.176 Y150.642 E0.02365
G1 X31.176 Y148.019 E0.08224
G1 X31.930 Y148.019 E0.02365
G1 X31.930 Y150.642 E0.08224
G1 X32.684 Y150.642 E0.02365
G1 X32.684 Y148.019 E0.08224
G1 X33.438 Y148.019 E0.02365
G1 X33.438 Y150.642 E0.08224
G1 X34.192 Y150.642 E0.02365
G1 X34.192 Y148.019 E0.08224
G1 X34.946 Y148.019 E0.02365
G1 X34.946 Y150.642 E0.08224
G1 X35.701 Y150.642 E0.02365
G1 X35.701 Y148.019 E0.08224
G1 X36.455 Y148.019 E0.02365
G1 X36.455 Y150.642 E0.08224
G1 X37.209 Y150.642 E0.02365
G1 X37.209 Y144.457 E0.19393
G1 X37.963 Y144.457 E0.02365
G1 X37.963 Y150.642 E0.19393
G1 X38.717 Y150.642 E0.02365
G1 X38.717 Y144.457 E0.19393
G1 X39.471 Y144.457 E0.02365
G1 X39.471 Y150.812 E0.19926
M204 S1250
G1 E-2.24000 F4200.000
;WIPE_START
G1 F7200.000
G1 X39.471 Y149.166 E-0.91200
;WIPE_END
G1 E-0.04800 F4200.000
G1 Z0.400 F9000.000
G1 X47.013 Y159.733
G1 Z0.200
G1 E3.20000 F2400.000
M204 S800
G1 F1200.000
G1 X47.013 Y153.940 E0.18162
G1 X46.259 Y153.940 E0.02365
G1 X46.259 Y165.051 E0.34838
G1 X47.013 Y165.051 E0.02365
G1 X47.013 Y163.476 E0.04940
G1 X47.767 Y163.476 E0.02365
G1 X47.767 Y165.051 E0.04940
G1 X48.521 Y165.051 E0.02365
G1 X48.521 Y163.476 E0.04940
G1 X49.275 Y163.476 E0.02365
G1 X49.275 Y165.051 E0.04940
G1 X50.030 Y165.051 E0.02365
G1 X50.030 Y163.476 E0.04940
G1 X50.429 Y163.476 E0.01252
G1 X50.429 Y162.459 E0.03189
G1 X50.784 Y162.459 E0.01112
G1 X50.784 Y165.051 E0.08129
G1 X51.323 Y165.051 E0.01691
G1 X51.323 Y164.460 E0.01854
G1 X51.538 Y164.642 E0.00883
G1 X51.538 Y162.459 E0.06846
G1 X52.292 Y162.459 E0.02365
G1 X52.292 Y165.081 E0.08224
G1 X53.046 Y165.081 E0.02365
G1 X53.046 Y162.459 E0.08224
G1 X53.800 Y162.459 E0.02365
G1 X53.800 Y169.099 E0.20819
G1 X54.555 Y169.099 E0.02365
G1 X54.555 Y162.459 E0.20819
G1 X55.309 Y162.459 E0.02365
G1 X55.309 Y169.268 E0.21351
M204 S1250
G1 X53.046 Y169.268 F9000.000
M204 S800
G1 F1200.000
G1 X53.046 Y166.476 E0.08756
G1 X52.292 Y166.476 E0.02365
G1 X52.292 Y169.099 E0.08224
G1 X51.538 Y169.099 E0.02365
G1 X51.538 Y166.476 E0.08224
G1 X50.784 Y166.476 E0.02365
G1 X50.784 Y169.099 E0.08224
G1 X50.030 Y169.099 E0.02365
G1 X50.030 Y166.476 E0.08224
G1 X49.275 Y166.476 E0.02365
G1 X49.275 Y169.099 E0.08224
G1 X48.521 Y169.099 E0.02365
G1 X48.521 Y166.476 E0.08224
G1 X47.767 Y166.476 E0.02365
G1 X47.767 Y169.099 E0.08224
G1 X47.013 Y169.099 E0.02365
G1 X47.013 Y166.476 E0.08224
G1 X46.259 Y166.476 E0.02365
G1 X46.259 Y169.099 E0.08224
G1 X45.505 Y169.099 E0.02365
G1 X45.505 Y166.476 E0.08224
G1 X44.750 Y166.476 E0.02365
G1 X44.750 Y169.099 E0.08224
G1 X43.996 Y169.099 E0.02365
G1 X43.996 Y166.476 E0.08224
G1 X43.516 Y166.476 E0.01505
G1 X43.516 Y156.563 E0.31080
G1 X43.996 Y156.563 E0.01505
G1 X43.996 Y153.940 E0.08224
G1 X44.750 Y153.940 E0.02365
G1 X44.750 Y156.733 E0.08756
M204 S1250
