; generated by PrusaSlicer 2.3.3+win64 on 2022-06-14 at 12:10:29 UTC


;
;

;
;
; 

; external perimeters extrusion width = 0.45mm
; perimeters extrusion width = 0.45mm
; infill extrusion width = 0.45mm
; solid infill extrusion width = 0.45mm
; top infill extrusion width = 0.40mm
; support material extrusion width = 0.35mm
; first layer extrusion width = 0.42mm

M73 P0 R27
M201 X1250 Y1250 Z400 E5000 ; sets maximum accelerations, mm/sec^2
M203 X180 Y180 Z12 E80 ; sets maximum feedrates, mm/sec
M204 P1250 R1250 T1250 ; sets acceleration (P, T) and retract acceleration (R), mm/sec^2
M205 X8.00 Y8.00 Z2.00 E10.00 ; sets the jerk limits, mm/sec
M205 S0 T0 ; sets the minimum extruding and travel feed rate, mm/sec
M107
;TYPE:Custom
G90 ; use absolute coordinates
M83 ; extruder relative mode
M104 S170 ; set extruder temp for bed leveling
M140 S60 ; set bed temp
M109 R170 ; wait for bed leveling temp
M190 S60 ; wait for bed temp
G28 ; home all without mesh bed level
G29 ; mesh bed leveling 
M104 S215 ; set extruder temp
G92 E0.0
G1 Y-2.0 X179 F2400
G1 Z3 F720
M109 S215 ; wait for extruder temp

; intro line
G1 X170 F1000
G1 Z0.2 F720
G1 X110.0 E8.0 F900
G1 X40.0 E10.0 F700
G92 E0.0

M221 S95 ; set flow
G21 ; set units to millimeters
G90 ; use absolute coordinates
M83 ; use relative distances for extrusion
M900 K0.2 ; Filament gcode LA 1.5
; ; Filament gcode LA 1.0
;LAYER_CHANGE
;Z:0.2
;HEIGHT:0.2
;BEFORE_LAYER_CHANGE
G92 E0.0
;0.2


G1 E-3.20000 F4200.000
G1 Z0.200 F9000.000
;AFTER_LAYER_CHANGE
;0.2
G1 Z0.400
G1 X124.679 Y69.051
M73 P1 R27
G1 Z0.200
G1 E3.20000 F2400.000
M204 S800
;TYPE:Skirt
;WIDTH:0.42
G1 F1200.000
G1 X124.876 Y69.946 E0.02872
G1 X124.876 Y110.076 E1.25827
G1 X124.768 Y110.713 E0.02024
G1 X124.494 Y111.293 E0.02012
G1 X124.076 Y111.780 E0.02012
G1 X123.539 Y112.138 E0.02024
G1 X123.037 Y112.316 E0.01668
G1 X122.513 Y112.377 E0.01657
G1 X77.489 Y112.377 E1.41169
G1 X75.821 Y112.313 E0.05233
G1 X74.316 Y112.149 E0.04746
G1 X72.798 Y111.877 E0.04836
G1 X71.117 Y111.446 E0.05441
G1 X69.677 Y110.965 E0.04759
G1 X68.203 Y110.354 E0.05005
G1 X66.780 Y109.643 E0.04986
G1 X65.470 Y108.867 E0.04774
G1 X64.028 Y107.866 E0.05506
G1 X62.844 Y106.909 E0.04773
G1 X61.678 Y105.824 E0.04994
G1 X60.592 Y104.657 E0.04996
G1 X59.639 Y103.478 E0.04754
G1 X58.635 Y102.034 E0.05514
G1 X57.859 Y100.722 E0.04779
G1 X57.169 Y99.348 E0.04821
G1 X56.507 Y97.745 E0.05438
G1 X56.030 Y96.306 E0.04753
G1 X55.654 Y94.838 E0.04751
G1 X55.351 Y93.185 E0.05272
G1 X55.176 Y91.515 E0.05265
G1 X55.123 Y90.001 E0.04749
G1 X55.176 Y88.484 E0.04759
G1 X55.352 Y86.812 E0.05272
G1 X55.633 Y85.249 E0.04980
G1 X56.007 Y83.778 E0.04761
G1 X56.532 Y82.184 E0.05260
G1 X57.180 Y80.630 E0.05279
G1 X57.859 Y79.277 E0.04747
G1 X58.633 Y77.970 E0.04762
G1 X59.585 Y76.591 E0.05256
G1 X60.642 Y75.287 E0.05262
G1 X61.676 Y74.178 E0.04756
G1 X62.786 Y73.143 E0.04758
G1 X64.091 Y72.085 E0.05267
G1 X65.474 Y71.131 E0.05267
G1 X66.778 Y70.359 E0.04752
G1 X68.152 Y69.669 E0.04821
G1 X69.755 Y69.007 E0.05438
G1 X71.194 Y68.530 E0.04753
G1 X72.662 Y68.154 E0.04751
G1 X74.315 Y67.851 E0.05272
G1 X75.985 Y67.676 E0.05265
G1 X77.495 Y67.623 E0.04737
G1 X122.504 Y67.623 E1.41122
G1 X123.399 Y67.799 E0.02860
G1 X124.162 Y68.300 E0.02860
G1 X124.645 Y69.002 E0.02672
M204 S1250
; printing object cog_bracket_inner.stl id:0 copy 0
G1 E-2.24000 F4200.000
;WIPE_START
G1 F7200.000
G1 X124.876 Y69.946 E-0.53856
G1 X124.876 Y70.619 E-0.37344
;WIPE_END
G1 E-0.04800 F4200.000
G1 Z0.400 F9000.000
G1 X87.929 Y85.680
G1 Z0.200
G1 E3.20000 F2400.000
M204 S800
;TYPE:Perimeter
G1 F1200.000
G1 X88.302 Y86.723 E0.03473
G1 X88.571 Y87.799 E0.03475
G1 X88.733 Y88.894 E0.03471
G1 X88.788 Y90.000 E0.03473
G1 X88.733 Y91.106 E0.03473
G1 X88.571 Y92.201 E0.03471
G1 X88.302 Y93.277 E0.03475
G1 X87.929 Y94.320 E0.03473
G1 X87.455 Y95.322 E0.03476
G1 X86.885 Y96.271 E0.03470
G1 X86.226 Y97.161 E0.03471
G1 X85.482 Y97.982 E0.03476
G1 X84.661 Y98.726 E0.03476
G1 X83.771 Y99.385 E0.03471
G1 X82.822 Y99.955 E0.03470
G1 X81.820 Y100.429 E0.03476
G1 X80.777 Y100.802 E0.03473
G1 X79.701 Y101.071 E0.03475
G1 X78.606 Y101.233 E0.03471
G1 X77.500 Y101.288 E0.03473
G1 X76.394 Y101.233 E0.03473
G1 X75.299 Y101.071 E0.03471
G1 X74.223 Y100.802 E0.03475
G1 X73.180 Y100.429 E0.03473
G1 X72.178 Y99.955 E0.03476
G1 X71.229 Y99.385 E0.03470
G1 X70.339 Y98.726 E0.03471
G1 X69.518 Y97.982 E0.03476
G1 X68.774 Y97.161 E0.03476
G1 X68.115 Y96.271 E0.03471
G1 X67.545 Y95.322 E0.03470
G1 X67.071 Y94.320 E0.03476
G1 X66.698 Y93.277 E0.03473
G1 X66.429 Y92.201 E0.03475
G1 X66.267 Y91.106 E0.03471
G1 X66.212 Y90.000 E0.03473
G1 X66.267 Y88.894 E0.03473
G1 X66.429 Y87.799 E0.03471
G1 X66.698 Y86.723 E0.03475
G1 X67.071 Y85.680 E0.03473
G1 X67.545 Y84.678 E0.03476
G1 X68.115 Y83.729 E0.03470
G1 X68.774 Y82.839 E0.03471
G1 X69.518 Y82.018 E0.03476
G1 X70.339 Y81.274 E0.03476
G1 X71.229 Y80.615 E0.03471
G1 X72.178 Y80.045 E0.03470
G1 X73.180 Y79.571 E0.03476
G1 X74.223 Y79.198 E0.03473
G1 X75.299 Y78.929 E0.03475
G1 X76.394 Y78.767 E0.03471
G1 X77.463 Y78.714 E0.03358
G1 X78.605 Y78.767 E0.03585
G1 X79.701 Y78.929 E0.03474
G1 X80.777 Y79.198 E0.03475
G1 X81.820 Y79.571 E0.03473
G1 X82.822 Y80.045 E0.03476
G1 X83.771 Y80.615 E0.03470
G1 X84.661 Y81.274 E0.03471
G1 X85.482 Y82.018 E0.03476
G1 X86.226 Y82.839 E0.03476
G1 X86.885 Y83.729 E0.03471
G1 X87.455 Y84.678 E0.03470
G1 X87.903 Y85.626 E0.03288
M204 S1250
G1 X87.563 Y85.787 F9000.000
M204 S800
;TYPE:External perimeter
G1 F1200.000
G1 X87.941 Y86.833 E0.03486
G1 X88.201 Y87.872 E0.03358
G1 X88.358 Y88.931 E0.03356
G1 X88.411 Y90.000 E0.03357
G1 X88.358 Y91.069 E0.03357
G1 X88.201 Y92.128 E0.03356
G1 X87.941 Y93.167 E0.03358
G1 X87.580 Y94.175 E0.03357
G1 X87.122 Y95.144 E0.03360
G1 X86.571 Y96.061 E0.03355
G1 X85.934 Y96.921 E0.03356
G1 X85.215 Y97.715 E0.03359
G1 X84.421 Y98.434 E0.03359
G1 X83.561 Y99.071 E0.03356
G1 X82.644 Y99.622 E0.03355
G1 X81.675 Y100.080 E0.03360
G1 X80.667 Y100.441 E0.03357
G1 X79.628 Y100.701 E0.03358
G1 X78.569 Y100.858 E0.03356
G1 X77.500 Y100.911 E0.03357
G1 X76.431 Y100.858 E0.03357
G1 X75.372 Y100.701 E0.03356
G1 X74.333 Y100.441 E0.03358
G1 X73.325 Y100.080 E0.03357
G1 X72.356 Y99.622 E0.03360
G1 X71.439 Y99.071 E0.03355
G1 X70.579 Y98.434 E0.03356
G1 X69.785 Y97.715 E0.03359
M73 P2 R27
G1 X69.066 Y96.921 E0.03359
G1 X68.429 Y96.061 E0.03356
G1 X67.878 Y95.144 E0.03355
G1 X67.420 Y94.175 E0.03360
G1 X67.059 Y93.167 E0.03357
G1 X66.799 Y92.128 E0.03358
G1 X66.642 Y91.069 E0.03356
G1 X66.589 Y90.000 E0.03357
G1 X66.642 Y88.931 E0.03357
G1 X66.799 Y87.872 E0.03356
G1 X67.059 Y86.833 E0.03358
G1 X67.420 Y85.825 E0.03357
G1 X67.878 Y84.856 E0.03360
G1 X68.429 Y83.939 E0.03355
G1 X69.066 Y83.079 E0.03356
G1 X69.785 Y82.285 E0.03359
G1 X70.579 Y81.566 E0.03359
G1 X71.439 Y80.929 E0.03356
G1 X72.356 Y80.378 E0.03355
G1 X73.325 Y79.920 E0.03360
G1 X74.333 Y79.559 E0.03357
G1 X75.372 Y79.299 E0.03358
G1 X76.431 Y79.142 E0.03356
G1 X77.464 Y79.091 E0.03244
G1 X78.569 Y79.142 E0.03468
G1 X79.628 Y79.299 E0.03357
G1 X80.667 Y79.559 E0.03358
G1 X81.675 Y79.920 E0.03357
G1 X82.644 Y80.378 E0.03360
G1 X83.561 Y80.929 E0.03355
G1 X84.421 Y81.566 E0.03356
G1 X85.215 Y82.285 E0.03359
G1 X85.934 Y83.079 E0.03359
G1 X86.571 Y83.939 E0.03356
G1 X87.122 Y84.856 E0.03355
G1 X87.537 Y85.733 E0.03042
M204 S1250
G1 X87.959 Y85.839 F9000.000
G1 E-2.24000 F4200.000
;WIPE_START
G1 F7200.000
G1 X87.941 Y86.833 E-0.64926
G1 X88.056 Y87.293 E-0.26274
;WIPE_END
G1 E-0.04800 F4200.000
G1 Z0.400 F9000.000
G1 X106.213 Y81.287
G1 Z0.200
G1 E3.20000 F2400.000
M204 S800
;TYPE:Perimeter
G1 F1200.000
G1 X106.213 Y73.713 E0.23748
G1 X113.787 Y73.713 E0.23748
G1 X113.787 Y81.287 E0.23748
G1 X106.273 Y81.287 E0.23560
M204 S1250
G1 X106.590 Y80.910 F9000.000
M204 S800
;TYPE:External perimeter
G1 F1200.000
G1 X106.590 Y74.090 E0.21384
G1 X113.410 Y74.090 E0.21384
G1 X113.410 Y80.910 E0.21384
G1 X106.650 Y80.910 E0.21196
M204 S1250
G1 X106.204 Y81.014 F9000.000
G1 E-2.24000 F4200.000
;WIPE_START
G1 F7200.000
G1 X106.636 Y79.264 E-0.91200
;WIPE_END
G1 E-0.04800 F4200.000
G1 Z0.400 F9000.000
G1 X106.213 Y98.713
G1 Z0.200
G1 E3.20000 F2400.000
M204 S800
;TYPE:Perimeter
G1 F1200.000
G1 X113.787 Y98.713 E0.23748
G1 X113.787 Y106.287 E0.23748
G1 X106.213 Y106.287 E0.23748
G1 X106.213 Y98.773 E0.23560
M204 S1250
G1 X106.590 Y99.090 F9000.000
M204 S800
;TYPE:External perimeter
G1 F1200.000
G1 X113.410 Y99.090 E0.21384
G1 X113.410 Y105.910 E0.21384
G1 X106.590 Y105.910 E0.21384
G1 X106.590 Y99.150 E0.21196
M204 S1250
G1 X106.486 Y98.704 F9000.000
G1 E-2.24000 F4200.000
;WIPE_START
G1 F7200.000
G1 X108.236 Y99.136 E-0.91200
;WIPE_END
G1 E-0.04800 F4200.000
G1 Z0.400 F9000.000
G1 X121.713 Y109.213
G1 Z0.200
G1 E3.20000 F2400.000
M204 S800
;TYPE:Perimeter
G1 F1200.000
G1 X77.514 Y109.213 E1.38582
G1 X76.129 Y109.163 E0.04345
G1 X74.766 Y109.016 E0.04299
G1 X73.416 Y108.773 E0.04300
G1 X72.087 Y108.434 E0.04301
G1 X70.786 Y108.001 E0.04298
G1 X69.519 Y107.477 E0.04300
G1 X68.292 Y106.863 E0.04300
G1 X67.113 Y106.162 E0.04302
G1 X65.986 Y105.381 E0.04300
G1 X64.919 Y104.520 E0.04299
G1 X63.915 Y103.585 E0.04301
G1 X62.980 Y102.581 E0.04301
G1 X62.119 Y101.514 E0.04299
G1 X61.338 Y100.387 E0.04300
G1 X60.637 Y99.208 E0.04302
G1 X60.023 Y97.981 E0.04300
G1 X59.499 Y96.714 E0.04300
G1 X59.066 Y95.413 E0.04298
G1 X58.727 Y94.084 E0.04301
G1 X58.484 Y92.734 E0.04300
G1 X58.337 Y91.371 E0.04299
G1 X58.288 Y90.000 E0.04300
G1 X58.337 Y88.629 E0.04300
G1 X58.484 Y87.266 E0.04299
G1 X58.727 Y85.916 E0.04300
G1 X59.066 Y84.587 E0.04301
G1 X59.499 Y83.286 E0.04298
G1 X60.023 Y82.019 E0.04300
G1 X60.637 Y80.792 E0.04300
G1 X61.338 Y79.613 E0.04302
G1 X62.119 Y78.486 E0.04300
G1 X62.980 Y77.419 E0.04299
G1 X63.915 Y76.415 E0.04301
G1 X64.919 Y75.480 E0.04301
G1 X65.986 Y74.619 E0.04299
G1 X67.113 Y73.838 E0.04300
G1 X68.292 Y73.137 E0.04302
G1 X69.519 Y72.523 E0.04300
G1 X70.786 Y71.999 E0.04300
G1 X72.087 Y71.566 E0.04298
G1 X73.416 Y71.227 E0.04301
G1 X74.766 Y70.984 E0.04300
G1 X76.129 Y70.837 E0.04299
G1 X77.514 Y70.787 E0.04345
G1 X121.713 Y70.787 E1.38582
M73 P3 R26
G1 X121.713 Y109.153 E1.20293
M204 S1250
G1 X122.090 Y109.590 F9000.000
M204 S800
;TYPE:External perimeter
G1 F1200.000
G1 X77.507 Y109.590 E1.39786
G1 X76.102 Y109.540 E0.04408
G1 X74.712 Y109.390 E0.04383
G1 X73.336 Y109.142 E0.04385
G1 X71.981 Y108.796 E0.04386
G1 X70.654 Y108.355 E0.04383
G1 X69.362 Y107.820 E0.04384
G1 X68.112 Y107.194 E0.04385
G1 X66.909 Y106.480 E0.04386
G1 X65.760 Y105.683 E0.04385
G1 X64.672 Y104.805 E0.04383
G1 X63.648 Y103.852 E0.04385
G1 X62.695 Y102.828 E0.04385
G1 X61.817 Y101.740 E0.04383
G1 X61.020 Y100.591 E0.04385
G1 X60.306 Y99.388 E0.04386
G1 X59.680 Y98.138 E0.04385
G1 X59.145 Y96.846 E0.04384
G1 X58.704 Y95.519 E0.04383
G1 X58.358 Y94.164 E0.04386
G1 X58.110 Y92.788 E0.04385
G1 X57.960 Y91.398 E0.04383
G1 X57.910 Y90.000 E0.04385
G1 X57.960 Y88.602 E0.04385
G1 X58.110 Y87.212 E0.04383
G1 X58.358 Y85.836 E0.04385
G1 X58.704 Y84.481 E0.04386
G1 X59.145 Y83.154 E0.04383
G1 X59.680 Y81.862 E0.04384
G1 X60.306 Y80.612 E0.04385
G1 X61.020 Y79.409 E0.04386
G1 X61.817 Y78.260 E0.04385
G1 X62.695 Y77.172 E0.04383
G1 X63.648 Y76.148 E0.04385
G1 X64.672 Y75.195 E0.04385
G1 X65.760 Y74.317 E0.04383
G1 X66.909 Y73.520 E0.04385
G1 X68.112 Y72.806 E0.04386
G1 X69.362 Y72.180 E0.04385
G1 X70.654 Y71.645 E0.04384
G1 X71.981 Y71.204 E0.04383
G1 X73.336 Y70.858 E0.04386
G1 X74.712 Y70.610 E0.04385
G1 X76.102 Y70.460 E0.04383
G1 X77.507 Y70.410 E0.04408
G1 X122.090 Y70.410 E1.39786
G1 X122.090 Y109.530 E1.22658
M204 S1250
G1 X121.701 Y109.495 F9000.000
G1 E-2.24000 F4200.000
;WIPE_START
G1 F7200.000
G1 X120.444 Y109.532 E-0.91200
;WIPE_END
G1 E-0.04800 F4200.000
G1 Z0.400 F9000.000
G1 X121.600 Y71.664
G1 Z0.200
G1 E3.20000 F2400.000
M204 S800
;TYPE:Solid infill
;WIDTH:0.420632
G1 F1200.000
G1 X121.006 Y71.070 E0.02638
G1 X120.472 Y71.070 E0.01678
G1 X121.430 Y72.028 E0.04257
G1 X121.430 Y72.562 E0.01678
G1 X119.938 Y71.070 E0.06629
G1 X119.403 Y71.070 E0.01678
G1 X121.430 Y73.097 E0.09002
G1 X121.430 Y73.631 E0.01678
G1 X118.869 Y71.070 E0.11375
G1 X118.335 Y71.070 E0.01678
G1 X121.430 Y74.165 E0.13747
G1 X121.430 Y74.699 E0.01678
G1 X117.801 Y71.070 E0.16120
G1 X117.267 Y71.070 E0.01678
G1 X121.430 Y75.233 E0.18492
G1 X121.430 Y75.767 E0.01678
G1 X116.733 Y71.070 E0.20865
G1 X116.198 Y71.070 E0.01678
G1 X121.430 Y76.302 E0.23237
G1 X121.430 Y76.836 E0.01678
G1 X115.664 Y71.070 E0.25610
G1 X115.130 Y71.070 E0.01678
G1 X121.430 Y77.370 E0.27982
G1 X121.430 Y77.904 E0.01678
G1 X114.596 Y71.070 E0.30355
M73 P4 R26
G1 X114.062 Y71.070 E0.01678
G1 X121.430 Y78.438 E0.32727
G1 X121.430 Y78.972 E0.01678
G1 X113.528 Y71.070 E0.35100
G1 X112.993 Y71.070 E0.01678
G1 X121.430 Y79.507 E0.37473
G1 X121.430 Y80.041 E0.01678
G1 X112.459 Y71.070 E0.39845
G1 X111.925 Y71.070 E0.01678
G1 X121.430 Y80.575 E0.42218
G1 X121.430 Y81.109 E0.01678
G1 X111.391 Y71.070 E0.44590
G1 X110.857 Y71.070 E0.01678
G1 X113.217 Y73.430 E0.10483
G1 X112.683 Y73.430 E0.01678
G1 X110.323 Y71.070 E0.10483
G1 X109.788 Y71.070 E0.01678
G1 X112.149 Y73.430 E0.10483
G1 X111.614 Y73.430 E0.01678
G1 X109.254 Y71.070 E0.10483
G1 X108.720 Y71.070 E0.01678
G1 X111.080 Y73.430 E0.10483
G1 X110.546 Y73.430 E0.01678
G1 X108.186 Y71.070 E0.10483
G1 X107.652 Y71.070 E0.01678
G1 X110.012 Y73.430 E0.10483
G1 X109.478 Y73.430 E0.01678
G1 X107.118 Y71.070 E0.10483
G1 X106.583 Y71.070 E0.01678
G1 X108.944 Y73.430 E0.10483
G1 X108.409 Y73.430 E0.01678
G1 X106.049 Y71.070 E0.10483
G1 X105.515 Y71.070 E0.01678
G1 X107.875 Y73.430 E0.10483
G1 X107.341 Y73.430 E0.01678
G1 X104.981 Y71.070 E0.10483
G1 X104.447 Y71.070 E0.01678
G1 X106.807 Y73.430 E0.10483
G1 X106.273 Y73.430 E0.01678
G1 X103.913 Y71.070 E0.10483
G1 X103.378 Y71.070 E0.01678
G1 X105.930 Y73.622 E0.11334
G1 X105.930 Y74.156 E0.01678
G1 X102.844 Y71.070 E0.13706
G1 X102.310 Y71.070 E0.01678
G1 X105.930 Y74.690 E0.16079
G1 X105.930 Y75.224 E0.01678
G1 X101.776 Y71.070 E0.18451
G1 X101.242 Y71.070 E0.01678
G1 X105.930 Y75.758 E0.20824
G1 X105.930 Y76.292 E0.01678
G1 X100.708 Y71.070 E0.23196
G1 X100.173 Y71.070 E0.01678
G1 X105.930 Y76.827 E0.25569
G1 X105.930 Y77.361 E0.01678
G1 X99.639 Y71.070 E0.27941
G1 X99.105 Y71.070 E0.01678
G1 X105.930 Y77.895 E0.30314
G1 X105.930 Y78.429 E0.01678
G1 X98.571 Y71.070 E0.32687
G1 X98.037 Y71.070 E0.01678
G1 X105.930 Y78.963 E0.35059
G1 X105.930 Y79.497 E0.01678
G1 X97.503 Y71.070 E0.37432
G1 X96.968 Y71.070 E0.01678
G1 X105.930 Y80.032 E0.39804
G1 X105.930 Y80.566 E0.01678
G1 X96.265 Y70.900 E0.42930
M204 S1250
G1 E-2.24000 F4200.000
;WIPE_START
G1 F7200.000
G1 X97.428 Y72.064 E-0.91200
;WIPE_END
G1 E-0.04800 F4200.000
G1 Z0.400 F9000.000
G1 X113.900 Y74.113
G1 Z0.200
G1 E3.20000 F2400.000
M204 S800
G1 F1200.000
G1 X121.430 Y81.643 E0.33445
G1 X121.430 Y82.177 E0.01678
G1 X114.070 Y74.817 E0.32691
G1 X114.070 Y75.351 E0.01678
G1 X121.430 Y82.712 E0.32691
G1 X121.430 Y83.246 E0.01678
G1 X114.070 Y75.886 E0.32691
G1 X114.070 Y76.420 E0.01678
G1 X121.430 Y83.780 E0.32691
M73 P5 R26
G1 X121.430 Y84.314 E0.01678
G1 X114.070 Y76.954 E0.32691
G1 X114.070 Y77.488 E0.01678
G1 X121.430 Y84.848 E0.32691
G1 X121.430 Y85.382 E0.01678
G1 X114.070 Y78.022 E0.32691
G1 X114.070 Y78.556 E0.01678
G1 X121.430 Y85.917 E0.32691
G1 X121.430 Y86.451 E0.01678
G1 X114.070 Y79.091 E0.32691
G1 X114.070 Y79.625 E0.01678
G1 X121.430 Y86.985 E0.32691
G1 X121.430 Y87.519 E0.01678
G1 X114.070 Y80.159 E0.32691
G1 X114.070 Y80.693 E0.01678
G1 X121.430 Y88.053 E0.32691
G1 X121.430 Y88.587 E0.01678
G1 X114.070 Y81.227 E0.32691
G1 X114.070 Y81.570 E0.01076
G1 X113.878 Y81.570 E0.00601
G1 X121.430 Y89.122 E0.33542
G1 X121.430 Y89.656 E0.01678
G1 X113.344 Y81.570 E0.35914
G1 X112.810 Y81.570 E0.01678
G1 X121.430 Y90.190 E0.38287
G1 X121.430 Y90.724 E0.01678
G1 X112.276 Y81.570 E0.40659
G1 X111.742 Y81.570 E0.01678
G1 X121.430 Y91.258 E0.43032
G1 X121.430 Y91.792 E0.01678
G1 X111.208 Y81.570 E0.45404
G1 X110.673 Y81.570 E0.01678
G1 X121.430 Y92.327 E0.47777
G1 X121.430 Y92.861 E0.01678
