; generated by PrusaSlicer 2.3.3+win64 on 2022-06-14 at 12:11:29 UTC


;
;

;
;
; 

; external perimeters extrusion width = 0.45mm
; perimeters extrusion width = 0.45mm
; infill extrusion width = 0.45mm
; solid infill extrusion width = 0.45mm
; top infill extrusion width = 0.40mm
; support material extrusion width = 0.35mm
; first layer extrusion width = 0.42mm

M73 P0 R35
M201 X1250 Y1250 Z400 E5000 ; sets maximum accelerations, mm/sec^2
M203 X180 Y180 Z12 E80 ; sets maximum feedrates, mm/sec
M204 P1250 R1250 T1250 ; sets acceleration (P, T) and retract acceleration (R), mm/sec^2
M205 X8.00 Y8.00 Z2.00 E10.00 ; sets the jerk limits, mm/sec
M205 S0 T0 ; sets the minimum extruding and travel feed rate, mm/sec
M107
;TYPE:Custom
G90 ; use absolute coordinates
M83 ; extruder relative mode
M104 S170 ; set extruder temp for bed leveling
M140 S60 ; set bed temp
M109 R170 ; wait for bed leveling temp
M190 S60 ; wait for bed temp
G28 ; home all without mesh bed level
G29 ; mesh bed leveling 
M104 S215 ; set extruder temp
G92 E0.0
G1 Y-2.0 X179 F2400
G1 Z3 F720
M109 S215 ; wait for extruder temp

; intro line
G1 X170 F1000
G1 Z0.2 F720
G1 X110.0 E8.0 F900
G1 X40.0 E10.0 F700
G92 E0.0

M221 S95 ; set flow
G21 ; set units to millimeters
G90 ; use absolute coordinates
M83 ; use relative distances for extrusion
M900 K0.2 ; Filament gcode LA 1.5
; ; Filament gcode LA 1.0
;LAYER_CHANGE
;Z:0.2
;HEIGHT:0.2
;BEFORE_LAYER_CHANGE
G92 E0.0
;0.2


G1 E-3.20000 F4200.000
G1 Z0.200 F9000.000
;AFTER_LAYER_CHANGE
;0.2
G1 Z0.400
G1 X120.899 Y67.799
G1 Z0.200
G1 E3.20000 F2400.000
M204 S800
;TYPE:Skirt
;WIDTH:0.42
G1 F1200.000
G1 X121.662 Y68.300 E0.02860
G1 X122.178 Y69.048 E0.02849
G1 X122.376 Y69.938 E0.02860
G1 X122.376 Y110.069 E1.25827
G1 X122.279 Y110.676 E0.01929
G1 X122.031 Y111.235 E0.01917
G1 X121.649 Y111.712 E0.01917
G1 X121.157 Y112.076 E0.01917
G1 X120.608 Y112.298 E0.01858
G1 X120.016 Y112.377 E0.01870
G1 X79.996 Y112.377 E1.25480
G1 X78.520 Y112.327 E0.04630
G1 X75.817 Y111.983 E0.08546
M73 P1 R35
G1 X73.153 Y111.303 E0.08620
G1 X71.693 Y110.777 E0.04863
G1 X69.218 Y109.608 E0.08582
G1 X66.849 Y108.105 E0.08799
G1 X64.734 Y106.360 E0.08596
G1 X63.638 Y105.263 E0.04863
G1 X61.896 Y103.152 E0.08582
G1 X60.397 Y100.792 E0.08763
G1 X59.722 Y99.460 E0.04685
G1 X58.719 Y96.917 E0.08570
G1 X58.309 Y95.492 E0.04649
G1 X57.799 Y92.803 E0.08582
G1 X57.624 Y90.075 E0.08572
G1 X57.667 Y88.590 E0.04658
G1 X58.007 Y85.877 E0.08572
G1 X58.346 Y84.363 E0.04863
G1 X59.195 Y81.761 E0.08582
G1 X60.356 Y79.286 E0.08572
G1 X61.143 Y77.954 E0.04849
G1 X62.714 Y75.792 E0.08382
G1 X63.737 Y74.631 E0.04849
G1 X65.732 Y72.762 E0.08572
G1 X66.908 Y71.854 E0.04661
G1 X69.208 Y70.397 E0.08534
G1 X71.757 Y69.197 E0.08835
G1 X74.363 Y68.346 E0.08596
G1 X75.876 Y68.007 E0.04861
G1 X78.615 Y67.666 E0.08656
G1 X120.004 Y67.623 E1.29770
G1 X120.840 Y67.788 E0.02672
M204 S1250
; printing object cog_bracket_outer.stl id:0 copy 0
G1 E-2.24000 F4200.000
;WIPE_START
G1 F7200.000
G1 X121.662 Y68.300 E-0.53650
G1 X122.047 Y68.858 E-0.37550
;WIPE_END
G1 E-0.04800 F4200.000
G1 Z0.400 F9000.000
G1 X96.758 Y91.713
G1 Z0.200
G1 E3.20000 F2400.000
M204 S800
;TYPE:Perimeter
G1 F1200.000
G1 X96.358 Y93.774 E0.06582
G1 X96.055 Y94.906 E0.03675
G1 X95.673 Y96.014 E0.03675
G1 X95.215 Y97.093 E0.03675
G1 X94.683 Y98.138 E0.03675
G1 X94.080 Y99.142 E0.03675
G1 X93.408 Y100.102 E0.03675
G1 X92.670 Y101.013 E0.03675
G1 X91.871 Y101.871 E0.03675
G1 X91.013 Y102.670 E0.03677
G1 X90.073 Y103.428 E0.03784
G1 X89.142 Y104.080 E0.03564
G1 X88.138 Y104.683 E0.03675
G1 X87.093 Y105.215 E0.03675
G1 X86.014 Y105.673 E0.03675
G1 X84.906 Y106.055 E0.03675
G1 X83.774 Y106.358 E0.03675
G1 X81.713 Y106.758 E0.06582
G1 X81.713 Y102.137 E0.14489
G1 X83.352 Y101.743 E0.05286
G1 X84.332 Y101.418 E0.03237
G1 X85.281 Y101.011 E0.03237
G1 X86.192 Y100.526 E0.03237
G1 X87.059 Y99.966 E0.03237
G1 X87.875 Y99.334 E0.03237
G1 X88.635 Y98.635 E0.03237
G1 X89.334 Y97.875 E0.03237
G1 X89.966 Y97.059 E0.03237
G1 X90.526 Y96.192 E0.03237
G1 X91.011 Y95.281 E0.03237
G1 X91.418 Y94.332 E0.03237
G1 X91.743 Y93.352 E0.03237
G1 X92.137 Y91.713 E0.05286
G1 X96.698 Y91.713 E0.14301
M204 S1250
G1 X96.301 Y92.090 F9000.000
M204 S800
;TYPE:External perimeter
G1 F1200.000
G1 X95.990 Y93.689 E0.05107
G1 X95.694 Y94.796 E0.03592
G1 X95.321 Y95.879 E0.03592
G1 X94.873 Y96.934 E0.03592
G1 X94.353 Y97.955 E0.03592
G1 X93.763 Y98.937 E0.03592
G1 X93.106 Y99.875 E0.03592
G1 X92.385 Y100.766 E0.03592
G1 X91.604 Y101.604 E0.03592
G1 X90.766 Y102.385 E0.03593
G1 X89.847 Y103.126 E0.03702
G1 X88.937 Y103.763 E0.03482
G1 X87.955 Y104.353 E0.03592
G1 X86.934 Y104.873 E0.03592
G1 X85.879 Y105.321 E0.03592
G1 X84.796 Y105.694 E0.03592
G1 X83.689 Y105.990 E0.03592
G1 X82.090 Y106.301 E0.05107
G1 X82.090 Y102.434 E0.12123
G1 X83.456 Y102.106 E0.04404
G1 X84.466 Y101.771 E0.03337
G1 X85.444 Y101.352 E0.03337
G1 X86.383 Y100.851 E0.03337
G1 X87.277 Y100.274 E0.03337
G1 X88.119 Y99.622 E0.03337
G1 X88.902 Y98.902 E0.03337
G1 X89.622 Y98.119 E0.03337
G1 X90.274 Y97.277 E0.03337
G1 X90.851 Y96.383 E0.03337
G1 X91.352 Y95.444 E0.03337
G1 X91.771 Y94.466 E0.03337
G1 X92.106 Y93.456 E0.03337
G1 X92.434 Y92.090 E0.04404
G1 X96.241 Y92.090 E0.11935
M204 S1250
G1 X96.701 Y92.099 F9000.000
G1 E-2.24000 F4200.000
;WIPE_START
G1 F7200.000
G1 X95.990 Y93.689 E-0.89684
G1 X95.983 Y93.715 E-0.01516
;WIPE_END
G1 E-0.04800 F4200.000
G1 Z0.400 F9000.000
G1 X81.713 Y77.863
G1 Z0.200
G1 E3.20000 F2400.000
M204 S800
;TYPE:Perimeter
G1 F1200.000
G1 X81.713 Y73.242 E0.14489
G1 X83.774 Y73.642 E0.06582
G1 X84.906 Y73.945 E0.03675
G1 X86.014 Y74.327 E0.03675
G1 X87.093 Y74.785 E0.03675
G1 X88.138 Y75.317 E0.03675
G1 X89.142 Y75.920 E0.03675
G1 X90.102 Y76.592 E0.03675
G1 X91.013 Y77.330 E0.03675
G1 X91.871 Y78.129 E0.03675
G1 X92.670 Y78.987 E0.03675
G1 X93.408 Y79.898 E0.03675
G1 X94.080 Y80.858 E0.03675
G1 X94.683 Y81.862 E0.03675
G1 X95.215 Y82.907 E0.03675
G1 X95.673 Y83.986 E0.03675
G1 X96.055 Y85.094 E0.03675
G1 X96.358 Y86.226 E0.03675
G1 X96.758 Y88.287 E0.06582
G1 X92.137 Y88.287 E0.14489
G1 X91.743 Y86.648 E0.05286
G1 X91.418 Y85.668 E0.03237
G1 X91.011 Y84.719 E0.03237
G1 X90.526 Y83.808 E0.03237
G1 X89.966 Y82.941 E0.03237
G1 X89.334 Y82.125 E0.03237
G1 X88.635 Y81.365 E0.03237
G1 X87.875 Y80.666 E0.03237
G1 X87.059 Y80.034 E0.03237
G1 X86.192 Y79.474 E0.03237
G1 X85.281 Y78.989 E0.03237
G1 X84.332 Y78.582 E0.03237
G1 X83.352 Y78.257 E0.03237
G1 X81.771 Y77.877 E0.05098
M204 S1250
G1 X82.090 Y77.566 F9000.000
M204 S800
;TYPE:External perimeter
G1 F1200.000
G1 X82.090 Y73.699 E0.12123
G1 X83.689 Y74.010 E0.05107
G1 X84.796 Y74.306 E0.03592
G1 X85.879 Y74.679 E0.03592
G1 X86.934 Y75.127 E0.03592
G1 X87.955 Y75.647 E0.03592
G1 X88.937 Y76.237 E0.03592
G1 X89.875 Y76.894 E0.03592
G1 X90.766 Y77.615 E0.03592
G1 X91.604 Y78.396 E0.03592
G1 X92.385 Y79.234 E0.03592
G1 X93.106 Y80.125 E0.03592
G1 X93.763 Y81.063 E0.03592
G1 X94.353 Y82.045 E0.03592
G1 X94.873 Y83.066 E0.03592
G1 X95.321 Y84.121 E0.03592
G1 X95.694 Y85.204 E0.03592
G1 X95.990 Y86.311 E0.03592
G1 X96.301 Y87.910 E0.05107
G1 X92.434 Y87.910 E0.12123
G1 X92.106 Y86.544 E0.04404
M73 P1 R34
G1 X91.771 Y85.534 E0.03337
G1 X91.352 Y84.556 E0.03337
G1 X90.851 Y83.617 E0.03337
G1 X90.274 Y82.723 E0.03337
G1 X89.622 Y81.881 E0.03337
G1 X88.902 Y81.098 E0.03337
G1 X88.119 Y80.378 E0.03337
G1 X87.277 Y79.726 E0.03337
G1 X86.383 Y79.149 E0.03337
G1 X85.444 Y78.648 E0.03337
G1 X84.466 Y78.229 E0.03337
G1 X83.456 Y77.894 E0.03337
G1 X82.148 Y77.580 E0.04216
M204 S1250
G1 X81.692 Y77.530 F9000.000
G1 E-2.24000 F4200.000
;WIPE_START
G1 F7200.000
G1 X82.124 Y75.934 E-0.91200
;WIPE_END
G1 E-0.04800 F4200.000
G1 Z0.400 F9000.000
G1 X78.287 Y73.242
G1 Z0.200
G1 E3.20000 F2400.000
M204 S800
;TYPE:Perimeter
G1 F1200.000
G1 X78.287 Y77.863 E0.14489
G1 X76.648 Y78.257 E0.05286
G1 X75.668 Y78.582 E0.03237
G1 X74.719 Y78.989 E0.03237
G1 X73.808 Y79.474 E0.03237
G1 X72.941 Y80.034 E0.03237
G1 X72.125 Y80.666 E0.03237
G1 X71.365 Y81.365 E0.03237
G1 X70.666 Y82.125 E0.03237
G1 X70.034 Y82.941 E0.03237
G1 X69.474 Y83.808 E0.03237
G1 X68.989 Y84.719 E0.03237
G1 X68.582 Y85.668 E0.03237
G1 X68.257 Y86.648 E0.03237
G1 X67.863 Y88.287 E0.05286
G1 X63.242 Y88.287 E0.14489
G1 X63.642 Y86.226 E0.06582
G1 X63.945 Y85.094 E0.03675
G1 X64.327 Y83.986 E0.03675
G1 X64.785 Y82.907 E0.03675
G1 X65.317 Y81.862 E0.03675
G1 X65.920 Y80.858 E0.03675
G1 X66.592 Y79.898 E0.03675
G1 X67.330 Y78.987 E0.03675
G1 X68.129 Y78.129 E0.03675
G1 X68.987 Y77.330 E0.03675
G1 X69.898 Y76.592 E0.03675
G1 X70.858 Y75.920 E0.03675
G1 X71.862 Y75.317 E0.03675
G1 X72.907 Y74.785 E0.03675
G1 X73.986 Y74.327 E0.03675
G1 X75.094 Y73.945 E0.03675
G1 X76.226 Y73.642 E0.03675
G1 X78.228 Y73.253 E0.06394
M204 S1250
G1 X77.910 Y73.699 F9000.000
M204 S800
;TYPE:External perimeter
G1 F1200.000
G1 X77.910 Y77.566 E0.12123
G1 X76.544 Y77.894 E0.04404
G1 X75.534 Y78.229 E0.03337
G1 X74.556 Y78.648 E0.03337
G1 X73.617 Y79.149 E0.03337
G1 X72.723 Y79.726 E0.03337
G1 X71.881 Y80.378 E0.03337
G1 X71.098 Y81.098 E0.03337
G1 X70.378 Y81.881 E0.03337
G1 X69.726 Y82.723 E0.03337
G1 X69.149 Y83.617 E0.03337
G1 X68.648 Y84.556 E0.03337
G1 X68.229 Y85.534 E0.03337
G1 X67.894 Y86.544 E0.03337
G1 X67.566 Y87.910 E0.04404
G1 X63.699 Y87.910 E0.12123
G1 X64.010 Y86.311 E0.05107
G1 X64.306 Y85.204 E0.03592
G1 X64.679 Y84.121 E0.03592
G1 X65.127 Y83.066 E0.03592
G1 X65.647 Y82.045 E0.03592
G1 X66.237 Y81.063 E0.03592
G1 X66.894 Y80.125 E0.03592
G1 X67.615 Y79.234 E0.03592
G1 X68.396 Y78.396 E0.03592
G1 X69.234 Y77.615 E0.03592
G1 X70.125 Y76.894 E0.03592
G1 X71.063 Y76.237 E0.03592
G1 X72.045 Y75.647 E0.03592
G1 X73.066 Y75.127 E0.03592
G1 X74.121 Y74.679 E0.03592
M73 P2 R34
G1 X75.204 Y74.306 E0.03592
G1 X76.311 Y74.010 E0.03592
G1 X77.851 Y73.711 E0.04919
M204 S1250
G1 X78.309 Y73.670 F9000.000
G1 E-2.24000 F4200.000
;WIPE_START
G1 F7200.000
G1 X77.876 Y75.356 E-0.91200
;WIPE_END
G1 E-0.04800 F4200.000
G1 Z0.400 F9000.000
G1 X67.863 Y91.713
G1 Z0.200
G1 E3.20000 F2400.000
M204 S800
;TYPE:Perimeter
G1 F1200.000
G1 X68.257 Y93.352 E0.05286
G1 X68.582 Y94.332 E0.03237
G1 X68.989 Y95.281 E0.03237
G1 X69.474 Y96.192 E0.03237
G1 X70.034 Y97.059 E0.03237
G1 X70.666 Y97.875 E0.03237
G1 X71.365 Y98.635 E0.03237
G1 X72.125 Y99.334 E0.03237
G1 X72.941 Y99.966 E0.03237
G1 X73.808 Y100.526 E0.03237
G1 X74.719 Y101.011 E0.03237
G1 X75.668 Y101.418 E0.03237
G1 X76.648 Y101.743 E0.03237
G1 X78.287 Y102.137 E0.05286
G1 X78.287 Y106.758 E0.14489
G1 X76.226 Y106.358 E0.06582
G1 X75.094 Y106.055 E0.03675
G1 X73.986 Y105.673 E0.03675
G1 X72.907 Y105.215 E0.03675
G1 X71.862 Y104.683 E0.03675
G1 X70.858 Y104.080 E0.03675
G1 X69.898 Y103.408 E0.03675
G1 X68.987 Y102.670 E0.03675
G1 X68.129 Y101.871 E0.03675
G1 X67.330 Y101.013 E0.03675
G1 X66.592 Y100.102 E0.03675
G1 X65.920 Y99.142 E0.03675
G1 X65.317 Y98.138 E0.03675
G1 X64.785 Y97.093 E0.03675
G1 X64.327 Y96.014 E0.03675
G1 X63.945 Y94.906 E0.03675
G1 X63.642 Y93.774 E0.03675
G1 X63.242 Y91.713 E0.06582
G1 X67.803 Y91.713 E0.14301
M204 S1250
G1 X67.566 Y92.090 F9000.000
M204 S800
;TYPE:External perimeter
G1 F1200.000
G1 X67.894 Y93.456 E0.04404
G1 X68.229 Y94.466 E0.03337
G1 X68.648 Y95.444 E0.03337
G1 X69.149 Y96.383 E0.03337
G1 X69.726 Y97.277 E0.03337
G1 X70.378 Y98.119 E0.03337
G1 X71.098 Y98.902 E0.03337
G1 X71.881 Y99.622 E0.03337
G1 X72.723 Y100.274 E0.03337
G1 X73.617 Y100.851 E0.03337
G1 X74.556 Y101.352 E0.03337
G1 X75.534 Y101.771 E0.03337
G1 X76.544 Y102.106 E0.03337
G1 X77.910 Y102.434 E0.04404
G1 X77.910 Y106.301 E0.12123
G1 X76.311 Y105.990 E0.05107
G1 X75.204 Y105.694 E0.03592
G1 X74.121 Y105.321 E0.03592
G1 X73.066 Y104.873 E0.03592
G1 X72.045 Y104.353 E0.03592
G1 X71.063 Y103.763 E0.03592
G1 X70.441 Y103.328 E0.02380
G1 X70.125 Y103.106 E0.01212
G1 X69.234 Y102.385 E0.03592
G1 X68.396 Y101.604 E0.03592
G1 X67.615 Y100.766 E0.03592
G1 X66.894 Y99.875 E0.03592
G1 X66.237 Y98.937 E0.03592
G1 X65.647 Y97.955 E0.03592
G1 X65.127 Y96.934 E0.03592
G1 X64.679 Y95.879 E0.03592
G1 X64.306 Y94.796 E0.03592
G1 X64.010 Y93.689 E0.03592
G1 X63.699 Y92.090 E0.05107
G1 X67.506 Y92.090 E0.11935
M204 S1250
G1 X67.948 Y91.973 F9000.000
G1 E-2.24000 F4200.000
;WIPE_START
G1 F7200.000
G1 X67.894 Y93.456 E-0.78687
G1 X67.965 Y93.670 E-0.12513
;WIPE_END
G1 E-0.04800 F4200.000
G1 Z0.400 F9000.000
G1 X102.358 Y73.010
G1 Z0.200
G1 E3.20000 F2400.000
M204 S800
;TYPE:Perimeter
G1 F1200.000
G1 X102.948 Y72.779 E0.01987
G1 X103.500 Y72.706 E0.01746
G1 X104.094 Y72.784 E0.01878
G1 X104.647 Y73.013 E0.01878
G1 X105.122 Y73.378 E0.01878
G1 X105.487 Y73.853 E0.01878
G1 X105.716 Y74.406 E0.01878
G1 X105.787 Y74.948 E0.01714
G1 X105.787 Y105.052 E0.94386
G1 X105.716 Y105.594 E0.01714
G1 X105.487 Y106.147 E0.01878
G1 X105.122 Y106.622 E0.01878
G1 X104.647 Y106.987 E0.01878
G1 X104.094 Y107.216 E0.01878
G1 X103.494 Y107.295 E0.01896
G1 X102.868 Y107.200 E0.01987
G1 X102.353 Y106.987 E0.01746
G1 X101.878 Y106.622 E0.01878
G1 X101.513 Y106.147 E0.01878
G1 X101.284 Y105.594 E0.01878
G1 X101.213 Y105.052 E0.01714
G1 X101.213 Y74.948 E0.94386
G1 X101.284 Y74.406 E0.01714
G1 X101.513 Y73.853 E0.01878
G1 X101.878 Y73.378 E0.01878
G1 X102.310 Y73.046 E0.01708
M204 S1250
G1 X102.540 Y73.346 F9000.000
M204 S800
;TYPE:External perimeter
G1 F1200.000
G1 X103.043 Y73.147 E0.01696
G1 X103.500 Y73.086 E0.01446
G1 X103.995 Y73.152 E0.01566
G1 X104.457 Y73.343 E0.01566
G1 X104.853 Y73.647 E0.01566
G1 X105.157 Y74.043 E0.01566
G1 X105.348 Y74.505 E0.01566
G1 X105.410 Y74.973 E0.01481
G1 X105.410 Y105.027 E0.94231
G1 X105.348 Y105.495 E0.01481
G1 X105.157 Y105.957 E0.01566
G1 X104.853 Y106.353 E0.01566
G1 X104.457 Y106.657 E0.01566
G1 X103.995 Y106.848 E0.01566
G1 X103.498 Y106.914 E0.01573
G1 X102.969 Y106.834 E0.01676
G1 X102.543 Y106.657 E0.01446
G1 X102.147 Y106.353 E0.01566
G1 X101.843 Y105.957 E0.01566
G1 X101.652 Y105.495 E0.01566
G1 X101.590 Y105.027 E0.01481
G1 X101.590 Y74.973 E0.94231
G1 X101.652 Y74.505 E0.01481
G1 X101.843 Y74.043 E0.01566
G1 X102.147 Y73.647 E0.01566
G1 X102.492 Y73.382 E0.01364
M204 S1250
G1 X102.544 Y72.946 F9000.000
G1 E-2.24000 F4200.000
;WIPE_START
G1 F7200.000
G1 X103.043 Y73.147 E-0.33183
G1 X103.500 Y73.086 E-0.25566
G1 X103.995 Y73.152 E-0.27683
G1 X104.075 Y73.185 E-0.04768
;WIPE_END
G1 E-0.04800 F4200.000
G1 Z0.400 F9000.000
G1 X119.213 Y70.787
G1 Z0.200
G1 E3.20000 F2400.000
M204 S800
;TYPE:Perimeter
G1 F1200.000
G1 X119.213 Y109.213 E1.20482
G1 X80.012 Y109.213 E1.22911
G1 X78.794 Y109.175 E0.03823
G1 X77.592 Y109.061 E0.03784
G1 X76.400 Y108.872 E0.03784
G1 X75.222 Y108.609 E0.03784
G1 X74.063 Y108.272 E0.03784
G1 X72.927 Y107.863 E0.03784
G1 X71.820 Y107.384 E0.03784
G1 X70.744 Y106.836 E0.03784
G1 X69.705 Y106.222 E0.03784
G1 X68.707 Y105.543 E0.03784
G1 X67.753 Y104.804 E0.03784
G1 X66.848 Y104.005 E0.03784
G1 X65.995 Y103.152 E0.03784
G1 X65.196 Y102.247 E0.03784
G1 X64.457 Y101.293 E0.03784
G1 X63.778 Y100.295 E0.03784
G1 X63.164 Y99.256 E0.03784
G1 X62.616 Y98.180 E0.03784
G1 X62.137 Y97.073 E0.03784
G1 X61.728 Y95.937 E0.03784
G1 X61.391 Y94.778 E0.03784
G1 X61.128 Y93.600 E0.03784
G1 X60.939 Y92.408 E0.03784
G1 X60.825 Y91.206 E0.03784
G1 X60.787 Y90.000 E0.03784
G1 X60.825 Y88.818 E0.03707
G1 X60.939 Y87.592 E0.03863
G1 X61.128 Y86.400 E0.03783
G1 X61.391 Y85.222 E0.03784
G1 X61.728 Y84.063 E0.03784
G1 X62.128 Y82.951 E0.03707
G1 X62.616 Y81.819 E0.03863
G1 X63.164 Y80.744 E0.03783
G1 X63.778 Y79.705 E0.03784
G1 X64.457 Y78.707 E0.03784
G1 X64.955 Y78.065 E0.02549
G1 X65.196 Y77.753 E0.01236
G1 X65.995 Y76.848 E0.03784
G1 X66.848 Y75.995 E0.03784
G1 X67.753 Y75.196 E0.03784
G1 X68.707 Y74.457 E0.03784
G1 X69.705 Y73.778 E0.03784
G1 X70.744 Y73.164 E0.03784
G1 X71.820 Y72.616 E0.03784
G1 X72.927 Y72.137 E0.03784
G1 X74.063 Y71.728 E0.03784
G1 X75.222 Y71.391 E0.03784
G1 X76.400 Y71.128 E0.03784
G1 X77.592 Y70.939 E0.03784
G1 X78.794 Y70.825 E0.03784
G1 X80.012 Y70.787 E0.03823
G1 X119.153 Y70.787 E1.22722
M204 S1250
M73 P3 R34
G1 X119.590 Y70.410 F9000.000
M204 S800
;TYPE:External perimeter
G1 F1200.000
