; generated by PrusaSlicer 2.3.3+win64 on 2022-06-14 at 12:09:13 UTC


;
;

;
;
; 

; external perimeters extrusion width = 0.45mm
; perimeters extrusion width = 0.45mm
; infill extrusion width = 0.45mm
; solid infill extrusion width = 0.45mm
; top infill extrusion width = 0.40mm
; support material extrusion width = 0.35mm
; first layer extrusion width = 0.42mm

M73 P0 R45
M201 X1250 Y1250 Z400 E5000 ; sets maximum accelerations, mm/sec^2
M203 X180 Y180 Z12 E80 ; sets maximum feedrates, mm/sec
M204 P1250 R1250 T1250 ; sets acceleration (P, T) and retract acceleration (R), mm/sec^2
M205 X8.00 Y8.00 Z2.00 E10.00 ; sets the jerk limits, mm/sec
M205 S0 T0 ; sets the minimum extruding and travel feed rate, mm/sec
M107
;TYPE:Custom
G90 ; use absolute coordinates
M83 ; extruder relative mode
M104 S170 ; set extruder temp for bed leveling
M140 S60 ; set bed temp
M109 R170 ; wait for bed leveling temp
M190 S60 ; wait for bed temp
G28 ; home all without mesh bed level
G29 ; mesh bed leveling 
M104 S215 ; set extruder temp
G92 E0.0
G1 Y-2.0 X179 F2400
M73 P0 R44
G1 Z3 F720
M109 S215 ; wait for extruder temp

; intro line
G1 X170 F1000
G1 Z0.2 F720
G1 X110.0 E8.0 F900
G1 X40.0 E10.0 F700
G92 E0.0

M221 S95 ; set flow
G21 ; set units to millimeters
G90 ; use absolute coordinates
M83 ; use relative distances for extrusion
M900 K0.2 ; Filament gcode LA 1.5
; ; Filament gcode LA 1.0
;LAYER_CHANGE
;Z:0.2
;HEIGHT:0.2
;BEFORE_LAYER_CHANGE
G92 E0.0
;0.2


G1 E-3.20000 F4200.000
G1 Z0.200 F9000.000
;AFTER_LAYER_CHANGE
;0.2
G1 Z0.400
G1 X68.136 Y73.525
G1 Z0.200
G1 E3.20000 F2400.000
M204 S800
;TYPE:Skirt
;WIDTH:0.42
G1 F1200.000
G1 X69.826 Y71.496 E0.08279
G1 X71.579 Y69.748 E0.07762
G1 X73.520 Y68.139 E0.07905
G1 X79.095 Y64.895 E0.20225
G1 X81.767 Y63.892 E0.08946
G1 X84.177 Y63.249 E0.07821
G1 X86.776 Y62.814 E0.08262
G1 X92.998 Y62.803 E0.19511
G1 X95.938 Y63.277 E0.09336
G1 X98.347 Y63.926 E0.07821
G1 X100.991 Y64.941 E0.08879
G1 X106.475 Y68.136 E0.19903
G1 X108.504 Y69.826 E0.08279
G1 X110.252 Y71.579 E0.07762
G1 X111.858 Y73.517 E0.07893
G1 X115.105 Y79.095 E0.20237
G1 X116.111 Y81.778 E0.08982
G1 X116.751 Y84.177 E0.07785
G1 X117.187 Y86.783 E0.08286
G1 X117.182 Y93.264 E0.20321
G1 X116.724 Y95.935 E0.08494
G1 X116.080 Y98.329 E0.07773
G1 X115.202 Y100.692 E0.07905
G1 X112.054 Y106.195 E0.19879
G1 X110.157 Y108.523 E0.09415
G1 X108.360 Y110.308 E0.07941
G1 X106.380 Y111.935 E0.08036
G1 X100.789 Y115.155 E0.20231
G1 X98.144 Y116.135 E0.08844
G1 X95.780 Y116.760 E0.07665
G1 X93.211 Y117.187 E0.08166
G1 X86.736 Y117.182 E0.20304
G1 X84.177 Y116.751 E0.08137
G1 X81.766 Y116.108 E0.07821
G1 X79.000 Y115.053 E0.09284
G1 X73.525 Y111.864 E0.19867
G1 X71.579 Y110.252 E0.07922
G1 X69.826 Y108.504 E0.07761
G1 X68.132 Y106.471 E0.08298
G1 X64.895 Y100.905 E0.20189
G1 X63.889 Y98.222 E0.08982
G1 X63.249 Y95.823 E0.07785
G1 X62.813 Y93.217 E0.08286
G1 X62.818 Y86.736 E0.20321
G1 X63.249 Y84.177 E0.08137
G1 X63.892 Y81.766 E0.07821
G1 X64.947 Y79.000 E0.09284
G1 X68.106 Y73.576 E0.19679
M204 S1250
; printing object cog.stl id:0 copy 0
G1 E-2.24000 F4200.000
;WIPE_START
G1 F7200.000
G1 X69.155 Y72.308 E-0.91200
;WIPE_END
G1 E-0.04800 F4200.000
G1 Z0.400 F9000.000
G1 X81.272 Y83.659
G1 Z0.200
G1 E3.20000 F2400.000
M204 S800
;TYPE:Perimeter
G1 F1200.000
G1 X81.876 Y82.902 E0.03035
G1 X82.545 Y82.203 E0.03035
G1 X83.275 Y81.565 E0.03038
G1 X84.085 Y80.980 E0.03133
G1 X84.888 Y80.500 E0.02934
G1 X85.760 Y80.080 E0.03035
G1 X86.666 Y79.740 E0.03035
G1 X87.599 Y79.483 E0.03035
G1 X88.552 Y79.310 E0.03035
G1 X89.516 Y79.223 E0.03035
G1 X90.484 Y79.223 E0.03035
G1 X91.448 Y79.310 E0.03035
G1 X92.401 Y79.483 E0.03035
G1 X92.867 Y79.611 E0.01518
G1 X93.334 Y79.740 E0.01518
G1 X94.240 Y80.080 E0.03035
G1 X95.112 Y80.500 E0.03035
G1 X95.943 Y80.997 E0.03035
G1 X96.726 Y81.566 E0.03035
G1 X97.455 Y82.203 E0.03035
G1 X98.124 Y82.902 E0.03035
G1 X98.728 Y83.659 E0.03035
G1 X99.261 Y84.467 E0.03035
G1 X99.720 Y85.319 E0.03035
G1 X100.100 Y86.209 E0.03035
G1 X100.399 Y87.130 E0.03035
M73 P1 R44
G1 X100.615 Y88.074 E0.03035
G1 X100.744 Y89.033 E0.03035
G1 X100.786 Y89.968 E0.02934
G1 X100.745 Y90.966 E0.03133
G1 X100.615 Y91.926 E0.03038
G1 X100.399 Y92.870 E0.03035
G1 X100.100 Y93.791 E0.03035
G1 X99.720 Y94.681 E0.03035
G1 X99.261 Y95.533 E0.03035
G1 X98.728 Y96.341 E0.03035
G1 X98.124 Y97.098 E0.03035
G1 X97.455 Y97.797 E0.03035
G1 X96.726 Y98.434 E0.03035
G1 X95.943 Y99.003 E0.03035
G1 X95.112 Y99.500 E0.03035
G1 X94.240 Y99.920 E0.03035
G1 X93.334 Y100.260 E0.03035
G1 X92.401 Y100.517 E0.03035
G1 X91.448 Y100.690 E0.03035
G1 X90.484 Y100.777 E0.03035
G1 X89.516 Y100.777 E0.03035
G1 X88.552 Y100.690 E0.03035
G1 X87.599 Y100.517 E0.03035
G1 X86.666 Y100.260 E0.03035
G1 X85.760 Y99.920 E0.03035
G1 X84.888 Y99.500 E0.03035
G1 X84.057 Y99.003 E0.03035
G1 X83.274 Y98.434 E0.03035
G1 X82.545 Y97.797 E0.03035
G1 X81.876 Y97.098 E0.03035
G1 X81.272 Y96.341 E0.03035
G1 X80.739 Y95.533 E0.03035
G1 X80.280 Y94.681 E0.03035
G1 X79.900 Y93.791 E0.03035
G1 X79.601 Y92.870 E0.03035
G1 X79.385 Y91.926 E0.03035
G1 X79.256 Y90.967 E0.03035
G1 X79.214 Y90.032 E0.02934
G1 X79.255 Y89.034 E0.03133
G1 X79.385 Y88.074 E0.03038
G1 X79.601 Y87.130 E0.03035
G1 X79.900 Y86.209 E0.03035
G1 X80.280 Y85.319 E0.03035
G1 X80.739 Y84.467 E0.03035
G1 X81.239 Y83.709 E0.02847
M204 S1250
G1 X81.554 Y83.917 F9000.000
M204 S800
;TYPE:External perimeter
G1 F1200.000
G1 X82.160 Y83.151 E0.03063
G1 X82.806 Y82.475 E0.02929
G1 X83.509 Y81.861 E0.02930
G1 X84.292 Y81.295 E0.03027
G1 X85.067 Y80.833 E0.02829
G1 X85.908 Y80.427 E0.02929
G1 X86.783 Y80.099 E0.02929
G1 X87.683 Y79.851 E0.02929
G1 X88.603 Y79.684 E0.02929
G1 X89.533 Y79.600 E0.02929
G1 X90.467 Y79.600 E0.02929
G1 X91.397 Y79.684 E0.02929
G1 X92.317 Y79.851 E0.02929
G1 X92.767 Y79.975 E0.01464
G1 X93.217 Y80.099 E0.01464
G1 X94.092 Y80.427 E0.02929
G1 X94.933 Y80.833 E0.02929
G1 X95.735 Y81.312 E0.02929
G1 X96.491 Y81.861 E0.02929
G1 X97.194 Y82.475 E0.02929
G1 X97.840 Y83.151 E0.02929
G1 X98.422 Y83.881 E0.02929
G1 X98.937 Y84.661 E0.02929
G1 X99.379 Y85.483 E0.02929
G1 X99.747 Y86.342 E0.02929
G1 X100.035 Y87.230 E0.02929
G1 X100.243 Y88.141 E0.02929
G1 X100.369 Y89.067 E0.02929
G1 X100.409 Y89.968 E0.02829
G1 X100.369 Y90.933 E0.03027
G1 X100.243 Y91.859 E0.02930
G1 X100.035 Y92.770 E0.02929
G1 X99.747 Y93.658 E0.02929
G1 X99.379 Y94.517 E0.02929
G1 X98.937 Y95.339 E0.02929
G1 X98.422 Y96.119 E0.02929
G1 X97.840 Y96.849 E0.02929
G1 X97.194 Y97.525 E0.02929
G1 X96.491 Y98.139 E0.02929
G1 X95.735 Y98.688 E0.02929
G1 X94.933 Y99.167 E0.02929
G1 X94.092 Y99.573 E0.02929
G1 X93.217 Y99.901 E0.02929
G1 X92.317 Y100.149 E0.02929
G1 X91.397 Y100.316 E0.02929
G1 X90.467 Y100.400 E0.02929
G1 X89.533 Y100.400 E0.02929
G1 X88.603 Y100.316 E0.02929
G1 X87.683 Y100.149 E0.02929
G1 X86.783 Y99.901 E0.02929
G1 X85.908 Y99.573 E0.02929
G1 X85.067 Y99.167 E0.02929
G1 X84.265 Y98.688 E0.02929
G1 X83.509 Y98.139 E0.02929
G1 X82.806 Y97.525 E0.02929
G1 X82.160 Y96.849 E0.02929
G1 X81.578 Y96.119 E0.02929
G1 X81.063 Y95.339 E0.02929
G1 X80.621 Y94.517 E0.02929
G1 X80.253 Y93.658 E0.02929
G1 X79.965 Y92.770 E0.02929
G1 X79.757 Y91.859 E0.02929
G1 X79.631 Y90.933 E0.02929
G1 X79.591 Y90.032 E0.02829
G1 X79.631 Y89.067 E0.03027
G1 X79.757 Y88.141 E0.02930
G1 X79.965 Y87.230 E0.02929
G1 X80.253 Y86.342 E0.02929
G1 X80.621 Y85.483 E0.02929
G1 X81.063 Y84.661 E0.02929
G1 X81.521 Y83.967 E0.02606
M204 S1250
G1 X81.390 Y83.552 F9000.000
G1 E-2.24000 F4200.000
;WIPE_START
G1 F7200.000
G1 X82.160 Y83.151 E-0.57457
G1 X82.581 Y82.710 E-0.33743
;WIPE_END
G1 E-0.04800 F4200.000
G1 Z0.400 F9000.000
G1 X71.097 Y74.908
G1 Z0.200
G1 E3.20000 F2400.000
M204 S800
;TYPE:Perimeter
G1 F1200.000
G1 X72.090 Y73.707 E0.04886
G1 X73.707 Y72.090 E0.07170
G1 X74.904 Y71.100 E0.04869
G1 X74.966 Y71.173 E0.00299
G1 X75.763 Y71.722 E0.03034
G1 X76.673 Y72.052 E0.03034
G1 X77.637 Y72.140 E0.03034
G1 X78.591 Y71.983 E0.03034
G1 X79.475 Y71.588 E0.03034
G1 X80.230 Y70.983 E0.03034
G1 X80.808 Y70.207 E0.03034
G1 X81.170 Y69.309 E0.03034
G1 X81.291 Y68.369 E0.02971
G1 X81.244 Y67.766 E0.01897
G1 X81.176 Y67.478 E0.00928
G1 X82.636 Y66.935 E0.04883
G1 X84.845 Y66.343 E0.07170
G1 X86.375 Y66.085 E0.04865
G1 X86.390 Y66.164 E0.00252
G1 X86.793 Y67.027 E0.02987
G1 X87.399 Y67.762 E0.02987
G1 X88.169 Y68.322 E0.02987
G1 X89.055 Y68.674 E0.02987
G1 X90.000 Y68.793 E0.02987
G1 X90.945 Y68.674 E0.02987
G1 X91.831 Y68.322 E0.02987
G1 X92.601 Y67.762 E0.02987
G1 X93.207 Y67.027 E0.02987
G1 X93.610 Y66.164 E0.02987
G1 X93.625 Y66.085 E0.00252
G1 X95.155 Y66.343 E0.04865
G1 X97.364 Y66.935 E0.07170
G1 X98.818 Y67.476 E0.04865
G1 X98.791 Y67.552 E0.00252
G1 X98.710 Y68.501 E0.02987
G1 X98.867 Y69.441 E0.02987
G1 X99.253 Y70.311 E0.02987
G1 X99.845 Y71.058 E0.02987
G1 X100.603 Y71.635 E0.02987
G1 X101.482 Y72.003 E0.02987
G1 X102.424 Y72.142 E0.02987
G1 X103.371 Y72.041 E0.02987
G1 X104.264 Y71.708 E0.02987
G1 X105.045 Y71.162 E0.02987
G1 X105.097 Y71.101 E0.00252
G1 X106.293 Y72.090 E0.04865
G1 X107.910 Y73.707 E0.07170
G1 X108.899 Y74.903 E0.04865
G1 X108.838 Y74.955 E0.00252
G1 X108.292 Y75.736 E0.02987
G1 X107.959 Y76.629 E0.02987
G1 X107.858 Y77.576 E0.02987
G1 X107.997 Y78.518 E0.02987
G1 X108.365 Y79.397 E0.02987
G1 X108.942 Y80.155 E0.02987
G1 X109.689 Y80.747 E0.02987
G1 X110.559 Y81.133 E0.02987
G1 X111.499 Y81.290 E0.02987
G1 X112.448 Y81.209 E0.02987
G1 X112.524 Y81.182 E0.00252
G1 X113.065 Y82.636 E0.04865
G1 X113.657 Y84.845 E0.07170
G1 X113.915 Y86.375 E0.04865
G1 X113.836 Y86.390 E0.00252
G1 X112.973 Y86.793 E0.02987
G1 X112.238 Y87.399 E0.02987
G1 X111.678 Y88.169 E0.02987
G1 X111.326 Y89.055 E0.02987
G1 X111.207 Y90.000 E0.02987
G1 X111.326 Y90.945 E0.02987
G1 X111.678 Y91.831 E0.02987
G1 X112.238 Y92.601 E0.02987
G1 X112.973 Y93.207 E0.02987
G1 X113.836 Y93.610 E0.02987
G1 X113.915 Y93.625 E0.00252
G1 X113.657 Y95.155 E0.04865
G1 X113.065 Y97.364 E0.07170
G1 X112.524 Y98.818 E0.04865
G1 X112.448 Y98.791 E0.00252
G1 X111.499 Y98.710 E0.02987
G1 X110.559 Y98.867 E0.02987
G1 X109.689 Y99.253 E0.02987
G1 X108.942 Y99.845 E0.02987
G1 X108.365 Y100.603 E0.02987
G1 X107.997 Y101.482 E0.02987
G1 X107.858 Y102.424 E0.02987
G1 X107.959 Y103.371 E0.02987
G1 X108.292 Y104.264 E0.02987
G1 X108.838 Y105.045 E0.02987
G1 X108.898 Y105.097 E0.00250
G1 X107.885 Y106.320 E0.04981
G1 X106.238 Y107.960 E0.07287
G1 X105.010 Y108.968 E0.04981
G1 X104.958 Y108.907 E0.00250
G1 X104.179 Y108.358 E0.02987
G1 X103.288 Y108.020 E0.02987
G1 X102.342 Y107.915 E0.02987
G1 X101.398 Y108.049 E0.02987
G1 X100.518 Y108.414 E0.02987
G1 X99.757 Y108.987 E0.02987
G1 X99.163 Y109.731 E0.02987
G1 X98.772 Y110.600 E0.02987
G1 X98.610 Y111.539 E0.02987
G1 X98.688 Y112.488 E0.02987
G1 X98.714 Y112.565 E0.00254
G1 X97.293 Y113.088 E0.04748
G1 X95.119 Y113.665 E0.07054
G1 X93.625 Y113.916 E0.04748
G1 X93.610 Y113.836 E0.00254
G1 X93.207 Y112.973 E0.02987
G1 X92.601 Y112.238 E0.02987
G1 X91.831 Y111.678 E0.02987
G1 X90.945 Y111.326 E0.02987
G1 X90.000 Y111.207 E0.02987
G1 X89.055 Y111.326 E0.02987
G1 X88.169 Y111.678 E0.02987
G1 X87.399 Y112.238 E0.02987
G1 X86.793 Y112.973 E0.02987
G1 X86.390 Y113.836 E0.02987
G1 X86.375 Y113.915 E0.00252
G1 X84.845 Y113.657 E0.04865
G1 X82.636 Y113.065 E0.07170
G1 X81.176 Y112.522 E0.04883
G1 X81.244 Y112.234 E0.00928
G1 X81.291 Y111.631 E0.01897
G1 X81.170 Y110.691 E0.02971
G1 X80.808 Y109.793 E0.03034
G1 X80.230 Y109.017 E0.03034
G1 X79.475 Y108.412 E0.03034
G1 X78.591 Y108.017 E0.03034
G1 X77.637 Y107.860 E0.03034
G1 X76.673 Y107.948 E0.03034
G1 X75.763 Y108.278 E0.03034
G1 X74.966 Y108.827 E0.03034
G1 X74.904 Y108.900 E0.00299
G1 X73.707 Y107.910 E0.04869
G1 X72.090 Y106.293 E0.07170
G1 X71.097 Y105.092 E0.04886
G1 X71.348 Y104.818 E0.01164
G1 X71.687 Y104.296 E0.01953
G1 X71.936 Y103.725 E0.01953
G1 X72.088 Y103.121 E0.01953
G1 X72.141 Y102.482 E0.02009
G1 X72.021 Y101.546 E0.02960
G1 X71.663 Y100.653 E0.03016
G1 X71.091 Y99.879 E0.03016
G1 X70.344 Y99.273 E0.03016
G1 X69.468 Y98.875 E0.03016
G1 X68.520 Y98.710 E0.03016
G1 X67.561 Y98.789 E0.03016
G1 X67.476 Y98.819 E0.00282
G1 X66.935 Y97.364 E0.04868
G1 X66.343 Y95.155 E0.07170
G1 X66.085 Y93.625 E0.04865
G1 X66.164 Y93.610 E0.00252
G1 X67.027 Y93.207 E0.02987
G1 X67.762 Y92.601 E0.02987
G1 X68.322 Y91.831 E0.02987
G1 X68.674 Y90.945 E0.02987
G1 X68.793 Y90.000 E0.02987
G1 X68.674 Y89.055 E0.02987
G1 X68.322 Y88.169 E0.02987
G1 X67.762 Y87.399 E0.02987
G1 X67.027 Y86.793 E0.02987
G1 X66.164 Y86.390 E0.02987
G1 X66.085 Y86.375 E0.00252
G1 X66.343 Y84.845 E0.04865
G1 X66.935 Y82.636 E0.07170
G1 X67.476 Y81.181 E0.04868
G1 X67.561 Y81.211 E0.00282
G1 X68.520 Y81.290 E0.03016
G1 X69.468 Y81.125 E0.03016
G1 X70.344 Y80.727 E0.03016
G1 X71.091 Y80.121 E0.03017
G1 X71.663 Y79.347 E0.03016
G1 X72.021 Y78.454 E0.03016
G1 X72.141 Y77.518 E0.02960
G1 X72.088 Y76.879 E0.02009
G1 X71.936 Y76.275 E0.01953
G1 X71.687 Y75.704 E0.01953
G1 X71.348 Y75.182 E0.01953
G1 X71.138 Y74.952 E0.00976
M204 S1250
G1 X70.670 Y75.000 F9000.000
M204 S800
;TYPE:External perimeter
G1 F1200.000
G1 X70.586 Y74.934 E0.00334
G1 X71.811 Y73.453 E0.06025
G1 X73.453 Y71.811 E0.07282
G1 X74.948 Y70.574 E0.06083
G1 X75.220 Y70.890 E0.01306
G1 X75.937 Y71.384 E0.02730
G1 X76.756 Y71.681 E0.02730
G1 X77.623 Y71.761 E0.02730
G1 X78.482 Y71.618 E0.02730
G1 X79.277 Y71.264 E0.02730
G1 X79.957 Y70.719 E0.02730
G1 X80.476 Y70.020 E0.02730
G1 X80.802 Y69.213 E0.02730
G1 X80.912 Y68.360 E0.02697
G1 X80.871 Y67.824 E0.01684
G1 X80.722 Y67.245 E0.01876
G1 X82.521 Y66.575 E0.06018
G1 X84.765 Y65.974 E0.07282
G1 X86.677 Y65.651 E0.06081
G1 X86.751 Y66.047 E0.01263
G1 X87.115 Y66.824 E0.02688
G1 X87.660 Y67.485 E0.02688
G1 X88.353 Y67.990 E0.02688
G1 X89.150 Y68.306 E0.02688
G1 X90.000 Y68.413 E0.02688
G1 X90.850 Y68.306 E0.02688
G1 X91.647 Y67.990 E0.02688
G1 X92.340 Y67.485 E0.02688
G1 X92.885 Y66.824 E0.02688
G1 X93.249 Y66.047 E0.02688
G1 X93.323 Y65.651 E0.01263
G1 X95.235 Y65.974 E0.06081
G1 X97.479 Y66.575 E0.07282
G1 X99.296 Y67.252 E0.06081
G1 X99.163 Y67.632 E0.01263
G1 X99.089 Y68.486 E0.02688
G1 X99.231 Y69.331 E0.02688
G1 X99.579 Y70.115 E0.02688
G1 X100.111 Y70.787 E0.02688
G1 X100.793 Y71.305 E0.02688
G1 X101.584 Y71.637 E0.02688
G1 X102.432 Y71.762 E0.02688
G1 X103.284 Y71.671 E0.02688
G1 X104.087 Y71.371 E0.02688
G1 X104.790 Y70.881 E0.02688
G1 X105.052 Y70.575 E0.01263
G1 X106.547 Y71.811 E0.06081
G1 X108.189 Y73.453 E0.07282
G1 X109.425 Y74.948 E0.06081
G1 X109.119 Y75.210 E0.01263
G1 X108.629 Y75.913 E0.02688
G1 X108.329 Y76.716 E0.02688
G1 X108.238 Y77.568 E0.02688
G1 X108.363 Y78.416 E0.02688
G1 X108.695 Y79.207 E0.02688
G1 X109.213 Y79.889 E0.02688
G1 X109.885 Y80.421 E0.02688
G1 X110.669 Y80.769 E0.02688
G1 X111.514 Y80.911 E0.02688
G1 X112.368 Y80.837 E0.02688
G1 X112.748 Y80.704 E0.01263
G1 X113.425 Y82.521 E0.06081
G1 X114.026 Y84.765 E0.07282
G1 X114.349 Y86.677 E0.06081
G1 X113.953 Y86.751 E0.01263
G1 X113.176 Y87.115 E0.02688
G1 X112.515 Y87.660 E0.02688
G1 X112.010 Y88.353 E0.02688
G1 X111.694 Y89.150 E0.02688
G1 X111.587 Y90.000 E0.02688
G1 X111.694 Y90.850 E0.02688
G1 X112.010 Y91.647 E0.02688
G1 X112.515 Y92.340 E0.02688
G1 X113.176 Y92.885 E0.02688
G1 X113.953 Y93.249 E0.02688
G1 X114.349 Y93.323 E0.01263
G1 X114.026 Y95.235 E0.06081
G1 X113.425 Y97.479 E0.07282
G1 X112.748 Y99.296 E0.06081
G1 X112.368 Y99.163 E0.01263
G1 X111.514 Y99.089 E0.02688
G1 X110.669 Y99.231 E0.02688
G1 X109.885 Y99.579 E0.02688
G1 X109.213 Y100.111 E0.02688
G1 X108.695 Y100.793 E0.02688
G1 X108.363 Y101.584 E0.02688
G1 X108.238 Y102.432 E0.02688
G1 X108.329 Y103.284 E0.02688
G1 X108.629 Y104.087 E0.02688
G1 X109.119 Y104.790 E0.02688
G1 X109.425 Y105.052 E0.01262
G1 X108.164 Y106.575 E0.06199
G1 X106.491 Y108.240 E0.07400
G1 X104.962 Y109.494 E0.06199
G1 X104.701 Y109.187 E0.01262
G1 X104.001 Y108.694 E0.02688
G1 X103.199 Y108.390 E0.02688
G1 X102.347 Y108.295 E0.02688
G1 X101.499 Y108.416 E0.02688
G1 X100.707 Y108.744 E0.02688
G1 X100.022 Y109.259 E0.02688
G1 X99.487 Y109.929 E0.02688
G1 X99.136 Y110.711 E0.02688
G1 X98.990 Y111.556 E0.02688
