; generated by PrusaSlicer 2.3.3+win64 on 2022-06-14 at 12:12:14 UTC


;
;

;
;
; 

; external perimeters extrusion width = 0.45mm
; perimeters extrusion width = 0.45mm
; infill extrusion width = 0.45mm
; solid infill extrusion width = 0.45mm
; top infill extrusion width = 0.40mm
; support material extrusion width = 0.35mm
; first layer extrusion width = 0.42mm

M73 P0 R17
M201 X1250 Y1250 Z400 E5000 ; sets maximum accelerations, mm/sec^2
M203 X180 Y180 Z12 E80 ; sets maximum feedrates, mm/sec
M204 P1250 R1250 T1250 ; sets acceleration (P, T) and retract acceleration (R), mm/sec^2
M205 X8.00 Y8.00 Z2.00 E10.00 ; sets the jerk limits, mm/sec
M205 S0 T0 ; sets the minimum extruding and travel feed rate, mm/sec
M107
;TYPE:Custom
G90 ; use absolute coordinates
M83 ; extruder relative mode
M104 S170 ; set extruder temp for bed leveling
M140 S60 ; set bed temp
M109 R170 ; wait for bed leveling temp
M190 S60 ; wait for bed temp
G28 ; home all without mesh bed level
G29 ; mesh bed leveling 
M104 S215 ; set extruder temp
G92 E0.0
G1 Y-2.0 X179 F2400
G1 Z3 F720
M109 S215 ; wait for extruder temp

; intro line
G1 X170 F1000
G1 Z0.2 F720
G1 X110.0 E8.0 F900
G1 X40.0 E10.0 F700
G92 E0.0

M221 S95 ; set flow
G21 ; set units to millimeters
G90 ; use absolute coordinates
M83 ; use relative distances for extrusion
M900 K0.2 ; Filament gcode LA 1.5
; ; Filament gcode LA 1.0
;LAYER_CHANGE
;Z:0.2
;HEIGHT:0.2
;BEFORE_LAYER_CHANGE
G92 E0.0
;0.2


M73 P1 R17
G1 E-3.20000 F4200.000
G1 Z0.200 F9000.000
;AFTER_LAYER_CHANGE
;0.2
G1 Z0.400
G1 X64.371 Y74.563
G1 Z0.200
G1 E3.20000 F2400.000
M204 S800
;TYPE:Skirt
;WIDTH:0.42
G1 F1200.000
G1 X64.667 Y73.977 E0.02060
G1 X65.112 Y73.493 E0.02060
G1 X65.672 Y73.151 E0.02060
G1 X66.305 Y72.974 E0.02060
G1 X76.429 Y72.953 E0.31744
G1 X113.424 Y73.123 E1.15997
G1 X114.224 Y73.278 E0.02555
G1 X114.928 Y73.696 E0.02567
G1 X115.274 Y74.065 E0.01585
G1 X115.536 Y74.502 E0.01597
G1 X115.699 Y74.980 E0.01585
G1 X115.756 Y75.483 E0.01585
G1 X115.756 Y104.716 E0.91658
M73 P2 R17
G1 X115.599 Y105.519 E0.02567
G1 X115.182 Y106.219 E0.02555
G1 X114.810 Y106.568 E0.01597
G1 X114.373 Y106.829 E0.01597
G1 X113.890 Y106.991 E0.01597
G1 X113.384 Y107.047 E0.01597
G1 X71.108 Y107.047 E1.32553
G1 X66.331 Y106.860 E0.14990
G1 X65.661 Y106.675 E0.02178
G1 X65.074 Y106.305 E0.02178
G1 X64.732 Y105.943 E0.01562
G1 X64.473 Y105.517 E0.01562
G1 X64.308 Y105.047 E0.01562
G1 X64.245 Y104.553 E0.01562
G1 X64.244 Y75.319 E0.91663
G1 X64.361 Y74.622 E0.02214
M204 S1250
; printing object support.stl id:0 copy 0
G1 E-2.24000 F4200.000
;WIPE_START
G1 F7200.000
G1 X64.667 Y73.977 E-0.39589
G1 X65.112 Y73.493 E-0.36400
G1 X65.346 Y73.350 E-0.15211
;WIPE_END
G1 E-0.04800 F4200.000
G1 Z0.400 F9000.000
G1 X66.621 Y75.330
G1 Z0.200
G1 E3.20000 F2400.000
M204 S800
;TYPE:Support material
G1 F1200.000
G1 X66.621 Y104.500 E0.91462
M73 P2 R16
G1 X67.375 Y104.500 E0.02365
G1 X67.375 Y75.500 E0.90929
G1 X68.129 Y75.500 E0.02365
G1 X68.129 Y104.500 E0.90929
G1 X68.884 Y104.500 E0.02365
G1 X68.884 Y75.500 E0.90929
M73 P3 R16
G1 X69.638 Y75.500 E0.02365
G1 X69.638 Y104.500 E0.90929
G1 X70.392 Y104.500 E0.02365
G1 X70.392 Y75.500 E0.90929
G1 X71.146 Y75.500 E0.02365
G1 X71.146 Y104.670 E0.91462
M204 S1250
G1 X76.425 Y104.670 F9000.000
M204 S800
G1 F1200.000
G1 X76.425 Y100.459 E0.13205
G1 X75.671 Y100.459 E0.02365
G1 X75.671 Y104.500 E0.12673
G1 X74.917 Y104.500 E0.02365
G1 X74.917 Y100.459 E0.12673
G1 X74.193 Y100.459 E0.02271
G1 X74.193 Y101.877 E0.04449
G1 X74.163 Y101.877 E0.00094
G1 X74.163 Y104.500 E0.08224
G1 X73.409 Y104.500 E0.02365
G1 X73.409 Y101.877 E0.08224
G1 X72.654 Y101.877 E0.02365
G1 X72.654 Y104.500 E0.08224
G1 X71.900 Y104.500 E0.02365
G1 X71.900 Y101.877 E0.08224
G1 X71.201 Y101.877 E0.02191
G1 X71.201 Y78.122 E0.74482
G1 X71.900 Y78.122 E0.02191
G1 X71.900 Y75.500 E0.08224
G1 X72.654 Y75.500 E0.02365
G1 X72.654 Y78.122 E0.08224
G1 X73.409 Y78.122 E0.02365
G1 X73.409 Y75.500 E0.08224
G1 X74.163 Y75.500 E0.02365
G1 X74.163 Y78.122 E0.08224
G1 X74.193 Y78.122 E0.00094
G1 X74.193 Y79.541 E0.04449
G1 X74.917 Y79.541 E0.02271
G1 X74.917 Y75.500 E0.12673
G1 X75.671 Y75.500 E0.02365
G1 X75.671 Y79.541 E0.12673
G1 X76.425 Y79.541 E0.02365
G1 X76.425 Y75.330 E0.13205
M204 S1250
G1 E-2.24000 F4200.000
;WIPE_START
G1 F7200.000
G1 X76.425 Y76.976 E-0.91200
;WIPE_END
G1 E-0.04800 F4200.000
G1 Z0.400 F9000.000
G1 X73.773 Y78.326
G1 Z0.200
G1 E3.20000 F2400.000
M204 S800
;TYPE:Support material interface
;WIDTH:0.35
G1 F1200.000
G1 X73.773 Y79.576 E0.03192
M73 P4 R16
G1 X73.266 Y79.576 E0.01295
G1 X73.266 Y78.465 E0.02839
G1 X72.759 Y78.465 E0.01295
G1 X72.759 Y79.607 E0.02916
G1 X72.405 Y79.607 E0.00905
G1 X72.252 Y79.759 E0.00551
G1 X72.252 Y78.465 E0.03306
G1 X71.745 Y78.465 E0.01295
G1 X71.745 Y101.535 E0.58909
G1 X72.252 Y101.535 E0.01295
G1 X72.252 Y100.241 E0.03306
G1 X72.405 Y100.393 E0.00551
G1 X72.759 Y100.393 E0.00905
G1 X72.759 Y101.535 E0.02916
G1 X73.266 Y101.535 E0.01295
G1 X73.266 Y100.424 E0.02839
G1 X73.773 Y100.424 E0.01295
G1 X73.773 Y101.674 E0.03192
M204 S1250
G1 X72.654 Y100.221 F9000.000
M204 S800
;TYPE:Support material
;WIDTH:0.42
G1 F1200.000
G1 X72.654 Y79.779 E0.64095
M204 S1250
G1 E-2.24000 F4200.000
;WIPE_START
G1 F7200.000
G1 X72.654 Y81.425 E-0.91200
;WIPE_END
G1 E-0.04800 F4200.000
G1 Z0.400 F9000.000
G1 X107.346 Y79.779
G1 Z0.200
G1 E3.20000 F2400.000
M204 S800
G1 F1200.000
G1 X107.346 Y100.221 E0.64095
M204 S1250
G1 E-2.24000 F4200.000
;WIPE_START
G1 F7200.000
G1 X107.346 Y98.575 E-0.91200
;WIPE_END
G1 E-0.04800 F4200.000
G1 Z0.400 F9000.000
G1 X106.227 Y101.674
G1 Z0.200
G1 E3.20000 F2400.000
M204 S800
;TYPE:Support material interface
;WIDTH:0.35
G1 F1200.000
G1 X106.227 Y100.424 E0.03192
G1 X106.734 Y100.424 E0.01295
G1 X106.734 Y101.535 E0.02839
G1 X107.241 Y101.535 E0.01295
G1 X107.241 Y100.393 E0.02916
G1 X107.595 Y100.393 E0.00905
G1 X107.748 Y100.241 E0.00551
G1 X107.748 Y101.674 E0.03658
M204 S1250
G1 X108.255 Y101.674 F9000.000
M204 S800
G1 F1200.000
G1 X108.255 Y78.465 E0.59261
G1 X107.748 Y78.465 E0.01295
G1 X107.748 Y79.759 E0.03306
G1 X107.595 Y79.607 E0.00551
G1 X107.241 Y79.607 E0.00905
G1 X107.241 Y78.465 E0.02916
G1 X106.734 Y78.465 E0.01295
G1 X106.734 Y79.576 E0.02839
G1 X106.227 Y79.576 E0.01295
G1 X106.227 Y78.326 E0.03192
M204 S1250
G1 X103.575 Y79.711 F9000.000
M204 S800
;TYPE:Support material
;WIDTH:0.42
G1 F1200.000
G1 X103.575 Y75.500 E0.13205
G1 X104.329 Y75.500 E0.02365
G1 X104.329 Y79.541 E0.12673
G1 X105.083 Y79.541 E0.02365
G1 X105.083 Y75.500 E0.12673
G1 X105.837 Y75.500 E0.02365
G1 X105.837 Y78.122 E0.08224
G1 X106.591 Y78.122 E0.02365
G1 X106.591 Y75.500 E0.08224
G1 X107.346 Y75.500 E0.02365
G1 X107.346 Y78.122 E0.08224
G1 X108.100 Y78.122 E0.02365
G1 X108.100 Y75.500 E0.08224
G1 X108.854 Y75.500 E0.02365
G1 X108.854 Y104.500 E0.90929
M73 P5 R16
G1 X109.608 Y104.500 E0.02365
G1 X109.608 Y75.500 E0.90929
G1 X110.362 Y75.500 E0.02365
G1 X110.362 Y104.500 E0.90929
G1 X111.116 Y104.500 E0.02365
G1 X111.116 Y75.500 E0.90929
G1 X111.871 Y75.500 E0.02365
G1 X111.871 Y104.500 E0.90929
G1 X112.625 Y104.500 E0.02365
G1 X112.625 Y75.500 E0.90929
G1 X113.379 Y75.500 E0.02365
G1 X113.379 Y104.670 E0.91462
M204 S1250
G1 X108.100 Y104.670 F9000.000
M204 S800
G1 F1200.000
G1 X108.100 Y101.877 E0.08756
G1 X107.346 Y101.877 E0.02365
G1 X107.346 Y104.500 E0.08224
G1 X106.591 Y104.500 E0.02365
G1 X106.591 Y101.877 E0.08224
G1 X105.837 Y101.877 E0.02365
G1 X105.837 Y104.500 E0.08224
G1 X105.083 Y104.500 E0.02365
G1 X105.083 Y100.459 E0.12673
M73 P6 R16
G1 X104.329 Y100.459 E0.02365
G1 X104.329 Y104.500 E0.12673
G1 X103.575 Y104.500 E0.02365
G1 X103.575 Y100.289 E0.13205
M204 S1250
G1 E-2.24000 F4200.000
;WIPE_START
G1 F7200.000
G1 X103.575 Y101.935 E-0.91200
;WIPE_END
G1 E-0.04800 F4200.000
G1 Z0.400 F9000.000
G1 X105.375 Y99.213
G1 Z0.200
G1 E3.20000 F2400.000
M204 S800
;TYPE:Perimeter
G1 F1200.000
G1 X74.625 Y99.213 E0.96414
G1 X74.625 Y80.787 E0.57773
G1 X105.375 Y80.787 E0.96414
G1 X105.375 Y99.153 E0.57585
M204 S1250
G1 X105.752 Y99.590 F9000.000
M204 S800
;TYPE:External perimeter
G1 F1200.000
G1 X74.248 Y99.590 E0.98779
G1 X74.248 Y80.410 E0.60138
G1 X105.752 Y80.410 E0.98779
G1 X105.752 Y99.530 E0.59949
M204 S1250
M73 P7 R16
G1 X105.359 Y99.517 F9000.000
G1 E-2.24000 F4200.000
;WIPE_START
G1 F7200.000
G1 X104.106 Y99.533 E-0.91200
;WIPE_END
G1 E-0.04800 F4200.000
G1 Z0.400 F9000.000
G1 X104.495 Y80.900
G1 Z0.200
G1 E3.20000 F2400.000
M204 S800
;TYPE:Solid infill
;WIDTH:0.422105
G1 F1200.000
G1 X105.092 Y81.497 E0.02662
G1 X105.092 Y82.033 E0.01691
G1 X104.129 Y81.070 E0.04297
G1 X103.592 Y81.070 E0.01691
G1 X105.092 Y82.570 E0.06688
G1 X105.092 Y83.106 E0.01691
G1 X103.056 Y81.070 E0.09079
G1 X102.520 Y81.070 E0.01691
G1 X105.092 Y83.642 E0.11470
G1 X105.092 Y84.178 E0.01691
G1 X101.984 Y81.070 E0.13861
G1 X101.447 Y81.070 E0.01691
G1 X105.092 Y84.715 E0.16252
G1 X105.092 Y85.251 E0.01691
G1 X100.911 Y81.070 E0.18643
G1 X100.375 Y81.070 E0.01691
G1 X105.092 Y85.787 E0.21034
G1 X105.092 Y86.323 E0.01691
G1 X99.839 Y81.070 E0.23425
G1 X99.302 Y81.070 E0.01691
G1 X105.092 Y86.860 E0.25817
G1 X105.092 Y87.396 E0.01691
G1 X98.766 Y81.070 E0.28208
G1 X98.230 Y81.070 E0.01691
G1 X105.092 Y87.932 E0.30599
G1 X105.092 Y88.468 E0.01691
G1 X97.694 Y81.070 E0.32990
G1 X97.157 Y81.070 E0.01691
G1 X105.092 Y89.005 E0.35381
G1 X105.092 Y89.541 E0.01691
G1 X96.621 Y81.070 E0.37772
G1 X96.085 Y81.070 E0.01691
G1 X105.092 Y90.077 E0.40163
G1 X105.092 Y90.613 E0.01691
G1 X95.549 Y81.070 E0.42554
G1 X95.012 Y81.070 E0.01691
G1 X105.092 Y91.150 E0.44945
G1 X105.092 Y91.686 E0.01691
G1 X94.476 Y81.070 E0.47336
G1 X93.940 Y81.070 E0.01691
G1 X105.092 Y92.222 E0.49727
M73 P8 R16
G1 X105.092 Y92.758 E0.01691
G1 X93.404 Y81.070 E0.52119
G1 X92.867 Y81.070 E0.01691
G1 X105.092 Y93.295 E0.54510
G1 X105.092 Y93.831 E0.01691
G1 X92.331 Y81.070 E0.56901
G1 X91.795 Y81.070 E0.01691
G1 X105.092 Y94.367 E0.59292
M73 P8 R15
G1 X105.092 Y94.903 E0.01691
G1 X91.259 Y81.070 E0.61683
G1 X90.722 Y81.070 E0.01691
G1 X105.092 Y95.440 E0.64074
G1 X105.092 Y95.976 E0.01691
G1 X90.186 Y81.070 E0.66465
G1 X89.650 Y81.070 E0.01691
G1 X105.092 Y96.512 E0.68856
G1 X105.092 Y97.048 E0.01691
G1 X89.114 Y81.070 E0.71247
G1 X88.577 Y81.070 E0.01691
G1 X105.092 Y97.585 E0.73638
M73 P9 R15
G1 X105.092 Y98.121 E0.01691
G1 X88.041 Y81.070 E0.76029
G1 X87.505 Y81.070 E0.01691
G1 X105.092 Y98.657 E0.78421
G1 X105.092 Y98.930 E0.00861
G1 X104.829 Y98.930 E0.00830
G1 X86.969 Y81.070 E0.79637
G1 X86.432 Y81.070 E0.01691
G1 X104.293 Y98.930 E0.79637
G1 X103.756 Y98.930 E0.01691
G1 X85.896 Y81.070 E0.79637
G1 X85.360 Y81.070 E0.01691
G1 X103.220 Y98.930 E0.79637
G1 X102.684 Y98.930 E0.01691
G1 X84.824 Y81.070 E0.79637
G1 X84.287 Y81.070 E0.01691
G1 X102.148 Y98.930 E0.79637
M73 P10 R15
G1 X101.611 Y98.930 E0.01691
G1 X83.751 Y81.070 E0.79637
G1 X83.215 Y81.070 E0.01691
G1 X101.075 Y98.930 E0.79637
G1 X100.539 Y98.930 E0.01691
G1 X82.679 Y81.070 E0.79637
G1 X82.142 Y81.070 E0.01691
G1 X100.003 Y98.930 E0.79637
G1 X99.466 Y98.930 E0.01691
G1 X81.606 Y81.070 E0.79637
G1 X81.070 Y81.070 E0.01691
G1 X98.930 Y98.930 E0.79637
G1 X98.394 Y98.930 E0.01691
G1 X80.534 Y81.070 E0.79637
M73 P11 R15
G1 X79.997 Y81.070 E0.01691
G1 X97.858 Y98.930 E0.79637
G1 X97.321 Y98.930 E0.01691
G1 X79.461 Y81.070 E0.79637
G1 X78.925 Y81.070 E0.01691
G1 X96.785 Y98.930 E0.79637
G1 X96.249 Y98.930 E0.01691
G1 X78.389 Y81.070 E0.79637
G1 X77.852 Y81.070 E0.01691
G1 X95.713 Y98.930 E0.79637
G1 X95.176 Y98.930 E0.01691
G1 X77.316 Y81.070 E0.79637
G1 X76.780 Y81.070 E0.01691
G1 X94.640 Y98.930 E0.79637
G1 X94.104 Y98.930 E0.01691
G1 X76.244 Y81.070 E0.79637
M73 P12 R15
G1 X75.707 Y81.070 E0.01691
G1 X93.568 Y98.930 E0.79637
G1 X93.031 Y98.930 E0.01691
G1 X75.171 Y81.070 E0.79637
G1 X74.908 Y81.070 E0.00830
G1 X74.908 Y81.343 E0.00861
G1 X92.495 Y98.930 E0.78420
G1 X91.959 Y98.930 E0.01691
G1 X74.908 Y81.879 E0.76029
G1 X74.908 Y82.415 E0.01691
G1 X91.423 Y98.930 E0.73638
G1 X90.886 Y98.930 E0.01691
G1 X74.908 Y82.952 E0.71247
G1 X74.908 Y83.488 E0.01691
G1 X90.350 Y98.930 E0.68856
G1 X89.814 Y98.930 E0.01691
G1 X74.908 Y84.024 E0.66465
G1 X74.908 Y84.560 E0.01691
G1 X89.278 Y98.930 E0.64073
M73 P13 R15
G1 X88.741 Y98.930 E0.01691
G1 X74.908 Y85.097 E0.61682
G1 X74.908 Y85.633 E0.01691
G1 X88.205 Y98.930 E0.59291
G1 X87.669 Y98.930 E0.01691
G1 X74.908 Y86.169 E0.56900
G1 X74.908 Y86.705 E0.01691
G1 X87.133 Y98.930 E0.54509
G1 X86.596 Y98.930 E0.01691
G1 X74.908 Y87.242 E0.52118
G1 X74.908 Y87.778 E0.01691
G1 X86.060 Y98.930 E0.49727
G1 X85.524 Y98.930 E0.01691
G1 X74.908 Y88.314 E0.47336
G1 X74.908 Y88.850 E0.01691
G1 X84.988 Y98.930 E0.44945
G1 X84.451 Y98.930 E0.01691
G1 X74.908 Y89.387 E0.42554
G1 X74.908 Y89.923 E0.01691
G1 X83.915 Y98.930 E0.40163
G1 X83.379 Y98.930 E0.01691
G1 X74.908 Y90.459 E0.37771
G1 X74.908 Y90.995 E0.01691
M73 P14 R15
G1 X82.843 Y98.930 E0.35380
G1 X82.306 Y98.930 E0.01691
G1 X74.908 Y91.532 E0.32989
G1 X74.908 Y92.068 E0.01691
G1 X81.770 Y98.930 E0.30598
G1 X81.234 Y98.930 E0.01691
G1 X74.908 Y92.604 E0.28207
G1 X74.908 Y93.140 E0.01691
G1 X80.698 Y98.930 E0.25816
G1 X80.161 Y98.930 E0.01691
G1 X74.908 Y93.677 E0.23425
G1 X74.908 Y94.213 E0.01691
G1 X79.625 Y98.930 E0.21034
M73 P14 R14
G1 X79.089 Y98.930 E0.01691
G1 X74.908 Y94.749 E0.18643
G1 X74.908 Y95.285 E0.01691
G1 X78.553 Y98.930 E0.16252
G1 X78.016 Y98.930 E0.01691
G1 X74.908 Y95.822 E0.13861
G1 X74.908 Y96.358 E0.01691
G1 X77.480 Y98.930 E0.11469
G1 X76.944 Y98.930 E0.01691
G1 X74.908 Y96.894 E0.09078
G1 X74.908 Y97.430 E0.01691
G1 X76.408 Y98.930 E0.06687
G1 X75.871 Y98.930 E0.01691
G1 X74.908 Y97.967 E0.04296
G1 X74.908 Y98.503 E0.01691
G1 X75.505 Y99.100 E0.02662
M204 S1250
; stop printing object support.stl id:0 copy 0
M106 S84.15
;LAYER_CHANGE
;Z:0.3
;HEIGHT:0.1
;BEFORE_LAYER_CHANGE
G92 E0.0
;0.3


G1 E-2.24000 F4200.000
;WIPE_START
G1 F7200.000
G1 X74.908 Y98.503 E-0.46783
G1 X74.908 Y97.967 E-0.29717
G1 X75.095 Y98.154 E-0.14700
;WIPE_END
G1 E-0.04800 F4200.000
G1 Z0.400 F9000.000
;AFTER_LAYER_CHANGE
;0.3
M104 S210 ; set temperature
; printing object support.stl id:0 copy 0
G1 X73.773 Y101.674
G1 Z0.300
G1 E3.20000 F2400.000
;TYPE:Support material interface
;WIDTH:0.35
G1 F900
G1 X73.773 Y100.424 E0.01707
G1 X73.266 Y100.424 E0.00693
G1 X73.266 Y101.535 E0.01519
G1 X72.759 Y101.535 E0.00693
G1 X72.759 Y100.393 E0.01560
G1 X72.405 Y100.393 E0.00484
G1 X72.252 Y100.241 E0.00295
G1 X72.252 Y101.535 E0.01768
G1 X71.745 Y101.535 E0.00693
G1 X71.745 Y78.465 E0.31513
G1 X72.252 Y78.465 E0.00693
G1 X72.252 Y79.759 E0.01768
G1 X72.405 Y79.607 E0.00295
G1 X72.759 Y79.607 E0.00484
G1 X72.759 Y78.465 E0.01560
G1 X73.266 Y78.465 E0.00693
G1 X73.266 Y79.576 E0.01519
G1 X73.773 Y79.576 E0.00693
G1 X73.773 Y78.326 E0.01708
G1 E-2.24000 F4200.000
;WIPE_START
G1 F7200.000
G1 X73.773 Y79.576 E-0.69275
G1 X73.378 Y79.576 E-0.21925
;WIPE_END
G1 E-0.04800 F4200.000
G1 Z0.500 F9000.000
G1 X71.374 Y78.465
G1 Z0.300
G1 E3.20000 F2400.000
;TYPE:Support material
G1 F900
G1 X69.236 Y78.465 E0.02921
G1 X69.236 Y80.772 E0.03151
G1 X71.236 Y80.772 E0.02732
G1 X71.236 Y83.079 E0.03151
G1 X69.236 Y83.079 E0.02732
G1 X69.236 Y85.386 E0.03151
G1 X71.236 Y85.386 E0.02732
G1 X71.236 Y87.693 E0.03151
G1 X69.236 Y87.693 E0.02732
G1 X69.236 Y90.000 E0.03151
G1 X71.236 Y90.000 E0.02732
G1 X71.236 Y92.307 E0.03151
G1 X69.236 Y92.307 E0.02732
M73 P15 R14
G1 X69.236 Y94.614 E0.03151
G1 X71.236 Y94.614 E0.02732
G1 X71.236 Y96.921 E0.03151
G1 X69.236 Y96.921 E0.02732
G1 X69.236 Y99.228 E0.03151
G1 X71.236 Y99.228 E0.02732
G1 X71.236 Y101.535 E0.03151
G1 X69.098 Y101.535 E0.02921
G1 E-2.24000 F4200.000
;WIPE_START
G1 F7200.000
G1 X70.744 Y101.535 E-0.91200
;WIPE_END
G1 E-0.04800 F4200.000
G1 Z0.500 F9000.000
G1 X107.748 Y101.674
G1 Z0.300
G1 E3.20000 F2400.000
;TYPE:Support material interface
G1 F900
G1 X107.748 Y100.241 E0.01957
G1 X107.595 Y100.393 E0.00295
G1 X107.241 Y100.393 E0.00484
G1 X107.241 Y101.535 E0.01560
G1 X106.734 Y101.535 E0.00693
G1 X106.734 Y100.424 E0.01519
G1 X106.227 Y100.424 E0.00693
