; generated by PrusaSlicer 2.3.3+win64 on 2022-06-14 at 12:14:59 UTC


;
;

;
;
; 

; external perimeters extrusion width = 0.45mm
; perimeters extrusion width = 0.45mm
; infill extrusion width = 0.45mm
; solid infill extrusion width = 0.45mm
; top infill extrusion width = 0.40mm
; support material extrusion width = 0.35mm
; first layer extrusion width = 0.42mm

M73 P0 R48
M201 X1250 Y1250 Z400 E5000 ; sets maximum accelerations, mm/sec^2
M203 X180 Y180 Z12 E80 ; sets maximum feedrates, mm/sec
M204 P1250 R1250 T1250 ; sets acceleration (P, T) and retract acceleration (R), mm/sec^2
M205 X8.00 Y8.00 Z2.00 E10.00 ; sets the jerk limits, mm/sec
M205 S0 T0 ; sets the minimum extruding and travel feed rate, mm/sec
M107
;TYPE:Custom
G90 ; use absolute coordinates
M83 ; extruder relative mode
M104 S170 ; set extruder temp for bed leveling
M140 S60 ; set bed temp
M109 R170 ; wait for bed leveling temp
M190 S60 ; wait for bed temp
G28 ; home all without mesh bed level
G29 ; mesh bed leveling 
M104 S215 ; set extruder temp
G92 E0.0
G1 Y-2.0 X179 F2400
G1 Z3 F720
M109 S215 ; wait for extruder temp

; intro line
G1 X170 F1000
G1 Z0.2 F720
G1 X110.0 E8.0 F900
G1 X40.0 E10.0 F700
G92 E0.0

M221 S95 ; set flow
G21 ; set units to millimeters
G90 ; use absolute coordinates
M83 ; use relative distances for extrusion
M900 K0.2 ; Filament gcode LA 1.5
; ; Filament gcode LA 1.0
;LAYER_CHANGE
;Z:0.2
;HEIGHT:0.2
;BEFORE_LAYER_CHANGE
G92 E0.0
;0.2


G1 E-3.20000 F4200.000
G1 Z0.200 F9000.000
;AFTER_LAYER_CHANGE
;0.2
G1 Z0.400
G1 X61.488 Y67.752
G1 Z0.200
G1 E3.20000 F2400.000
M204 S800
;TYPE:Skirt
;WIDTH:0.42
G1 F1200.000
G1 X62.240 Y67.623 E0.02390
G1 X117.744 Y67.623 E1.74029
G1 X118.632 Y67.797 E0.02837
G1 X119.393 Y68.292 E0.02849
G1 X119.913 Y69.037 E0.02849
G1 X120.116 Y69.923 E0.02849
G1 X120.116 Y110.053 E1.25827
G1 X120.045 Y110.581 E0.01668
G1 X119.858 Y111.079 E0.01668
G1 X119.567 Y111.520 E0.01657
G1 X119.184 Y111.889 E0.01668
G1 X118.512 Y112.248 E0.02390
G1 X117.760 Y112.377 E0.02390
G1 X62.241 Y112.377 E1.74076
G1 X61.705 Y112.311 E0.01692
G1 X61.198 Y112.127 E0.01692
G1 X60.746 Y111.832 E0.01692
G1 X60.371 Y111.444 E0.01692
G1 X60.013 Y110.775 E0.02378
G1 X59.883 Y110.028 E0.02378
G1 X59.883 Y69.973 E1.25588
G1 X59.949 Y69.442 E0.01680
G1 X60.135 Y68.935 E0.01692
G1 X60.428 Y68.486 E0.01680
G1 X60.816 Y68.111 E0.01692
G1 X61.436 Y67.780 E0.02202
M204 S1250
; printing object track_mid_frame.stl id:0 copy 0
G1 E-2.24000 F4200.000
;WIPE_START
G1 F7200.000
G1 X62.240 Y67.623 E-0.45411
G1 X63.066 Y67.623 E-0.45789
;WIPE_END
G1 E-0.04800 F4200.000
G1 Z0.400 F9000.000
G1 X99.590 Y98.713
G1 Z0.200
G1 E3.20000 F2400.000
M204 S800
;TYPE:Perimeter
G1 F1200.000
G1 X107.164 Y98.713 E0.23748
G1 X107.164 Y106.287 E0.23748
G1 X99.590 Y106.287 E0.23748
G1 X99.590 Y98.773 E0.23560
M204 S1250
M73 P1 R48
G1 X99.967 Y99.090 F9000.000
M204 S800
;TYPE:External perimeter
G1 F1200.000
G1 X106.787 Y99.090 E0.21384
M73 P1 R47
G1 X106.787 Y105.910 E0.21384
G1 X99.967 Y105.910 E0.21384
G1 X99.967 Y99.150 E0.21196
M204 S1250
G1 X99.863 Y98.704 F9000.000
G1 E-2.24000 F4200.000
;WIPE_START
G1 F7200.000
G1 X101.613 Y99.136 E-0.91200
;WIPE_END
G1 E-0.04800 F4200.000
G1 Z0.400 F9000.000
G1 X99.590 Y73.713
G1 Z0.200
G1 E3.20000 F2400.000
M204 S800
;TYPE:Perimeter
G1 F1200.000
G1 X107.164 Y73.713 E0.23748
G1 X107.164 Y81.287 E0.23748
G1 X99.590 Y81.287 E0.23748
G1 X99.590 Y73.773 E0.23560
M204 S1250
G1 X99.967 Y74.090 F9000.000
M204 S800
;TYPE:External perimeter
G1 F1200.000
G1 X106.787 Y74.090 E0.21384
G1 X106.787 Y80.910 E0.21384
G1 X99.967 Y80.910 E0.21384
G1 X99.967 Y74.150 E0.21196
M204 S1250
G1 X99.863 Y73.704 F9000.000
G1 E-2.24000 F4200.000
;WIPE_START
G1 F7200.000
G1 X101.613 Y74.136 E-0.91200
;WIPE_END
G1 E-0.04800 F4200.000
G1 Z0.400 F9000.000
G1 X72.836 Y73.713
G1 Z0.200
G1 E3.20000 F2400.000
M204 S800
;TYPE:Perimeter
G1 F1200.000
G1 X80.410 Y73.713 E0.23748
G1 X80.410 Y81.287 E0.23748
G1 X72.836 Y81.287 E0.23748
G1 X72.836 Y73.773 E0.23560
M204 S1250
G1 X73.213 Y74.090 F9000.000
M204 S800
;TYPE:External perimeter
G1 F1200.000
G1 X80.033 Y74.090 E0.21384
G1 X80.033 Y80.910 E0.21384
G1 X73.213 Y80.910 E0.21384
G1 X73.213 Y74.150 E0.21196
M204 S1250
G1 X73.109 Y73.704 F9000.000
G1 E-2.24000 F4200.000
;WIPE_START
G1 F7200.000
G1 X74.859 Y74.136 E-0.91200
;WIPE_END
G1 E-0.04800 F4200.000
G1 Z0.400 F9000.000
G1 X72.836 Y98.713
G1 Z0.200
G1 E3.20000 F2400.000
M204 S800
;TYPE:Perimeter
G1 F1200.000
G1 X80.410 Y98.713 E0.23748
G1 X80.410 Y106.287 E0.23748
G1 X72.836 Y106.287 E0.23748
G1 X72.836 Y98.773 E0.23560
M204 S1250
G1 X73.213 Y99.090 F9000.000
M204 S800
;TYPE:External perimeter
G1 F1200.000
G1 X80.033 Y99.090 E0.21384
G1 X80.033 Y105.910 E0.21384
G1 X73.213 Y105.910 E0.21384
G1 X73.213 Y99.150 E0.21196
M204 S1250
G1 X73.109 Y98.704 F9000.000
G1 E-2.24000 F4200.000
;WIPE_START
G1 F7200.000
G1 X74.859 Y99.136 E-0.91200
;WIPE_END
G1 E-0.04800 F4200.000
G1 Z0.400 F9000.000
G1 X64.102 Y109.251
G1 Z0.200
G1 E3.20000 F2400.000
M204 S800
;TYPE:Perimeter
G1 F1200.000
G1 X64.412 Y108.960 E0.01331
G1 X64.957 Y108.386 E0.02483
G1 X65.948 Y107.197 E0.04853
G1 X66.871 Y105.958 E0.04844
G1 X67.722 Y104.668 E0.04845
G1 X68.501 Y103.334 E0.04845
G1 X69.205 Y101.959 E0.04844
G1 X69.830 Y100.546 E0.04846
G1 X70.377 Y99.101 E0.04844
G1 X70.842 Y97.627 E0.04845
G1 X71.225 Y96.131 E0.04843
G1 X71.523 Y94.615 E0.04845
G1 X71.737 Y93.085 E0.04844
G1 X71.867 Y91.545 E0.04845
G1 X71.909 Y90.000 E0.04845
G1 X71.867 Y88.455 E0.04845
G1 X71.737 Y86.915 E0.04845
G1 X71.523 Y85.385 E0.04844
G1 X71.225 Y83.869 E0.04845
G1 X70.842 Y82.373 E0.04843
G1 X70.377 Y80.899 E0.04845
G1 X69.830 Y79.454 E0.04844
G1 X69.205 Y78.041 E0.04846
G1 X68.501 Y76.666 E0.04844
G1 X67.722 Y75.332 E0.04845
G1 X66.871 Y74.042 E0.04845
G1 X65.948 Y72.803 E0.04844
G1 X64.957 Y71.614 E0.04853
G1 X64.412 Y71.040 E0.02483
G1 X64.091 Y70.741 E0.01375
G1 X65.251 Y70.787 E0.03639
G1 X114.749 Y70.787 E1.55201
G1 X115.908 Y70.741 E0.03636
G1 X115.588 Y71.040 E0.01375
G1 X115.043 Y71.614 E0.02482
G1 X114.052 Y72.803 E0.04852
G1 X113.129 Y74.042 E0.04844
G1 X112.278 Y75.332 E0.04845
G1 X111.499 Y76.666 E0.04845
G1 X110.795 Y78.041 E0.04844
G1 X110.170 Y79.454 E0.04846
G1 X109.623 Y80.899 E0.04844
G1 X109.158 Y82.373 E0.04845
G1 X108.775 Y83.869 E0.04843
G1 X108.477 Y85.385 E0.04845
G1 X108.263 Y86.915 E0.04844
G1 X108.133 Y88.455 E0.04845
G1 X108.091 Y90.000 E0.04845
G1 X108.133 Y91.545 E0.04845
G1 X108.263 Y93.085 E0.04845
G1 X108.477 Y94.615 E0.04844
G1 X108.775 Y96.131 E0.04845
G1 X109.158 Y97.627 E0.04843
G1 X109.623 Y99.101 E0.04845
G1 X110.170 Y100.546 E0.04844
G1 X110.795 Y101.959 E0.04846
G1 X111.499 Y103.334 E0.04844
G1 X112.278 Y104.668 E0.04845
G1 X113.129 Y105.958 E0.04845
G1 X114.052 Y107.197 E0.04844
G1 X115.043 Y108.386 E0.04853
G1 X115.588 Y108.960 E0.02483
G1 X115.909 Y109.259 E0.01375
G1 X115.257 Y109.217 E0.02050
G1 X114.243 Y109.213 E0.03179
G1 X65.251 Y109.213 E1.53611
G1 X64.136 Y109.253 E0.03496
M204 S1250
G1 X62.783 Y109.790 F9000.000
M204 S800
;TYPE:External perimeter
G1 F1200.000
G1 X63.198 Y109.392 E0.01805
G1 X63.531 Y109.210 E0.01190
G1 X63.859 Y108.962 E0.01288
G1 X64.146 Y108.693 E0.01234
G1 X64.675 Y108.135 E0.02411
G1 X65.652 Y106.964 E0.04782
G1 X66.562 Y105.741 E0.04778
G1 X67.401 Y104.469 E0.04779
G1 X68.170 Y103.153 E0.04779
G1 X68.864 Y101.797 E0.04778
G1 X69.481 Y100.403 E0.04780
G1 X70.021 Y98.977 E0.04778
G1 X70.479 Y97.524 E0.04780
G1 X70.857 Y96.047 E0.04777
G1 X71.151 Y94.552 E0.04779
G1 X71.363 Y93.043 E0.04779
G1 X71.491 Y91.524 E0.04779
G1 X71.532 Y90.000 E0.04780
G1 X71.491 Y88.476 E0.04780
G1 X71.363 Y86.957 E0.04779
G1 X71.151 Y85.448 E0.04779
G1 X70.857 Y83.953 E0.04779
G1 X70.479 Y82.476 E0.04777
G1 X70.021 Y81.023 E0.04780
G1 X69.481 Y79.597 E0.04778
G1 X68.864 Y78.203 E0.04780
G1 X68.170 Y76.847 E0.04778
G1 X67.401 Y75.531 E0.04779
G1 X66.562 Y74.259 E0.04779
G1 X65.652 Y73.036 E0.04778
G1 X64.675 Y71.865 E0.04782
G1 X64.146 Y71.307 E0.02411
G1 X63.859 Y71.038 E0.01234
G1 X63.531 Y70.790 E0.01288
G1 X63.198 Y70.608 E0.01190
G1 X62.783 Y70.210 E0.01805
G1 X63.238 Y70.210 E0.01429
G1 X63.724 Y70.310 E0.01555
G1 X64.242 Y70.381 E0.01639
G1 X65.256 Y70.410 E0.03181
G1 X114.744 Y70.410 E1.55167
G1 X115.758 Y70.381 E0.03181
G1 X116.276 Y70.310 E0.01639
G1 X116.762 Y70.210 E0.01555
G1 X117.217 Y70.210 E0.01429
G1 X116.895 Y70.519 E0.01401
G1 X116.457 Y70.789 E0.01612
G1 X116.139 Y71.039 E0.01268
G1 X115.854 Y71.307 E0.01227
G1 X115.325 Y71.865 E0.02411
G1 X114.348 Y73.036 E0.04782
G1 X113.438 Y74.259 E0.04778
G1 X112.599 Y75.531 E0.04779
G1 X111.830 Y76.847 E0.04779
G1 X111.136 Y78.203 E0.04778
G1 X110.519 Y79.597 E0.04780
G1 X109.979 Y81.023 E0.04778
G1 X109.521 Y82.476 E0.04780
G1 X109.143 Y83.953 E0.04777
G1 X108.849 Y85.448 E0.04779
G1 X108.637 Y86.957 E0.04779
G1 X108.509 Y88.476 E0.04779
G1 X108.468 Y90.000 E0.04780
G1 X108.509 Y91.524 E0.04780
G1 X108.637 Y93.043 E0.04779
G1 X108.849 Y94.552 E0.04779
G1 X109.143 Y96.047 E0.04779
M73 P2 R47
G1 X109.521 Y97.524 E0.04777
G1 X109.979 Y98.977 E0.04780
G1 X110.519 Y100.403 E0.04778
G1 X111.136 Y101.797 E0.04780
G1 X111.830 Y103.153 E0.04778
G1 X112.599 Y104.469 E0.04779
G1 X113.438 Y105.741 E0.04779
G1 X114.348 Y106.964 E0.04778
G1 X115.325 Y108.135 E0.04782
G1 X115.854 Y108.693 E0.02411
G1 X116.141 Y108.962 E0.01234
G1 X116.469 Y109.210 E0.01288
G1 X116.802 Y109.392 E0.01190
G1 X117.217 Y109.790 E0.01805
G1 X116.762 Y109.790 E0.01429
G1 X116.276 Y109.690 E0.01555
G1 X115.760 Y109.620 E0.01632
G1 X115.247 Y109.594 E0.01612
G1 X114.242 Y109.590 E0.03150
G1 X65.256 Y109.590 E1.53592
G1 X64.242 Y109.619 E0.03181
G1 X63.724 Y109.690 E0.01639
G1 X63.238 Y109.790 E0.01555
G1 X62.843 Y109.790 E0.01241
M204 S1250
G1 X63.125 Y109.583 F9000.000
G1 X63.336 Y109.556
M204 S800
;TYPE:Gap fill
;WIDTH:0.142041
G1 F1200.000
G1 X63.503 Y109.495 E0.00146
M204 S1250
M204 S800
;WIDTH:0.196094
G1 X63.916 Y109.330 E0.00566
M204 S1250
G1 E-2.24000 F4200.000
;WIPE_START
G1 F7200.000
G1 X63.503 Y109.495 E-0.24647
;WIPE_END
G1 E-0.71353 F4200.000
G1 Z0.400 F9000.000
G1 X63.916 Y70.670
G1 Z0.200
G1 E3.20000 F2400.000
M204 S800
;WIDTH:0.196094
G1 F1200.000
G1 X63.503 Y70.505 E0.00566
M204 S1250
M204 S800
;WIDTH:0.142041
G1 X63.336 Y70.444 E0.00146
M204 S1250
G1 E-2.24000 F4200.000
;WIPE_START
G1 F7200.000
G1 X63.503 Y70.505 E-0.09822
;WIPE_END
G1 E-0.86178 F4200.000
G1 Z0.400 F9000.000
G1 X114.891 Y70.894
G1 Z0.200
G1 E3.20000 F2400.000
M204 S800
;TYPE:Solid infill
;WIDTH:0.420015
G1 F1200.000
G1 X115.119 Y71.123 E0.01013
G1 X114.860 Y71.397 E0.01183
G1 X114.533 Y71.070 E0.01450
G1 X113.999 Y71.070 E0.01672
G1 X114.615 Y71.686 E0.02731
G1 X114.373 Y71.976 E0.01187
G1 X113.466 Y71.070 E0.04020
G1 X112.933 Y71.070 E0.01672
G1 X114.130 Y72.267 E0.05309
G1 X113.888 Y72.558 E0.01187
G1 X112.400 Y71.070 E0.06599
G1 X111.866 Y71.070 E0.01672
G1 X113.657 Y72.860 E0.07938
G1 X113.429 Y73.166 E0.01195
G1 X111.333 Y71.070 E0.09294
G1 X110.800 Y71.070 E0.01672
G1 X113.201 Y73.471 E0.10650
G1 X112.974 Y73.777 E0.01195
G1 X110.266 Y71.070 E0.12006
G1 X109.733 Y71.070 E0.01672
G1 X112.757 Y74.093 E0.13407
G1 X112.545 Y74.414 E0.01207
G1 X109.200 Y71.070 E0.14832
G1 X108.667 Y71.070 E0.01672
G1 X112.333 Y74.736 E0.16257
G1 X112.121 Y75.057 E0.01207
G1 X108.133 Y71.070 E0.17681
G1 X107.600 Y71.070 E0.01672
G1 X111.918 Y75.388 E0.19148
G1 X111.721 Y75.724 E0.01223
G1 X107.067 Y71.070 E0.20641
G1 X106.533 Y71.070 E0.01672
G1 X111.525 Y76.061 E0.22134
G1 X111.328 Y76.398 E0.01223
G1 X106.000 Y71.070 E0.23627
G1 X105.467 Y71.070 E0.01672
G1 X111.141 Y76.744 E0.25164
G1 X110.961 Y77.097 E0.01242
G1 X104.933 Y71.070 E0.26728
G1 X104.400 Y71.070 E0.01672
G1 X106.761 Y73.430 E0.10467
G1 X106.227 Y73.430 E0.01672
G1 X103.867 Y71.070 E0.10467
G1 X103.334 Y71.070 E0.01672
G1 X105.694 Y73.430 E0.10467
G1 X105.161 Y73.430 E0.01672
G1 X102.800 Y71.070 E0.10467
G1 X102.267 Y71.070 E0.01672
G1 X104.628 Y73.430 E0.10467
G1 X104.094 Y73.430 E0.01672
G1 X101.734 Y71.070 E0.10467
G1 X101.200 Y71.070 E0.01672
G1 X103.561 Y73.430 E0.10467
G1 X103.028 Y73.430 E0.01672
G1 X100.667 Y71.070 E0.10467
G1 X100.134 Y71.070 E0.01672
G1 X102.494 Y73.430 E0.10467
G1 X101.961 Y73.430 E0.01672
G1 X99.601 Y71.070 E0.10467
G1 X99.067 Y71.070 E0.01672
G1 X101.428 Y73.430 E0.10467
G1 X100.894 Y73.430 E0.01672
G1 X98.534 Y71.070 E0.10467
G1 X98.001 Y71.070 E0.01672
G1 X100.361 Y73.430 E0.10467
G1 X99.828 Y73.430 E0.01672
G1 X97.467 Y71.070 E0.10467
G1 X96.934 Y71.070 E0.01672
G1 X99.307 Y73.443 E0.10523
G1 X99.307 Y73.976 E0.01672
G1 X96.401 Y71.070 E0.12888
G1 X95.868 Y71.070 E0.01672
G1 X99.307 Y74.509 E0.15252
G1 X99.307 Y75.043 E0.01672
G1 X95.334 Y71.070 E0.17617
G1 X94.801 Y71.070 E0.01672
G1 X99.307 Y75.576 E0.19982
G1 X99.307 Y76.109 E0.01672
G1 X94.268 Y71.070 E0.22347
G1 X93.734 Y71.070 E0.01672
G1 X99.307 Y76.642 E0.24712
G1 X99.307 Y77.176 E0.01672
G1 X93.201 Y71.070 E0.27077
G1 X92.668 Y71.070 E0.01672
G1 X99.307 Y77.709 E0.29441
G1 X99.307 Y78.242 E0.01672
G1 X92.134 Y71.070 E0.31806
G1 X91.601 Y71.070 E0.01672
G1 X99.307 Y78.776 E0.34171
G1 X99.307 Y79.309 E0.01672
G1 X91.068 Y71.070 E0.36536
G1 X90.535 Y71.070 E0.01672
G1 X99.307 Y79.842 E0.38901
G1 X99.307 Y80.375 E0.01672
G1 X90.001 Y71.070 E0.41265
G1 X89.468 Y71.070 E0.01672
G1 X99.477 Y81.078 E0.44383
M204 S1250
G1 E-2.24000 F4200.000
;WIPE_START
G1 F7200.000
G1 X98.313 Y79.915 E-0.91200
;WIPE_END
G1 E-0.04800 F4200.000
G1 Z0.400 F9000.000
G1 X107.277 Y73.947
G1 Z0.200
G1 E3.20000 F2400.000
M204 S800
G1 F1200.000
G1 X110.780 Y77.450 E0.15534
G1 X110.600 Y77.802 E0.01242
G1 X107.447 Y74.650 E0.13981
G1 X107.447 Y75.183 E0.01672
G1 X110.430 Y78.166 E0.13230
G1 X110.267 Y78.536 E0.01268
G1 X107.447 Y75.716 E0.12505
G1 X107.447 Y76.249 E0.01672
G1 X110.103 Y78.906 E0.11779
G1 X109.939 Y79.275 E0.01268
G1 X107.447 Y76.783 E0.11053
G1 X107.447 Y77.316 E0.01672
G1 X109.790 Y79.659 E0.10389
G1 X109.643 Y80.046 E0.01297
G1 X107.447 Y77.849 E0.09740
G1 X107.447 Y78.383 E0.01672
G1 X109.497 Y80.433 E0.09091
G1 X109.351 Y80.820 E0.01298
G1 X107.447 Y78.916 E0.08445
G1 X107.447 Y79.449 E0.01672
G1 X109.223 Y81.226 E0.07878
G1 X109.095 Y81.631 E0.01333
G1 X107.447 Y79.983 E0.07310
G1 X107.447 Y80.516 E0.01672
G1 X108.968 Y82.036 E0.06743
G1 X108.847 Y82.449 E0.01347
G1 X107.447 Y81.049 E0.06207
G1 X107.447 Y81.570 E0.01633
G1 X107.434 Y81.570 E0.00039
G1 X108.738 Y82.873 E0.05780
G1 X108.629 Y83.298 E0.01374
G1 X106.901 Y81.570 E0.07663
G1 X106.368 Y81.570 E0.01672
G1 X108.521 Y83.723 E0.09546
G1 X108.429 Y84.164 E0.01414
G1 X105.834 Y81.570 E0.11504
G1 X105.301 Y81.570 E0.01672
G1 X108.341 Y84.610 E0.13480
G1 X108.253 Y85.055 E0.01424
G1 X104.768 Y81.570 E0.15455
G1 X104.235 Y81.570 E0.01672
G1 X108.174 Y85.509 E0.17467
G1 X108.108 Y85.977 E0.01481
G1 X103.701 Y81.570 E0.19542
G1 X103.168 Y81.570 E0.01672
G1 X108.043 Y86.445 E0.21617
G1 X107.979 Y86.914 E0.01485
G1 X102.635 Y81.570 E0.23698
G1 X102.101 Y81.570 E0.01672
G1 X107.937 Y87.406 E0.25879
G1 X107.896 Y87.898 E0.01548
G1 X101.568 Y81.570 E0.28060
G1 X101.035 Y81.570 E0.01672
G1 X107.855 Y88.390 E0.30241
G1 X107.838 Y88.906 E0.01620
G1 X100.502 Y81.570 E0.32531
G1 X99.968 Y81.570 E0.01672
G1 X107.823 Y89.425 E0.34833
G1 X107.809 Y89.944 E0.01628
G1 X88.935 Y71.070 E0.83696
M73 P3 R47
G1 X88.401 Y71.070 E0.01672
G1 X107.821 Y90.489 E0.86114
G1 X107.836 Y91.038 E0.01720
G1 X87.868 Y71.070 E0.88545
M73 P3 R46
G1 X87.335 Y71.070 E0.01672
G1 X107.853 Y91.587 E0.90983
G1 X107.902 Y92.170 E0.01832
G1 X86.802 Y71.070 E0.93565
G1 X86.268 Y71.070 E0.01672
G1 X107.951 Y92.752 E0.96148
G1 X108.014 Y93.349 E0.01881
G1 X85.735 Y71.070 E0.98793
G1 X85.202 Y71.070 E0.01672
G1 X108.101 Y93.969 E1.01542
G1 X108.187 Y94.589 E0.01963
G1 X84.668 Y71.070 E1.04291
G1 X84.135 Y71.070 E0.01672
G1 X108.313 Y95.247 E1.07213
G1 X108.444 Y95.911 E0.02122
G1 X83.602 Y71.070 E1.10157
G1 X83.068 Y71.070 E0.01672
G1 X108.605 Y96.606 E1.13236
G1 X108.788 Y97.322 E0.02319
G1 X82.535 Y71.070 E1.16414
G1 X82.002 Y71.070 E0.01672
G1 X109.001 Y98.068 E1.19722
G1 X109.247 Y98.848 E0.02562
