; generated by PrusaSlicer 2.3.3+win64 on 2022-06-14 at 12:13:15 UTC


;
;

;
;
; 

; external perimeters extrusion width = 0.45mm
; perimeters extrusion width = 0.45mm
; infill extrusion width = 0.45mm
; solid infill extrusion width = 0.45mm
; top infill extrusion width = 0.40mm
; support material extrusion width = 0.35mm
; first layer extrusion width = 0.42mm

M73 P0 R91
M201 X1250 Y1250 Z400 E5000 ; sets maximum accelerations, mm/sec^2
M203 X180 Y180 Z12 E80 ; sets maximum feedrates, mm/sec
M204 P1250 R1250 T1250 ; sets acceleration (P, T) and retract acceleration (R), mm/sec^2
M205 X8.00 Y8.00 Z2.00 E10.00 ; sets the jerk limits, mm/sec
M205 S0 T0 ; sets the minimum extruding and travel feed rate, mm/sec
M107
;TYPE:Custom
G90 ; use absolute coordinates
M83 ; extruder relative mode
M104 S170 ; set extruder temp for bed leveling
M140 S60 ; set bed temp
M109 R170 ; wait for bed leveling temp
M190 S60 ; wait for bed temp
G28 ; home all without mesh bed level
G29 ; mesh bed leveling 
M104 S215 ; set extruder temp
G92 E0.0
G1 Y-2.0 X179 F2400
G1 Z3 F720
M109 S215 ; wait for extruder temp

; intro line
G1 X170 F1000
G1 Z0.2 F720
G1 X110.0 E8.0 F900
G1 X40.0 E10.0 F700
G92 E0.0

M221 S95 ; set flow
G21 ; set units to millimeters
G90 ; use absolute coordinates
M83 ; use relative distances for extrusion
M900 K0.2 ; Filament gcode LA 1.5
; ; Filament gcode LA 1.0
;LAYER_CHANGE
;Z:0.2
;HEIGHT:0.2
;BEFORE_LAYER_CHANGE
G92 E0.0
;0.2


G1 E-3.20000 F4200.000
G1 Z0.200 F9000.000
;AFTER_LAYER_CHANGE
;0.2
G1 Z0.400
G1 X36.531 Y74.566
G1 Z0.200
G1 E3.20000 F2400.000
M204 S800
;TYPE:Skirt
;WIDTH:0.42
G1 F1200.000
G1 X36.934 Y73.927 E0.02367
G1 X37.514 Y73.450 E0.02355
G1 X54.330 Y64.105 E0.60320
G1 X54.803 Y63.949 E0.01562
G1 X55.298 Y63.894 E0.01561
G1 X92.255 Y63.725 E1.15879
G1 X129.220 Y63.725 E1.15900
G1 X141.605 Y63.916 E0.38836
G1 X142.282 Y64.115 E0.02213
G1 X142.869 Y64.501 E0.02201
G1 X143.319 Y65.044 E0.02213
G1 X143.589 Y65.696 E0.02213
G1 X143.660 Y66.269 E0.01811
G1 X143.659 Y113.959 E1.49528
G1 X143.549 Y114.615 E0.02083
G1 X143.263 Y115.214 E0.02083
G1 X142.824 Y115.708 E0.02071
G1 X142.263 Y116.064 E0.02083
G1 X141.783 Y116.222 E0.01585
G1 X141.283 Y116.275 E0.01577
G1 X61.338 Y116.275 E2.50661
G1 X55.075 Y116.094 E0.19647
G1 X54.191 Y115.826 E0.02896
G1 X37.551 Y106.742 E0.59441
G1 X36.963 Y106.274 E0.02355
G1 X36.552 Y105.651 E0.02343
G1 X36.393 Y105.171 E0.01585
G1 X36.340 Y104.670 E0.01578
G1 X36.340 Y75.484 E0.91509
G1 X36.519 Y74.624 E0.02754
M204 S1250
; printing object track.stl id:0 copy 0
G1 E-2.24000 F4200.000
;WIPE_START
G1 F7200.000
G1 X36.934 Y73.927 E-0.44957
G1 X37.514 Y73.450 E-0.41619
G1 X37.587 Y73.409 E-0.04624
;WIPE_END
G1 E-0.04800 F4200.000
G1 Z0.400 F9000.000
G1 X49.275 Y75.330
G1 Z0.200
G1 E3.20000 F2400.000
M204 S800
;TYPE:Support material
G1 F1200.000
G1 X49.275 Y79.291 E0.12421
G1 X48.521 Y79.291 E0.02365
G1 X48.521 Y75.500 E0.11889
G1 X47.767 Y75.500 E0.02365
G1 X47.767 Y79.291 E0.11889
G1 X47.013 Y79.291 E0.02365
G1 X47.013 Y75.500 E0.11889
G1 X46.259 Y75.500 E0.02365
G1 X46.259 Y79.291 E0.11889
G1 X45.505 Y79.291 E0.02365
G1 X45.505 Y75.500 E0.11889
G1 X44.750 Y75.500 E0.02365
G1 X44.750 Y104.500 E0.90929
G1 X45.505 Y104.500 E0.02365
G1 X45.505 Y100.709 E0.11889
G1 X46.259 Y100.709 E0.02365
G1 X46.259 Y104.500 E0.11889
G1 X47.013 Y104.500 E0.02365
G1 X47.013 Y100.709 E0.11889
G1 X47.767 Y100.709 E0.02365
G1 X47.767 Y104.500 E0.11889
G1 X48.521 Y104.500 E0.02365
G1 X48.521 Y100.709 E0.11889
G1 X49.275 Y100.709 E0.02365
G1 X49.275 Y104.670 E0.12421
M204 S1250
G1 X43.996 Y104.670 F9000.000
M204 S800
G1 F1200.000
G1 X43.996 Y75.500 E0.91462
G1 X43.242 Y75.500 E0.02365
G1 X43.242 Y104.500 E0.90929
G1 X42.488 Y104.500 E0.02365
G1 X42.488 Y75.500 E0.90929
G1 X41.734 Y75.500 E0.02365
G1 X41.734 Y104.500 E0.90929
M73 P0 R90
G1 X40.980 Y104.500 E0.02365
G1 X40.980 Y75.500 E0.90929
G1 X40.226 Y75.500 E0.02365
G1 X40.226 Y104.500 E0.90929
G1 X39.471 Y104.500 E0.02365
G1 X39.471 Y75.500 E0.90929
G1 X38.717 Y75.500 E0.02365
G1 X38.717 Y104.670 E0.91462
M204 S1250
G1 E-2.24000 F4200.000
;WIPE_START
G1 F7200.000
G1 X38.717 Y103.024 E-0.91200
;WIPE_END
G1 E-0.04800 F4200.000
G1 Z0.400 F9000.000
G1 X55.309 Y110.289
G1 Z0.200
G1 E3.20000 F2400.000
M204 S800
G1 F1200.000
G1 X55.309 Y113.729 E0.10785
G1 X56.063 Y113.729 E0.02365
G1 X56.063 Y110.459 E0.10253
G1 X56.817 Y110.459 E0.02365
G1 X56.817 Y113.729 E0.10253
G1 X57.571 Y113.729 E0.02365
G1 X57.571 Y110.459 E0.10253
G1 X58.325 Y110.459 E0.02365
G1 X58.325 Y113.729 E0.10253
G1 X59.079 Y113.729 E0.02365
G1 X59.079 Y110.459 E0.10253
G1 X59.834 Y110.459 E0.02365
G1 X59.834 Y113.729 E0.10253
G1 X60.588 Y113.729 E0.02365
G1 X60.588 Y110.459 E0.10253
G1 X61.342 Y110.459 E0.02365
G1 X61.342 Y113.898 E0.10785
M204 S1250
G1 E-2.24000 F4200.000
;WIPE_START
G1 F7200.000
G1 X61.342 Y112.253 E-0.91200
;WIPE_END
G1 E-0.04800 F4200.000
G1 Z0.400 F9000.000
G1 X55.309 Y69.711
G1 Z0.200
G1 E3.20000 F2400.000
M204 S800
G1 F1200.000
G1 X55.309 Y66.271 E0.10785
G1 X56.063 Y66.271 E0.02365
G1 X56.063 Y69.541 E0.10253
G1 X56.817 Y69.541 E0.02365
G1 X56.817 Y66.271 E0.10253
G1 X57.571 Y66.271 E0.02365
G1 X57.571 Y69.541 E0.10253
G1 X58.325 Y69.541 E0.02365
G1 X58.325 Y66.271 E0.10253
G1 X59.079 Y66.271 E0.02365
G1 X59.079 Y69.541 E0.10253
G1 X59.834 Y69.541 E0.02365
G1 X59.834 Y66.271 E0.10253
G1 X60.588 Y66.271 E0.02365
G1 X60.588 Y69.541 E0.10253
G1 X61.342 Y69.541 E0.02365
G1 X61.342 Y66.271 E0.10253
G1 X62.096 Y66.271 E0.02365
G1 X62.096 Y83.737 E0.54761
G1 X62.850 Y83.737 E0.02365
G1 X62.850 Y66.271 E0.54761
M73 P1 R90
G1 X63.604 Y66.271 E0.02365
G1 X63.604 Y83.906 E0.55293
M204 S1250
G1 X61.342 Y83.906 F9000.000
M204 S800
G1 F1200.000
G1 X61.342 Y79.959 E0.12378
G1 X60.588 Y79.959 E0.02365
G1 X60.588 Y83.737 E0.11846
G1 X59.834 Y83.737 E0.02365
G1 X59.834 Y79.959 E0.11846
G1 X59.079 Y79.959 E0.02365
G1 X59.079 Y83.737 E0.11846
G1 X58.325 Y83.737 E0.02365
G1 X58.325 Y79.959 E0.11846
G1 X57.571 Y79.959 E0.02365
G1 X57.571 Y83.906 E0.12378
M204 S1250
G1 E-2.24000 F4200.000
;WIPE_START
G1 F7200.000
G1 X57.571 Y82.261 E-0.91200
;WIPE_END
G1 E-0.04800 F4200.000
G1 Z0.400 F9000.000
G1 X57.571 Y96.094
G1 Z0.200
G1 E3.20000 F2400.000
M204 S800
G1 F1200.000
G1 X57.571 Y100.041 E0.12378
G1 X58.325 Y100.041 E0.02365
G1 X58.325 Y96.263 E0.11846
G1 X59.079 Y96.263 E0.02365
G1 X59.079 Y100.041 E0.11846
G1 X59.834 Y100.041 E0.02365
G1 X59.834 Y96.263 E0.11846
G1 X60.588 Y96.263 E0.02365
G1 X60.588 Y100.041 E0.11846
G1 X61.342 Y100.041 E0.02365
G1 X61.342 Y96.263 E0.11846
G1 X62.096 Y96.263 E0.02365
G1 X62.096 Y113.729 E0.54761
G1 X62.850 Y113.729 E0.02365
G1 X62.850 Y96.263 E0.54761
G1 X63.604 Y96.263 E0.02365
G1 X63.604 Y113.729 E0.54761
G1 X64.359 Y113.729 E0.02365
G1 X64.359 Y66.271 E1.48799
G1 X65.113 Y66.271 E0.02365
G1 X65.113 Y113.729 E1.48799
G1 X65.867 Y113.729 E0.02365
G1 X65.867 Y66.271 E1.48799
G1 X66.621 Y66.271 E0.02365
G1 X66.621 Y113.729 E1.48799
G1 X67.375 Y113.729 E0.02365
G1 X67.375 Y66.271 E1.48799
G1 X67.587 Y66.271 E0.00664
G1 X67.587 Y75.500 E0.28935
G1 X68.129 Y75.500 E0.01701
G1 X68.129 Y104.670 E0.91462
M204 S1250
G1 X73.409 Y104.670 F9000.000
M204 S800
G1 F1200.000
G1 X73.409 Y100.709 E0.12421
G1 X72.654 Y100.709 E0.02365
G1 X72.654 Y104.500 E0.11889
G1 X71.900 Y104.500 E0.02365
G1 X71.900 Y100.709 E0.11889
G1 X71.146 Y100.709 E0.02365
G1 X71.146 Y104.500 E0.11889
G1 X70.392 Y104.500 E0.02365
G1 X70.392 Y100.709 E0.11889
G1 X69.638 Y100.709 E0.02365
G1 X69.638 Y104.500 E0.11889
G1 X68.884 Y104.500 E0.02365
G1 X68.884 Y75.500 E0.90929
G1 X69.638 Y75.500 E0.02365
G1 X69.638 Y79.291 E0.11889
G1 X70.392 Y79.291 E0.02365
G1 X70.392 Y75.500 E0.11889
G1 X71.146 Y75.500 E0.02365
G1 X71.146 Y79.291 E0.11889
G1 X71.900 Y79.291 E0.02365
G1 X71.900 Y75.500 E0.11889
G1 X72.654 Y75.500 E0.02365
G1 X72.654 Y79.291 E0.11889
G1 X73.409 Y79.291 E0.02365
G1 X73.409 Y75.330 E0.12421
M204 S1250
G1 E-2.24000 F4200.000
;WIPE_START
G1 F7200.000
G1 X73.409 Y76.976 E-0.91200
;WIPE_END
G1 E-0.04800 F4200.000
G1 Z0.400 F9000.000
G1 X80.196 Y69.711
G1 Z0.200
G1 E3.20000 F2400.000
M204 S800
G1 F1200.000
G1 X80.196 Y66.271 E0.10785
G1 X80.950 Y66.271 E0.02365
G1 X80.950 Y69.541 E0.10253
G1 X81.704 Y69.541 E0.02365
G1 X81.704 Y66.271 E0.10253
G1 X82.458 Y66.271 E0.02365
G1 X82.458 Y69.541 E0.10253
G1 X83.213 Y69.541 E0.02365
G1 X83.213 Y66.271 E0.10253
G1 X83.967 Y66.271 E0.02365
G1 X83.967 Y69.541 E0.10253
G1 X84.721 Y69.541 E0.02365
G1 X84.721 Y66.271 E0.10253
G1 X85.475 Y66.271 E0.02365
G1 X85.475 Y69.711 E0.10785
M204 S1250
G1 X92.262 Y66.102 F9000.000
M204 S800
G1 F1200.000
G1 X92.262 Y74.508 E0.26358
G1 X91.508 Y74.508 E0.02365
G1 X91.508 Y66.271 E0.25826
G1 X90.754 Y66.271 E0.02365
G1 X90.754 Y113.729 E1.48799
G1 X91.508 Y113.729 E0.02365
G1 X91.508 Y105.492 E0.25826
G1 X92.262 Y105.492 E0.02365
G1 X92.262 Y113.898 E0.26358
M204 S1250
G1 X90.000 Y113.898 F9000.000
M204 S800
G1 F1200.000
G1 X90.000 Y66.271 E1.49331
G1 X89.246 Y66.271 E0.02365
G1 X89.246 Y113.729 E1.48799
G1 X88.492 Y113.729 E0.02365
G1 X88.492 Y66.271 E1.48799
G1 X87.738 Y66.271 E0.02365
G1 X87.738 Y113.729 E1.48799
G1 X86.983 Y113.729 E0.02365
G1 X86.983 Y66.271 E1.48799
G1 X86.229 Y66.271 E0.02365
G1 X86.229 Y83.737 E0.54761
G1 X85.475 Y83.737 E0.02365
G1 X85.475 Y79.959 E0.11846
G1 X84.721 Y79.959 E0.02365
G1 X84.721 Y83.737 E0.11846
G1 X83.967 Y83.737 E0.02365
M73 P1 R89
G1 X83.967 Y79.959 E0.11846
G1 X83.213 Y79.959 E0.02365
G1 X83.213 Y83.737 E0.11846
G1 X82.458 Y83.737 E0.02365
G1 X82.458 Y79.959 E0.11846
G1 X81.704 Y79.959 E0.02365
G1 X81.704 Y83.906 E0.12378
M204 S1250
G1 E-2.24000 F4200.000
;WIPE_START
G1 F7200.000
G1 X81.704 Y82.261 E-0.91200
;WIPE_END
G1 E-0.04800 F4200.000
G1 Z0.400 F9000.000
G1 X81.704 Y96.094
G1 Z0.200
G1 E3.20000 F2400.000
M204 S800
G1 F1200.000
G1 X81.704 Y100.041 E0.12378
G1 X82.458 Y100.041 E0.02365
G1 X82.458 Y96.263 E0.11846
G1 X83.213 Y96.263 E0.02365
G1 X83.213 Y100.041 E0.11846
G1 X83.967 Y100.041 E0.02365
G1 X83.967 Y96.263 E0.11846
G1 X84.721 Y96.263 E0.02365
G1 X84.721 Y100.041 E0.11846
G1 X85.475 Y100.041 E0.02365
G1 X85.475 Y96.263 E0.11846
G1 X86.229 Y96.263 E0.02365
G1 X86.229 Y113.898 E0.55293
M204 S1250
G1 X85.475 Y113.898 F9000.000
M204 S800
G1 F1200.000
G1 X85.475 Y110.459 E0.10785
G1 X84.721 Y110.459 E0.02365
G1 X84.721 Y113.729 E0.10253
G1 X83.967 Y113.729 E0.02365
G1 X83.967 Y110.459 E0.10253
G1 X83.213 Y110.459 E0.02365
G1 X83.213 Y113.729 E0.10253
G1 X82.458 Y113.729 E0.02365
G1 X82.458 Y110.459 E0.10253
G1 X81.704 Y110.459 E0.02365
G1 X81.704 Y113.729 E0.10253
G1 X80.950 Y113.729 E0.02365
G1 X80.950 Y110.459 E0.10253
G1 X80.196 Y110.459 E0.02365
G1 X80.196 Y113.898 E0.10785
M204 S1250
G1 E-2.24000 F4200.000
;WIPE_START
G1 F7200.000
G1 X80.196 Y112.253 E-0.91200
;WIPE_END
G1 E-0.04800 F4200.000
G1 Z0.400 F9000.000
G1 X91.508 Y104.670
G1 Z0.200
G1 E3.20000 F2400.000
M204 S800
G1 F1200.000
G1 X91.508 Y75.500 E0.91462
G1 X92.262 Y75.500 E0.02365
G1 X92.262 Y104.500 E0.90929
M73 P2 R89
G1 X93.017 Y104.500 E0.02365
G1 X93.017 Y75.500 E0.90929
G1 X93.771 Y75.500 E0.02365
G1 X93.771 Y104.500 E0.90929
G1 X94.525 Y104.500 E0.02365
G1 X94.525 Y100.709 E0.11889
G1 X95.279 Y100.709 E0.02365
G1 X95.279 Y104.500 E0.11889
G1 X96.033 Y104.500 E0.02365
G1 X96.033 Y100.709 E0.11889
G1 X96.787 Y100.709 E0.02365
G1 X96.787 Y104.500 E0.11889
G1 X97.542 Y104.500 E0.02365
G1 X97.542 Y100.709 E0.11889
G1 X98.296 Y100.709 E0.02365
G1 X98.296 Y104.670 E0.12421
M204 S1250
G1 E-2.24000 F4200.000
;WIPE_START
G1 F7200.000
G1 X98.296 Y103.024 E-0.91200
;WIPE_END
G1 E-0.04800 F4200.000
G1 Z0.400 F9000.000
G1 X105.837 Y110.289
G1 Z0.200
G1 E3.20000 F2400.000
M204 S800
G1 F1200.000
G1 X105.837 Y113.729 E0.10785
G1 X106.591 Y113.729 E0.02365
G1 X106.591 Y110.459 E0.10253
G1 X107.346 Y110.459 E0.02365
G1 X107.346 Y113.729 E0.10253
G1 X108.100 Y113.729 E0.02365
G1 X108.100 Y110.459 E0.10253
G1 X108.854 Y110.459 E0.02365
G1 X108.854 Y113.729 E0.10253
G1 X109.608 Y113.729 E0.02365
G1 X109.608 Y110.459 E0.10253
G1 X110.362 Y110.459 E0.02365
G1 X110.362 Y113.729 E0.10253
G1 X111.116 Y113.729 E0.02365
G1 X111.116 Y96.263 E0.54761
G1 X111.871 Y96.263 E0.02365
G1 X111.871 Y113.898 E0.55293
M204 S1250
G1 E-2.24000 F4200.000
;WIPE_START
G1 F7200.000
G1 X111.871 Y112.253 E-0.91200
;WIPE_END
G1 E-0.04800 F4200.000
G1 Z0.400 F9000.000
G1 X110.362 Y100.254
G1 Z0.200
G1 E3.20000 F2400.000
M204 S800
G1 F1200.000
G1 X110.362 Y96.263 E0.12512
G1 X109.608 Y96.263 E0.02365
G1 X109.608 Y100.041 E0.11846
G1 X108.854 Y100.041 E0.02365
G1 X108.854 Y96.263 E0.11846
G1 X108.100 Y96.263 E0.02365
G1 X108.100 Y100.041 E0.11846
G1 X107.346 Y100.041 E0.02365
G1 X107.346 Y96.263 E0.11846
G1 X106.591 Y96.263 E0.02365
G1 X106.591 Y100.211 E0.12378
M204 S1250
G1 E-2.24000 F4200.000
;WIPE_START
G1 F7200.000
G1 X106.591 Y98.565 E-0.91200
;WIPE_END
G1 E-0.04800 F4200.000
G1 Z0.400 F9000.000
G1 X94.525 Y79.461
G1 Z0.200
G1 E3.20000 F2400.000
M204 S800
G1 F1200.000
G1 X94.525 Y75.500 E0.12421
G1 X95.279 Y75.500 E0.02365
G1 X95.279 Y79.291 E0.11889
G1 X96.033 Y79.291 E0.02365
G1 X96.033 Y75.500 E0.11889
G1 X96.787 Y75.500 E0.02365
G1 X96.787 Y79.291 E0.11889
G1 X97.542 Y79.291 E0.02365
G1 X97.542 Y75.500 E0.11889
G1 X98.296 Y75.500 E0.02365
G1 X98.296 Y79.461 E0.12421
M204 S1250
G1 E-2.24000 F4200.000
;WIPE_START
G1 F7200.000
G1 X98.296 Y77.815 E-0.91200
;WIPE_END
G1 E-0.04800 F4200.000
G1 Z0.400 F9000.000
G1 X106.591 Y83.906
G1 Z0.200
G1 E3.20000 F2400.000
M204 S800
G1 F1200.000
G1 X106.591 Y79.959 E0.12378
G1 X107.346 Y79.959 E0.02365
G1 X107.346 Y83.737 E0.11846
G1 X108.100 Y83.737 E0.02365
G1 X108.100 Y79.959 E0.11846
G1 X108.854 Y79.959 E0.02365
G1 X108.854 Y83.737 E0.11846
G1 X109.608 Y83.737 E0.02365
G1 X109.608 Y79.959 E0.11846
G1 X110.362 Y79.959 E0.02365
G1 X110.362 Y83.906 E0.12378
M204 S1250
G1 E-2.24000 F4200.000
;WIPE_START
G1 F7200.000
G1 X110.362 Y82.261 E-0.91200
;WIPE_END
G1 E-0.04800 F4200.000
G1 Z0.400 F9000.000
G1 X105.837 Y69.711
G1 Z0.200
G1 E3.20000 F2400.000
M204 S800
G1 F1200.000
G1 X105.837 Y66.271 E0.10785
G1 X106.591 Y66.271 E0.02365
G1 X106.591 Y69.541 E0.10253
G1 X107.346 Y69.541 E0.02365
G1 X107.346 Y66.271 E0.10253
G1 X108.100 Y66.271 E0.02365
G1 X108.100 Y69.541 E0.10253
G1 X108.854 Y69.541 E0.02365
G1 X108.854 Y66.271 E0.10253
G1 X109.608 Y66.271 E0.02365
G1 X109.608 Y69.541 E0.10253
G1 X110.362 Y69.541 E0.02365
G1 X110.362 Y66.271 E0.10253
G1 X111.116 Y66.271 E0.02365
G1 X111.116 Y83.737 E0.54761
G1 X111.871 Y83.737 E0.02365
G1 X111.871 Y66.271 E0.54761
G1 X112.625 Y66.271 E0.02365
G1 X112.625 Y113.729 E1.48799
G1 X113.379 Y113.729 E0.02365
G1 X113.379 Y66.271 E1.48799
G1 X114.133 Y66.271 E0.02365
G1 X114.133 Y113.729 E1.48799
G1 X114.887 Y113.729 E0.02365
G1 X114.887 Y66.271 E1.48799
G1 X115.641 Y66.271 E0.02365
G1 X115.641 Y113.729 E1.48799
G1 X116.036 Y113.729 E0.01236
G1 X116.036 Y104.500 E0.28935
G1 X116.396 Y104.500 E0.01128
G1 X116.396 Y75.500 E0.90929
G1 X117.150 Y75.500 E0.02365
G1 X117.150 Y104.670 E0.91462
M204 S1250
G1 X122.429 Y104.670 F9000.000
M204 S800
G1 F1200.000
G1 X122.429 Y100.709 E0.12421
G1 X121.675 Y100.709 E0.02365
G1 X121.675 Y104.500 E0.11889
G1 X120.921 Y104.500 E0.02365
G1 X120.921 Y100.709 E0.11889
G1 X120.166 Y100.709 E0.02365
G1 X120.166 Y104.500 E0.11889
G1 X119.412 Y104.500 E0.02365
G1 X119.412 Y100.709 E0.11889
G1 X118.658 Y100.709 E0.02365
G1 X118.658 Y104.500 E0.11889
G1 X117.904 Y104.500 E0.02365
G1 X117.904 Y75.500 E0.90929
G1 X118.658 Y75.500 E0.02365
G1 X118.658 Y79.291 E0.11889
G1 X119.412 Y79.291 E0.02365
G1 X119.412 Y75.500 E0.11889
G1 X120.166 Y75.500 E0.02365
G1 X120.166 Y79.291 E0.11889
G1 X120.921 Y79.291 E0.02365
G1 X120.921 Y75.500 E0.11889
G1 X121.675 Y75.500 E0.02365
G1 X121.675 Y79.291 E0.11889
G1 X122.429 Y79.291 E0.02365
G1 X122.429 Y75.330 E0.12421
M204 S1250
G1 E-2.24000 F4200.000
;WIPE_START
G1 F7200.000
G1 X122.429 Y76.976 E-0.91200
;WIPE_END
G1 E-0.04800 F4200.000
G1 Z0.400 F9000.000
G1 X129.216 Y66.102
G1 Z0.200
G1 E3.20000 F2400.000
M204 S800
G1 F1200.000
G1 X129.216 Y69.541 E0.10785
G1 X129.970 Y69.541 E0.02365
