; generated by PrusaSlicer 2.3.3+win64 on 2022-06-14 at 12:15:52 UTC


;
;

;
;
; 

; external perimeters extrusion width = 0.45mm
; perimeters extrusion width = 0.45mm
; infill extrusion width = 0.45mm
; solid infill extrusion width = 0.45mm
; top infill extrusion width = 0.40mm
; support material extrusion width = 0.35mm
; first layer extrusion width = 0.42mm

M73 P0 R14
M201 X1250 Y1250 Z400 E5000 ; sets maximum accelerations, mm/sec^2
M203 X180 Y180 Z12 E80 ; sets maximum feedrates, mm/sec
M204 P1250 R1250 T1250 ; sets acceleration (P, T) and retract acceleration (R), mm/sec^2
M205 X8.00 Y8.00 Z2.00 E10.00 ; sets the jerk limits, mm/sec
M205 S0 T0 ; sets the minimum extruding and travel feed rate, mm/sec
M107
;TYPE:Custom
G90 ; use absolute coordinates
M83 ; extruder relative mode
M104 S170 ; set extruder temp for bed leveling
M140 S60 ; set bed temp
M109 R170 ; wait for bed leveling temp
M190 S60 ; wait for bed temp
G28 ; home all without mesh bed level
G29 ; mesh bed leveling 
M104 S215 ; set extruder temp
G92 E0.0
G1 Y-2.0 X179 F2400
G1 Z3 F720
M109 S215 ; wait for extruder temp

; intro line
G1 X170 F1000
G1 Z0.2 F720
G1 X110.0 E8.0 F900
M73 P1 R14
G1 X40.0 E10.0 F700
G92 E0.0

M221 S95 ; set flow
G21 ; set units to millimeters
G90 ; use absolute coordinates
M83 ; use relative distances for extrusion
M900 K0.2 ; Filament gcode LA 1.5
; ; Filament gcode LA 1.0
;LAYER_CHANGE
;Z:0.2
;HEIGHT:0.2
;BEFORE_LAYER_CHANGE
G92 E0.0
;0.2


M73 P1 R13
G1 E-3.20000 F4200.000
G1 Z0.200 F9000.000
;AFTER_LAYER_CHANGE
;0.2
G1 Z0.400
G1 X79.203 Y82.364
G1 Z0.200
G1 E3.20000 F2400.000
M204 S800
;TYPE:Skirt
;WIDTH:0.42
M73 P2 R13
G1 F1200.000
G1 X79.946 Y82.246 E0.02358
G1 X100.004 Y82.246 E0.62891
G1 X100.994 Y82.431 E0.03157
G1 X101.854 Y82.963 E0.03170
G1 X102.462 Y83.766 E0.03157
G1 X102.741 Y84.733 E0.03157
G1 X102.740 Y95.274 E0.33051
G1 X102.609 Y95.882 E0.01950
G1 X102.345 Y96.445 E0.01950
G1 X101.961 Y96.934 E0.01950
G1 X101.480 Y97.323 E0.01937
G1 X100.797 Y97.636 E0.02358
G1 X100.054 Y97.754 E0.02358
G1 X79.902 Y97.752 E0.63186
G1 X79.247 Y97.649 E0.02078
G1 X78.633 Y97.391 E0.02090
G1 X78.101 Y96.995 E0.02078
G1 X77.677 Y96.480 E0.02090
G1 X77.371 Y95.820 E0.02282
G1 X77.248 Y95.103 E0.02282
G1 X77.251 Y84.832 E0.32205
G1 X77.367 Y84.192 E0.02039
G1 X77.628 Y83.601 E0.02026
G1 X78.019 Y83.086 E0.02026
G1 X78.520 Y82.677 E0.02026
G1 X79.149 Y82.389 E0.02170
M204 S1250
G1 X79.302 Y82.732 F9000.000
M204 S800
G1 F1200.000
G1 X79.961 Y82.623 E0.02094
G1 X100.004 Y82.623 E0.62843
G1 X100.867 Y82.787 E0.02755
G1 X101.609 Y83.250 E0.02743
G1 X102.133 Y83.951 E0.02743
G1 X102.368 Y84.793 E0.02743
G1 X102.367 Y95.217 E0.32682
G1 X102.255 Y95.752 E0.01716
G1 X102.023 Y96.248 E0.01716
G1 X101.681 Y96.680 E0.01728
G1 X101.252 Y97.020 E0.01716
G1 X100.670 Y97.281 E0.02000
G1 X100.039 Y97.377 E0.02000
G1 X79.920 Y97.376 E0.63082
G1 X79.342 Y97.284 E0.01835
G1 X78.807 Y97.056 E0.01823
G1 X78.344 Y96.705 E0.01823
G1 X77.980 Y96.252 E0.01823
G1 X77.724 Y95.684 E0.01953
G1 X77.624 Y95.073 E0.01941
G1 X77.627 Y84.863 E0.32014
G1 X77.728 Y84.302 E0.01787
G1 X77.957 Y83.784 E0.01775
G1 X78.303 Y83.336 E0.01775
G1 X78.748 Y82.980 E0.01787
G1 X79.247 Y82.756 E0.01716
M204 S1250
; printing object ultrasonic_base.stl id:0 copy 0
G1 E-2.24000 F4200.000
;WIPE_START
G1 F7200.000
G1 X79.961 Y82.623 E-0.40229
G1 X80.881 Y82.623 E-0.50971
;WIPE_END
G1 E-0.04800 F4200.000
G1 Z0.400 F9000.000
G1 X80.787 Y85.787
G1 Z0.200
G1 E3.20000 F2400.000
M204 S800
;TYPE:Perimeter
G1 F1200.000
G1 X99.213 Y85.787 E0.57773
M73 P3 R13
G1 X99.213 Y94.213 E0.26419
G1 X80.787 Y94.213 E0.57773
G1 X80.787 Y85.847 E0.26231
M204 S1250
G1 X80.410 Y85.410 F9000.000
M204 S800
;TYPE:External perimeter
G1 F1200.000
G1 X99.590 Y85.410 E0.60138
G1 X99.590 Y94.590 E0.28783
G1 X80.410 Y94.590 E0.60138
G1 X80.410 Y85.470 E0.28595
M204 S1250
G1 X80.806 Y85.469 F9000.000
G1 E-2.24000 F4200.000
;WIPE_START
G1 F7200.000
G1 X82.056 Y85.465 E-0.91200
;WIPE_END
G1 E-0.04800 F4200.000
G1 Z0.400 F9000.000
G1 X98.327 Y85.900
G1 Z0.200
G1 E3.20000 F2400.000
M204 S800
;TYPE:Solid infill
;WIDTH:0.424969
G1 F1200.000
G1 X98.930 Y86.503 E0.02710
G1 X98.930 Y87.044 E0.01716
G1 X97.956 Y86.070 E0.04375
G1 X97.416 Y86.070 E0.01716
G1 X98.930 Y87.584 E0.06802
G1 X98.930 Y88.124 E0.01716
G1 X96.876 Y86.070 E0.09229
G1 X96.335 Y86.070 E0.01716
G1 X98.930 Y88.665 E0.11657
G1 X98.930 Y89.205 E0.01716
G1 X95.795 Y86.070 E0.14084
G1 X95.255 Y86.070 E0.01716
G1 X98.930 Y89.745 E0.16511
G1 X98.930 Y90.285 E0.01716
G1 X94.715 Y86.070 E0.18939
G1 X94.174 Y86.070 E0.01716
G1 X98.930 Y90.826 E0.21366
G1 X98.930 Y91.366 E0.01716
G1 X93.634 Y86.070 E0.23793
M73 P4 R13
G1 X93.094 Y86.070 E0.01716
G1 X98.930 Y91.906 E0.26221
G1 X98.930 Y92.447 E0.01716
G1 X92.553 Y86.070 E0.28648
G1 X92.013 Y86.070 E0.01716
G1 X98.930 Y92.987 E0.31075
G1 X98.930 Y93.527 E0.01716
G1 X91.473 Y86.070 E0.33503
G1 X90.932 Y86.070 E0.01716
G1 X98.793 Y93.930 E0.35313
G1 X98.252 Y93.930 E0.01716
G1 X90.392 Y86.070 E0.35313
G1 X89.852 Y86.070 E0.01716
G1 X97.712 Y93.930 E0.35313
G1 X97.172 Y93.930 E0.01716
G1 X89.312 Y86.070 E0.35313
G1 X88.771 Y86.070 E0.01716
G1 X96.632 Y93.930 E0.35313
G1 X96.091 Y93.930 E0.01716
G1 X88.231 Y86.070 E0.35313
G1 X87.691 Y86.070 E0.01716
G1 X95.551 Y93.930 E0.35313
G1 X95.011 Y93.930 E0.01716
G1 X87.150 Y86.070 E0.35313
G1 X86.610 Y86.070 E0.01716
G1 X94.470 Y93.930 E0.35313
G1 X93.930 Y93.930 E0.01716
G1 X86.070 Y86.070 E0.35313
G1 X85.530 Y86.070 E0.01716
M73 P5 R13
G1 X93.390 Y93.930 E0.35313
G1 X92.849 Y93.930 E0.01716
G1 X84.989 Y86.070 E0.35313
G1 X84.449 Y86.070 E0.01716
G1 X92.309 Y93.930 E0.35313
G1 X91.769 Y93.930 E0.01716
G1 X83.909 Y86.070 E0.35313
G1 X83.368 Y86.070 E0.01716
G1 X91.229 Y93.930 E0.35313
G1 X90.688 Y93.930 E0.01716
G1 X82.828 Y86.070 E0.35313
G1 X82.288 Y86.070 E0.01716
G1 X90.148 Y93.930 E0.35313
G1 X89.608 Y93.930 E0.01716
G1 X81.747 Y86.070 E0.35313
G1 X81.207 Y86.070 E0.01716
G1 X89.067 Y93.930 E0.35313
G1 X88.527 Y93.930 E0.01716
G1 X81.070 Y86.473 E0.33502
G1 X81.070 Y87.013 E0.01716
G1 X87.987 Y93.930 E0.31075
G1 X87.446 Y93.930 E0.01716
G1 X81.070 Y87.554 E0.28647
G1 X81.070 Y88.094 E0.01716
G1 X86.906 Y93.930 E0.26220
G1 X86.366 Y93.930 E0.01716
G1 X81.070 Y88.634 E0.23793
G1 X81.070 Y89.174 E0.01716
G1 X85.826 Y93.930 E0.21365
G1 X85.285 Y93.930 E0.01716
G1 X81.070 Y89.715 E0.18938
M73 P6 R13
G1 X81.070 Y90.255 E0.01716
G1 X84.745 Y93.930 E0.16511
G1 X84.205 Y93.930 E0.01716
G1 X81.070 Y90.795 E0.14083
G1 X81.070 Y91.336 E0.01716
G1 X83.664 Y93.930 E0.11656
G1 X83.124 Y93.930 E0.01716
G1 X81.070 Y91.876 E0.09229
G1 X81.070 Y92.416 E0.01716
G1 X82.584 Y93.930 E0.06801
G1 X82.043 Y93.930 E0.01716
G1 X81.070 Y92.957 E0.04374
G1 X81.070 Y93.497 E0.01716
G1 X81.673 Y94.100 E0.02709
M204 S1250
; stop printing object ultrasonic_base.stl id:0 copy 0
M106 S84.15
;LAYER_CHANGE
;Z:0.4
;HEIGHT:0.2
;BEFORE_LAYER_CHANGE
G92 E0.0
;0.4


G1 E-2.24000 F4200.000
;WIPE_START
G1 F7200.000
G1 X81.070 Y93.497 E-0.47257
G1 X81.070 Y92.957 E-0.29942
G1 X81.249 Y93.135 E-0.14002
;WIPE_END
G1 E-0.04800 F4200.000
G1 Z0.400 F9000.000
;AFTER_LAYER_CHANGE
;0.4
M104 S210 ; set temperature
G1 Z0.600
G1 X100.994 Y82.431
G1 Z0.400
G1 E3.20000 F2400.000
;TYPE:Skirt
;WIDTH:0.42
G1 X101.854 Y82.963 E0.03170
G1 X102.462 Y83.766 E0.03157
G1 X102.741 Y84.733 E0.03157
G1 X102.740 Y95.274 E0.33051
G1 X102.609 Y95.882 E0.01950
G1 X102.345 Y96.445 E0.01950
G1 X101.961 Y96.934 E0.01950
G1 X101.480 Y97.323 E0.01937
G1 X100.797 Y97.636 E0.02358
G1 X100.054 Y97.754 E0.02358
G1 X79.902 Y97.752 E0.63186
G1 X79.247 Y97.649 E0.02078
G1 X78.633 Y97.391 E0.02090
G1 X78.101 Y96.995 E0.02078
G1 X77.677 Y96.480 E0.02090
G1 X77.371 Y95.820 E0.02282
G1 X77.248 Y95.103 E0.02282
G1 X77.251 Y84.832 E0.32205
G1 X77.367 Y84.192 E0.02039
G1 X77.628 Y83.601 E0.02026
G1 X78.019 Y83.086 E0.02026
G1 X78.520 Y82.677 E0.02026
G1 X79.203 Y82.364 E0.02358
G1 X79.946 Y82.246 E0.02358
G1 X100.004 Y82.246 E0.62891
G1 X100.935 Y82.420 E0.02969
G1 X100.865 Y82.786 F9000.000
G1 F2400.000
G1 X101.609 Y83.250 E0.02748
G1 X102.133 Y83.951 E0.02743
G1 X102.368 Y84.793 E0.02743
G1 X102.367 Y95.217 E0.32682
G1 X102.255 Y95.752 E0.01716
G1 X102.023 Y96.248 E0.01716
G1 X101.681 Y96.680 E0.01728
G1 X101.252 Y97.020 E0.01716
G1 X100.670 Y97.281 E0.02000
G1 X100.039 Y97.377 E0.02000
G1 X79.920 Y97.376 E0.63082
G1 X79.342 Y97.284 E0.01835
G1 X78.807 Y97.056 E0.01823
G1 X78.344 Y96.705 E0.01823
G1 X77.980 Y96.252 E0.01823
G1 X77.724 Y95.684 E0.01953
G1 X77.624 Y95.073 E0.01941
G1 X77.627 Y84.863 E0.32014
G1 X77.728 Y84.302 E0.01787
G1 X77.957 Y83.784 E0.01775
G1 X78.303 Y83.336 E0.01775
G1 X78.748 Y82.980 E0.01787
G1 X79.330 Y82.719 E0.02000
G1 X79.961 Y82.623 E0.02000
G1 X100.004 Y82.623 E0.62843
G1 X100.806 Y82.775 E0.02562
; printing object ultrasonic_base.stl id:0 copy 0
G1 E-2.24000 F4200.000
;WIPE_START
G1 F7200.000
G1 X101.609 Y83.250 E-0.51679
G1 X102.036 Y83.821 E-0.39521
;WIPE_END
G1 E-0.04800 F4200.000
G1 Z0.600 F9000.000
G1 X99.368 Y85.632
G1 Z0.400
G1 E3.20000 F2400.000
M204 S800
;TYPE:Perimeter
;WIDTH:0.45
G1 F2996
G1 X99.368 Y94.368 E0.29570
G1 X80.632 Y94.368 E0.63419
G1 X80.632 Y85.632 E0.29570
G1 X99.308 Y85.632 E0.63216
M204 S1250
G1 X99.775 Y85.225 F9000.000
M204 S800
;TYPE:External perimeter
G1 F2400.000
G1 X99.775 Y94.775 E0.32326
G1 X80.225 Y94.775 E0.66174
M73 P7 R13
G1 X80.225 Y85.225 E0.32326
G1 X99.715 Y85.225 E0.65971
M204 S1250
G1 X99.630 Y85.598 F9000.000
G1 E-2.24000 F4200.000
;WIPE_START
G1 F7200.000
G1 X99.725 Y86.871 E-0.91200
;WIPE_END
G1 E-0.04800 F4200.000
G1 Z0.600 F9000.000
G1 X99.246 Y93.423
G1 Z0.400
G1 E3.20000 F2400.000
M204 S1000
;TYPE:Solid infill
;WIDTH:0.450102
G1 F2996
G1 X98.606 Y94.063 E0.03064
G1 X98.030 Y94.063 E0.01950
G1 X99.063 Y93.030 E0.04944
G1 X99.063 Y92.454 E0.01950
G1 X97.454 Y94.063 E0.07701
G1 X96.878 Y94.063 E0.01950
G1 X99.063 Y91.878 E0.10459
G1 X99.063 Y91.302 E0.01950
G1 X96.302 Y94.063 E0.13216
G1 X95.727 Y94.063 E0.01950
G1 X99.063 Y90.727 E0.15973
G1 X99.063 Y90.151 E0.01950
G1 X95.151 Y94.063 E0.18730
G1 X94.575 Y94.063 E0.01950
G1 X99.063 Y89.575 E0.21488
G1 X99.063 Y88.999 E0.01950
G1 X93.999 Y94.063 E0.24245
G1 X93.423 Y94.063 E0.01950
G1 X99.063 Y88.423 E0.27002
G1 X99.063 Y87.847 E0.01950
G1 X92.847 Y94.063 E0.29759
G1 X92.272 Y94.063 E0.01950
G1 X99.063 Y87.272 E0.32516
G1 X99.063 Y86.696 E0.01950
G1 X91.696 Y94.063 E0.35274
G1 X91.120 Y94.063 E0.01950
G1 X99.063 Y86.120 E0.38031
G1 X99.063 Y85.937 E0.00618
G1 X98.669 Y85.937 E0.01332
G1 X90.544 Y94.063 E0.38905
G1 X89.968 Y94.063 E0.01950
G1 X98.093 Y85.937 E0.38905
G1 X97.518 Y85.937 E0.01950
G1 X89.392 Y94.063 E0.38905
G1 X88.817 Y94.063 E0.01950
G1 X96.942 Y85.937 E0.38905
G1 X96.366 Y85.937 E0.01950
G1 X88.241 Y94.063 E0.38905
G1 X87.665 Y94.063 E0.01950
G1 X95.790 Y85.937 E0.38905
G1 X95.214 Y85.937 E0.01950
G1 X87.089 Y94.063 E0.38905
G1 X86.513 Y94.063 E0.01950
G1 X94.638 Y85.937 E0.38905
G1 X94.063 Y85.937 E0.01950
G1 X85.937 Y94.063 E0.38905
G1 X85.361 Y94.063 E0.01950
G1 X93.487 Y85.937 E0.38905
G1 X92.911 Y85.937 E0.01950
G1 X84.786 Y94.063 E0.38905
G1 X84.210 Y94.063 E0.01950
G1 X92.335 Y85.937 E0.38905
G1 X91.759 Y85.937 E0.01950
G1 X83.634 Y94.063 E0.38905
G1 X83.058 Y94.063 E0.01950
G1 X91.183 Y85.937 E0.38905
M73 P8 R13
G1 X90.607 Y85.937 E0.01950
G1 X82.482 Y94.063 E0.38905
G1 X81.906 Y94.063 E0.01950
G1 X90.032 Y85.937 E0.38905
G1 X89.456 Y85.937 E0.01950
G1 X81.331 Y94.063 E0.38905
G1 X80.937 Y94.063 E0.01331
G1 X80.937 Y93.880 E0.00618
G1 X88.880 Y85.937 E0.38030
G1 X88.304 Y85.937 E0.01950
G1 X80.937 Y93.304 E0.35273
G1 X80.937 Y92.728 E0.01950
G1 X87.728 Y85.937 E0.32516
G1 X87.152 Y85.937 E0.01950
G1 X80.937 Y92.152 E0.29759
G1 X80.937 Y91.577 E0.01950
G1 X86.577 Y85.937 E0.27001
G1 X86.001 Y85.937 E0.01950
G1 X80.937 Y91.001 E0.24244
G1 X80.937 Y90.425 E0.01950
G1 X85.425 Y85.937 E0.21487
G1 X84.849 Y85.937 E0.01950
G1 X80.937 Y89.849 E0.18730
G1 X80.937 Y89.273 E0.01950
G1 X84.273 Y85.937 E0.15973
G1 X83.697 Y85.937 E0.01950
G1 X80.937 Y88.697 E0.13215
G1 X80.937 Y88.122 E0.01950
G1 X83.122 Y85.937 E0.10458
G1 X82.546 Y85.937 E0.01950
G1 X80.937 Y87.546 E0.07701
G1 X80.937 Y86.970 E0.01950
G1 X81.970 Y85.937 E0.04944
G1 X81.394 Y85.937 E0.01950
G1 X80.754 Y86.577 E0.03064
M204 S1250
; stop printing object ultrasonic_base.stl id:0 copy 0
M106 S170.85
;LAYER_CHANGE
;Z:0.6
;HEIGHT:0.2
;BEFORE_LAYER_CHANGE
G92 E0.0
;0.6


G1 E-2.24000 F4200.000
;WIPE_START
G1 F7200.000
G1 X81.394 Y85.937 E-0.50143
G1 X81.970 Y85.937 E-0.31911
G1 X81.853 Y86.054 E-0.09146
;WIPE_END
G1 E-0.04800 F4200.000
G1 Z0.600 F9000.000
;AFTER_LAYER_CHANGE
;0.6
G1 Z0.800
G1 X79.203 Y82.364
G1 Z0.600
G1 E3.20000 F2400.000
;TYPE:Skirt
;WIDTH:0.42
G1 X79.946 Y82.246 E0.02358
G1 X100.004 Y82.246 E0.62891
G1 X100.994 Y82.431 E0.03157
G1 X101.854 Y82.963 E0.03170
G1 X102.462 Y83.766 E0.03157
G1 X102.741 Y84.733 E0.03157
G1 X102.740 Y95.274 E0.33051
G1 X102.609 Y95.882 E0.01950
G1 X102.345 Y96.445 E0.01950
G1 X101.961 Y96.934 E0.01950
G1 X101.480 Y97.323 E0.01937
G1 X100.797 Y97.636 E0.02358
G1 X100.054 Y97.754 E0.02358
G1 X79.902 Y97.752 E0.63186
G1 X79.247 Y97.649 E0.02078
G1 X78.633 Y97.391 E0.02090
G1 X78.101 Y96.995 E0.02078
G1 X77.677 Y96.480 E0.02090
G1 X77.371 Y95.820 E0.02282
G1 X77.248 Y95.103 E0.02282
G1 X77.251 Y84.832 E0.32205
G1 X77.367 Y84.192 E0.02039
G1 X77.628 Y83.601 E0.02026
G1 X78.019 Y83.086 E0.02026
G1 X78.520 Y82.677 E0.02026
G1 X79.149 Y82.389 E0.02170
G1 X79.302 Y82.732 F9000.000
G1 F2400.000
G1 X79.961 Y82.623 E0.02094
G1 X100.004 Y82.623 E0.62843
G1 X100.867 Y82.787 E0.02755
G1 X101.609 Y83.250 E0.02743
G1 X102.133 Y83.951 E0.02743
G1 X102.368 Y84.793 E0.02743
G1 X102.367 Y95.217 E0.32682
G1 X102.255 Y95.752 E0.01716
G1 X102.023 Y96.248 E0.01716
G1 X101.681 Y96.680 E0.01728
G1 X101.252 Y97.020 E0.01716
G1 X100.670 Y97.281 E0.02000
G1 X100.039 Y97.377 E0.02000
G1 X79.920 Y97.376 E0.63082
M73 P8 R12
G1 X79.342 Y97.284 E0.01835
G1 X78.807 Y97.056 E0.01823
G1 X78.344 Y96.705 E0.01823
G1 X77.980 Y96.252 E0.01823
G1 X77.724 Y95.684 E0.01953
G1 X77.624 Y95.073 E0.01941
G1 X77.627 Y84.863 E0.32014
G1 X77.728 Y84.302 E0.01787
G1 X77.957 Y83.784 E0.01775
G1 X78.303 Y83.336 E0.01775
G1 X78.748 Y82.980 E0.01787
G1 X79.247 Y82.756 E0.01716
; printing object ultrasonic_base.stl id:0 copy 0
G1 E-2.24000 F4200.000
;WIPE_START
G1 F7200.000
G1 X79.961 Y82.623 E-0.40229
G1 X80.881 Y82.623 E-0.50971
;WIPE_END
G1 E-0.04800 F4200.000
G1 Z0.800 F9000.000
G1 X80.632 Y85.632
G1 Z0.600
G1 E3.20000 F2400.000
M204 S800
;TYPE:Perimeter
;WIDTH:0.45
M73 P9 R12
G1 F2975
G1 X99.368 Y85.632 E0.63419
G1 X99.368 Y94.368 E0.29570
G1 X80.632 Y94.368 E0.63419
G1 X80.632 Y85.692 E0.29367
M204 S1250
G1 X80.225 Y85.225 F9000.000
M204 S800
;TYPE:External perimeter
G1 F2400.000
G1 X99.775 Y85.225 E0.66174
G1 X99.775 Y94.775 E0.32326
G1 X80.225 Y94.775 E0.66174
G1 X80.225 Y85.285 E0.32123
M204 S1250
G1 X80.620 Y85.285 F9000.000
G1 E-2.24000 F4200.000
;WIPE_START
G1 F7200.000
G1 X81.871 Y85.280 E-0.91200
;WIPE_END
G1 E-0.04800 F4200.000
G1 Z0.800 F9000.000
G1 X98.423 Y85.754
G1 Z0.600
G1 E3.20000 F2400.000
M204 S1000
;TYPE:Solid infill
;WIDTH:0.450102
G1 F2975
G1 X99.063 Y86.394 E0.03064
G1 X99.063 Y86.970 E0.01950
G1 X98.030 Y85.937 E0.04944
G1 X97.454 Y85.937 E0.01950
G1 X99.063 Y87.546 E0.07701
G1 X99.063 Y88.122 E0.01950
G1 X96.878 Y85.937 E0.10459
G1 X96.302 Y85.937 E0.01950
G1 X99.063 Y88.698 E0.13216
G1 X99.063 Y89.273 E0.01950
G1 X95.727 Y85.937 E0.15973
G1 X95.151 Y85.937 E0.01950
G1 X99.063 Y89.849 E0.18730
G1 X99.063 Y90.425 E0.01950
G1 X94.575 Y85.937 E0.21488
G1 X93.999 Y85.937 E0.01950
G1 X99.063 Y91.001 E0.24245
G1 X99.063 Y91.577 E0.01950
G1 X93.423 Y85.937 E0.27002
G1 X92.847 Y85.937 E0.01950
G1 X99.063 Y92.153 E0.29759
G1 X99.063 Y92.728 E0.01950
G1 X92.272 Y85.937 E0.32516
G1 X91.696 Y85.937 E0.01950
G1 X99.063 Y93.304 E0.35274
G1 X99.063 Y93.880 E0.01950
G1 X91.120 Y85.937 E0.38031
G1 X90.544 Y85.937 E0.01950
G1 X98.669 Y94.063 E0.38905
G1 X98.093 Y94.063 E0.01950
G1 X89.968 Y85.937 E0.38905
G1 X89.392 Y85.937 E0.01950
