; generated by PrusaSlicer 2.3.3+win64 on 2022-06-14 at 12:16:50 UTC


;
;

;
;
; 

; external perimeters extrusion width = 0.45mm
; perimeters extrusion width = 0.45mm
; infill extrusion width = 0.45mm
; solid infill extrusion width = 0.45mm
; top infill extrusion width = 0.40mm
; support material extrusion width = 0.35mm
; first layer extrusion width = 0.42mm

M73 P0 R56
M201 X1250 Y1250 Z400 E5000 ; sets maximum accelerations, mm/sec^2
M203 X180 Y180 Z12 E80 ; sets maximum feedrates, mm/sec
M204 P1250 R1250 T1250 ; sets acceleration (P, T) and retract acceleration (R), mm/sec^2
M205 X8.00 Y8.00 Z2.00 E10.00 ; sets the jerk limits, mm/sec
M205 S0 T0 ; sets the minimum extruding and travel feed rate, mm/sec
M107
;TYPE:Custom
G90 ; use absolute coordinates
M83 ; extruder relative mode
M104 S170 ; set extruder temp for bed leveling
M140 S60 ; set bed temp
M109 R170 ; wait for bed leveling temp
M190 S60 ; wait for bed temp
G28 ; home all without mesh bed level
G29 ; mesh bed leveling 
M104 S215 ; set extruder temp
G92 E0.0
G1 Y-2.0 X179 F2400
G1 Z3 F720
M109 S215 ; wait for extruder temp

; intro line
G1 X170 F1000
G1 Z0.2 F720
G1 X110.0 E8.0 F900
G1 X40.0 E10.0 F700
G92 E0.0

M221 S95 ; set flow
G21 ; set units to millimeters
G90 ; use absolute coordinates
M83 ; use relative distances for extrusion
M900 K0.2 ; Filament gcode LA 1.5
; ; Filament gcode LA 1.0
;LAYER_CHANGE
;Z:0.2
;HEIGHT:0.2
;BEFORE_LAYER_CHANGE
G92 E0.0
;0.2


G1 E-3.20000 F4200.000
G1 Z0.200 F9000.000
;AFTER_LAYER_CHANGE
;0.2
G1 Z0.400
G1 X62.327 Y85.659
G1 Z0.200
G1 E3.20000 F2400.000
M204 S800
;TYPE:Skirt
;WIDTH:0.42
G1 F1200.000
G1 X63.497 Y85.027 E0.04168
G1 X64.055 Y84.827 E0.01858
G1 X65.256 Y84.635 E0.03814
G1 X114.504 Y84.623 E1.54413
G1 X116.248 Y84.916 E0.05546
G1 X117.446 Y85.511 E0.04193
G1 X117.936 Y85.884 E0.01929
G1 X118.855 Y86.846 E0.04171
G1 X119.498 Y88.048 E0.04276
G1 X119.684 Y88.607 E0.01846
G1 X119.876 Y89.946 E0.04242
G1 X119.594 Y91.720 E0.05631
G1 X119.000 Y92.926 E0.04217
G1 X118.653 Y93.397 E0.01835
G1 X117.666 Y94.346 E0.04291
G1 X116.496 Y94.976 E0.04168
G1 X115.941 Y95.174 E0.01846
G1 X114.744 Y95.365 E0.03802
G1 X65.279 Y95.367 E1.55092
M73 P0 R55
G1 X63.709 Y95.068 E0.05012
G1 X62.544 Y94.483 E0.04087
G1 X62.059 Y94.111 E0.01917
G1 X61.148 Y93.157 E0.04135
G1 X60.519 Y91.986 E0.04169
G1 X60.325 Y91.438 E0.01823
G1 X60.135 Y90.244 E0.03790
G1 X60.143 Y89.689 E0.01740
G1 X60.388 Y88.335 E0.04316
G1 X60.987 Y87.097 E0.04311
G1 X61.318 Y86.633 E0.01787
G1 X62.284 Y85.701 E0.04210
M204 S1250
; printing object wheel_pin.stl id:0 copy 0
G1 E-2.24000 F4200.000
;WIPE_START
G1 F7200.000
G1 X63.497 Y85.027 E-0.76878
G1 X63.740 Y84.940 E-0.14322
;WIPE_END
G1 E-0.04800 F4200.000
G1 Z0.400 F9000.000
G1 X112.297 Y90.000
G1 Z0.200
G1 E3.20000 F2400.000
M204 S800
;TYPE:Perimeter
G1 F1200.000
G1 X112.405 Y89.319 E0.02161
G1 X112.718 Y88.705 E0.02160
G1 X113.205 Y88.218 E0.02163
G1 X113.819 Y87.905 E0.02160
G1 X114.500 Y87.797 E0.02161
G1 X115.181 Y87.905 E0.02161
G1 X115.795 Y88.218 E0.02160
G1 X116.282 Y88.705 E0.02163
G1 X116.595 Y89.319 E0.02160
G1 X116.703 Y90.000 E0.02161
G1 X116.595 Y90.681 E0.02161
G1 X116.282 Y91.295 E0.02160
G1 X116.038 Y91.538 E0.01081
G1 X115.795 Y91.782 E0.01081
G1 X115.181 Y92.095 E0.02160
G1 X114.500 Y92.203 E0.02161
G1 X113.819 Y92.095 E0.02161
G1 X113.205 Y91.782 E0.02160
G1 X112.718 Y91.295 E0.02163
G1 X112.405 Y90.681 E0.02160
G1 X112.306 Y90.059 E0.01973
M204 S1250
G1 X111.915 Y90.000 F9000.000
M204 S800
;TYPE:External perimeter
G1 F1200.000
G1 X112.042 Y89.201 E0.02535
G1 X112.409 Y88.481 E0.02535
G1 X112.981 Y87.909 E0.02537
G1 X113.701 Y87.542 E0.02535
G1 X114.500 Y87.415 E0.02535
G1 X115.299 Y87.542 E0.02535
G1 X116.019 Y87.909 E0.02535
G1 X116.591 Y88.481 E0.02537
G1 X116.958 Y89.201 E0.02535
G1 X117.085 Y90.000 E0.02535
G1 X116.958 Y90.799 E0.02535
G1 X116.591 Y91.519 E0.02535
G1 X116.305 Y91.805 E0.01269
G1 X116.019 Y92.091 E0.01269
G1 X115.299 Y92.458 E0.02535
G1 X114.500 Y92.585 E0.02535
G1 X113.701 Y92.458 E0.02535
G1 X112.981 Y92.091 E0.02535
G1 X112.409 Y91.519 E0.02537
G1 X112.042 Y90.799 E0.02535
G1 X111.925 Y90.059 E0.02347
M204 S1250
G1 X112.262 Y89.800 F9000.000
G1 E-2.24000 F4200.000
;WIPE_START
G1 F7200.000
G1 X112.042 Y89.201 E-0.47986
G1 X112.396 Y88.507 E-0.43214
;WIPE_END
G1 E-0.04800 F4200.000
G1 Z0.400 F9000.000
G1 X116.440 Y89.264
G1 Z0.200
G1 E3.20000 F2400.000
M204 S800
;TYPE:Solid infill
;WIDTH:0.421365
G1 F1200.000
G1 X115.624 Y88.448 E0.03631
G1 X115.092 Y88.177 E0.01879
G1 X114.766 Y88.125 E0.01039
G1 X116.375 Y89.734 E0.07158
G1 X116.417 Y90.000 E0.00848
G1 X116.374 Y90.269 E0.00856
G1 X114.231 Y88.126 E0.09536
G1 X113.908 Y88.177 E0.01031
G1 X113.802 Y88.231 E0.00375
G1 X116.269 Y90.698 E0.10979
G1 X116.088 Y91.053 E0.01252
G1 X113.447 Y88.412 E0.11753
G1 X113.374 Y88.449 E0.00259
G1 X113.161 Y88.662 E0.00944
G1 X115.838 Y91.339 E0.11913
G1 X115.626 Y91.551 E0.00944
G1 X115.553 Y91.588 E0.00259
G1 X112.912 Y88.947 E0.11753
G1 X112.731 Y89.302 E0.01252
G1 X115.198 Y91.769 E0.10979
G1 X115.092 Y91.823 E0.00375
G1 X114.769 Y91.874 E0.01031
G1 X112.626 Y89.731 E0.09535
G1 X112.583 Y90.000 E0.00856
G1 X112.625 Y90.266 E0.00849
G1 X114.234 Y91.875 E0.07157
G1 X113.908 Y91.823 E0.01038
G1 X113.376 Y91.552 E0.01880
G1 X112.560 Y90.736 E0.03629
M204 S1250
G1 E-2.24000 F4200.000
;WIPE_START
G1 F7200.000
G1 X113.376 Y91.552 E-0.63910
G1 X113.814 Y91.775 E-0.27290
;WIPE_END
G1 E-0.04800 F4200.000
G1 Z0.400 F9000.000
G1 X109.703 Y90.000
G1 Z0.200
G1 E3.20000 F2400.000
M204 S800
;TYPE:Perimeter
;WIDTH:0.42
G1 F1200.000
G1 X109.595 Y90.681 E0.02161
G1 X109.282 Y91.295 E0.02160
G1 X109.038 Y91.538 E0.01081
G1 X108.795 Y91.782 E0.01081
G1 X108.181 Y92.095 E0.02160
G1 X107.500 Y92.203 E0.02161
G1 X106.819 Y92.095 E0.02161
G1 X106.205 Y91.782 E0.02160
G1 X105.718 Y91.295 E0.02163
G1 X105.405 Y90.681 E0.02160
G1 X105.297 Y90.000 E0.02161
G1 X105.405 Y89.319 E0.02161
G1 X105.718 Y88.705 E0.02160
G1 X106.205 Y88.218 E0.02163
G1 X106.819 Y87.905 E0.02160
G1 X107.500 Y87.797 E0.02161
G1 X108.181 Y87.905 E0.02161
G1 X108.795 Y88.218 E0.02160
G1 X109.282 Y88.705 E0.02163
G1 X109.595 Y89.319 E0.02160
G1 X109.694 Y89.941 E0.01973
M204 S1250
G1 X110.085 Y90.000 F9000.000
M204 S800
;TYPE:External perimeter
G1 F1200.000
G1 X109.958 Y90.799 E0.02535
G1 X109.591 Y91.519 E0.02535
G1 X109.305 Y91.805 E0.01269
G1 X109.019 Y92.091 E0.01269
G1 X108.299 Y92.458 E0.02535
G1 X107.500 Y92.585 E0.02535
G1 X106.701 Y92.458 E0.02535
G1 X105.981 Y92.091 E0.02535
G1 X105.409 Y91.519 E0.02537
G1 X105.042 Y90.799 E0.02535
G1 X104.915 Y90.000 E0.02535
G1 X105.042 Y89.201 E0.02535
G1 X105.409 Y88.481 E0.02535
G1 X105.981 Y87.909 E0.02537
G1 X106.701 Y87.542 E0.02535
G1 X107.500 Y87.415 E0.02535
G1 X108.299 Y87.542 E0.02535
G1 X109.019 Y87.909 E0.02535
G1 X109.591 Y88.481 E0.02537
G1 X109.958 Y89.201 E0.02535
G1 X110.075 Y89.941 E0.02347
M204 S1250
G1 X109.738 Y90.200 F9000.000
G1 X109.440 Y89.264
M204 S800
;TYPE:Solid infill
;WIDTH:0.421365
G1 F1200.000
G1 X108.624 Y88.448 E0.03631
G1 X108.092 Y88.177 E0.01879
G1 X107.766 Y88.125 E0.01039
G1 X109.375 Y89.734 E0.07158
G1 X109.417 Y90.000 E0.00848
G1 X109.374 Y90.269 E0.00856
G1 X107.231 Y88.126 E0.09536
G1 X106.908 Y88.177 E0.01031
G1 X106.802 Y88.231 E0.00375
G1 X109.269 Y90.698 E0.10979
G1 X109.088 Y91.053 E0.01252
G1 X106.447 Y88.412 E0.11753
G1 X106.374 Y88.449 E0.00259
G1 X106.161 Y88.662 E0.00944
G1 X108.838 Y91.339 E0.11913
G1 X108.626 Y91.551 E0.00944
G1 X108.553 Y91.588 E0.00259
G1 X105.912 Y88.947 E0.11753
G1 X105.731 Y89.302 E0.01252
G1 X108.198 Y91.769 E0.10979
G1 X108.092 Y91.823 E0.00375
G1 X107.769 Y91.874 E0.01031
G1 X105.626 Y89.731 E0.09535
G1 X105.583 Y90.000 E0.00856
G1 X105.625 Y90.266 E0.00849
G1 X107.234 Y91.875 E0.07157
G1 X106.908 Y91.823 E0.01038
G1 X106.376 Y91.552 E0.01880
G1 X105.560 Y90.736 E0.03629
M204 S1250
G1 E-2.24000 F4200.000
;WIPE_START
G1 F7200.000
G1 X106.376 Y91.552 E-0.63910
G1 X106.814 Y91.775 E-0.27290
;WIPE_END
G1 E-0.04800 F4200.000
G1 Z0.400 F9000.000
G1 X102.703 Y90.000
G1 Z0.200
G1 E3.20000 F2400.000
M204 S800
;TYPE:Perimeter
;WIDTH:0.42
G1 F1200.000
G1 X102.595 Y90.681 E0.02161
G1 X102.282 Y91.295 E0.02160
G1 X101.795 Y91.782 E0.02163
G1 X101.181 Y92.095 E0.02160
G1 X100.500 Y92.203 E0.02161
G1 X99.819 Y92.095 E0.02161
G1 X99.205 Y91.782 E0.02160
G1 X98.718 Y91.295 E0.02163
G1 X98.405 Y90.681 E0.02160
G1 X98.297 Y90.000 E0.02161
G1 X98.405 Y89.319 E0.02161
G1 X98.718 Y88.705 E0.02160
G1 X99.205 Y88.218 E0.02163
G1 X99.819 Y87.905 E0.02160
G1 X100.500 Y87.797 E0.02161
G1 X101.181 Y87.905 E0.02161
G1 X101.795 Y88.218 E0.02160
G1 X102.282 Y88.705 E0.02163
G1 X102.595 Y89.319 E0.02160
G1 X102.694 Y89.941 E0.01973
M204 S1250
G1 X103.085 Y90.000 F9000.000
M204 S800
;TYPE:External perimeter
G1 F1200.000
G1 X102.958 Y90.799 E0.02536
G1 X102.591 Y91.519 E0.02535
G1 X102.019 Y92.091 E0.02537
G1 X101.299 Y92.458 E0.02535
G1 X100.500 Y92.585 E0.02536
G1 X99.701 Y92.458 E0.02536
G1 X98.981 Y92.091 E0.02535
G1 X98.695 Y91.805 E0.01269
G1 X98.409 Y91.519 E0.01269
G1 X98.042 Y90.799 E0.02535
G1 X97.915 Y90.000 E0.02536
G1 X98.042 Y89.201 E0.02536
G1 X98.409 Y88.481 E0.02535
G1 X98.981 Y87.909 E0.02537
G1 X99.701 Y87.542 E0.02535
G1 X100.500 Y87.415 E0.02536
G1 X101.299 Y87.542 E0.02535
G1 X102.019 Y87.909 E0.02535
G1 X102.591 Y88.481 E0.02537
M73 P1 R55
G1 X102.958 Y89.201 E0.02535
G1 X103.075 Y89.941 E0.02347
M204 S1250
G1 X102.738 Y90.200 F9000.000
G1 X102.440 Y89.264
M204 S800
;TYPE:Solid infill
;WIDTH:0.421365
G1 F1200.000
G1 X101.624 Y88.448 E0.03631
G1 X101.092 Y88.177 E0.01879
G1 X100.766 Y88.125 E0.01039
G1 X102.375 Y89.734 E0.07158
G1 X102.417 Y90.000 E0.00848
G1 X102.374 Y90.269 E0.00856
G1 X100.231 Y88.126 E0.09536
G1 X99.908 Y88.177 E0.01031
G1 X99.802 Y88.231 E0.00375
G1 X102.269 Y90.698 E0.10979
G1 X102.088 Y91.053 E0.01252
G1 X99.447 Y88.412 E0.11753
G1 X99.374 Y88.449 E0.00259
G1 X99.161 Y88.662 E0.00944
G1 X101.838 Y91.339 E0.11913
G1 X101.626 Y91.551 E0.00944
G1 X101.553 Y91.588 E0.00259
G1 X98.912 Y88.947 E0.11753
G1 X98.731 Y89.302 E0.01252
G1 X101.198 Y91.769 E0.10979
G1 X101.092 Y91.823 E0.00375
G1 X100.769 Y91.874 E0.01031
G1 X98.626 Y89.731 E0.09535
G1 X98.583 Y90.000 E0.00856
G1 X98.625 Y90.266 E0.00849
G1 X100.234 Y91.875 E0.07157
G1 X99.908 Y91.823 E0.01038
G1 X99.376 Y91.552 E0.01880
G1 X98.560 Y90.736 E0.03629
M204 S1250
G1 E-2.24000 F4200.000
;WIPE_START
G1 F7200.000
G1 X99.376 Y91.552 E-0.63911
G1 X99.814 Y91.775 E-0.27289
;WIPE_END
G1 E-0.04800 F4200.000
G1 Z0.400 F9000.000
G1 X95.703 Y90.000
G1 Z0.200
G1 E3.20000 F2400.000
M204 S800
;TYPE:Perimeter
;WIDTH:0.42
G1 F1200.000
G1 X95.595 Y90.681 E0.02161
G1 X95.282 Y91.295 E0.02160
G1 X94.795 Y91.782 E0.02163
G1 X94.181 Y92.095 E0.02160
G1 X93.500 Y92.203 E0.02161
G1 X92.819 Y92.095 E0.02161
G1 X92.205 Y91.782 E0.02160
G1 X91.718 Y91.295 E0.02163
G1 X91.405 Y90.681 E0.02160
G1 X91.297 Y90.000 E0.02161
G1 X91.405 Y89.319 E0.02161
G1 X91.718 Y88.705 E0.02160
G1 X92.205 Y88.218 E0.02163
G1 X92.819 Y87.905 E0.02160
G1 X93.500 Y87.797 E0.02161
G1 X94.181 Y87.905 E0.02161
G1 X94.795 Y88.218 E0.02160
G1 X95.282 Y88.705 E0.02163
G1 X95.595 Y89.319 E0.02160
G1 X95.694 Y89.941 E0.01973
M204 S1250
G1 X96.085 Y90.000 F9000.000
M204 S800
;TYPE:External perimeter
G1 F1200.000
G1 X95.958 Y90.799 E0.02536
G1 X95.591 Y91.519 E0.02535
G1 X95.019 Y92.091 E0.02537
G1 X94.299 Y92.458 E0.02535
G1 X93.500 Y92.585 E0.02536
G1 X92.701 Y92.458 E0.02536
G1 X91.981 Y92.091 E0.02535
G1 X91.695 Y91.805 E0.01269
G1 X91.409 Y91.519 E0.01269
G1 X91.042 Y90.799 E0.02535
G1 X90.915 Y90.000 E0.02536
G1 X91.042 Y89.201 E0.02536
G1 X91.409 Y88.481 E0.02535
G1 X91.981 Y87.909 E0.02537
G1 X92.701 Y87.542 E0.02535
G1 X93.500 Y87.415 E0.02536
G1 X94.299 Y87.542 E0.02535
G1 X95.019 Y87.909 E0.02535
G1 X95.591 Y88.481 E0.02537
G1 X95.958 Y89.201 E0.02535
G1 X96.075 Y89.941 E0.02347
M204 S1250
G1 X95.738 Y90.200 F9000.000
G1 X95.440 Y89.264
M204 S800
;TYPE:Solid infill
;WIDTH:0.421365
G1 F1200.000
G1 X94.624 Y88.448 E0.03631
G1 X94.092 Y88.177 E0.01879
G1 X93.766 Y88.125 E0.01039
G1 X95.375 Y89.734 E0.07158
G1 X95.417 Y90.000 E0.00848
G1 X95.374 Y90.269 E0.00856
G1 X93.231 Y88.126 E0.09536
G1 X92.908 Y88.177 E0.01031
G1 X92.802 Y88.231 E0.00375
G1 X95.269 Y90.698 E0.10979
G1 X95.088 Y91.053 E0.01252
G1 X92.447 Y88.412 E0.11753
G1 X92.374 Y88.449 E0.00259
G1 X92.161 Y88.662 E0.00944
G1 X94.838 Y91.339 E0.11913
G1 X94.626 Y91.551 E0.00944
G1 X94.553 Y91.588 E0.00259
G1 X91.912 Y88.947 E0.11753
G1 X91.731 Y89.302 E0.01252
G1 X94.198 Y91.769 E0.10979
G1 X94.092 Y91.823 E0.00375
G1 X93.769 Y91.874 E0.01031
G1 X91.626 Y89.731 E0.09535
G1 X91.583 Y90.000 E0.00856
G1 X91.625 Y90.266 E0.00849
G1 X93.234 Y91.875 E0.07157
G1 X92.908 Y91.823 E0.01038
G1 X92.376 Y91.552 E0.01880
G1 X91.560 Y90.736 E0.03629
M204 S1250
G1 E-2.24000 F4200.000
;WIPE_START
G1 F7200.000
G1 X92.376 Y91.552 E-0.63911
G1 X92.814 Y91.775 E-0.27289
;WIPE_END
G1 E-0.04800 F4200.000
G1 Z0.400 F9000.000
G1 X88.703 Y90.000
G1 Z0.200
G1 E3.20000 F2400.000
M204 S800
;TYPE:Perimeter
;WIDTH:0.42
G1 F1200.000
G1 X88.595 Y90.681 E0.02161
G1 X88.282 Y91.295 E0.02160
G1 X87.795 Y91.782 E0.02163
G1 X87.181 Y92.095 E0.02160
G1 X86.500 Y92.203 E0.02161
G1 X85.819 Y92.095 E0.02161
G1 X85.205 Y91.782 E0.02160
G1 X84.718 Y91.295 E0.02163
G1 X84.405 Y90.681 E0.02160
G1 X84.297 Y90.000 E0.02161
G1 X84.405 Y89.319 E0.02161
G1 X84.718 Y88.705 E0.02160
G1 X85.205 Y88.218 E0.02163
G1 X85.819 Y87.905 E0.02160
G1 X86.500 Y87.797 E0.02161
G1 X87.181 Y87.905 E0.02161
G1 X87.795 Y88.218 E0.02160
G1 X88.282 Y88.705 E0.02163
G1 X88.595 Y89.319 E0.02160
G1 X88.694 Y89.941 E0.01973
M204 S1250
G1 X89.085 Y90.000 F9000.000
M204 S800
;TYPE:External perimeter
G1 F1200.000
G1 X88.958 Y90.799 E0.02536
G1 X88.591 Y91.519 E0.02535
G1 X88.019 Y92.091 E0.02537
G1 X87.299 Y92.458 E0.02535
G1 X86.500 Y92.585 E0.02536
G1 X85.701 Y92.458 E0.02536
G1 X84.981 Y92.091 E0.02535
G1 X84.409 Y91.519 E0.02537
G1 X84.042 Y90.799 E0.02535
G1 X83.915 Y90.000 E0.02536
G1 X84.042 Y89.201 E0.02536
G1 X84.409 Y88.481 E0.02535
G1 X84.981 Y87.909 E0.02537
G1 X85.701 Y87.542 E0.02535
G1 X86.500 Y87.415 E0.02536
G1 X87.299 Y87.542 E0.02536
G1 X88.019 Y87.909 E0.02535
G1 X88.591 Y88.481 E0.02537
G1 X88.958 Y89.201 E0.02535
G1 X89.075 Y89.941 E0.02347
M204 S1250
G1 X88.738 Y90.200 F9000.000
G1 E-2.24000 F4200.000
;WIPE_START
G1 F7200.000
G1 X88.958 Y90.799 E-0.47986
G1 X88.604 Y91.493 E-0.43214
;WIPE_END
G1 E-0.04800 F4200.000
G1 Z0.400 F9000.000
G1 X87.236 Y88.060
G1 Z0.200
G1 E3.20000 F2400.000
M204 S800
;TYPE:Solid infill
;WIDTH:0.421365
G1 F1200.000
G1 X88.052 Y88.876 E0.03631
G1 X88.323 Y89.408 E0.01879
G1 X88.375 Y89.734 E0.01039
G1 X86.766 Y88.125 E0.07158
G1 X86.500 Y88.083 E0.00848
G1 X86.231 Y88.126 E0.00856
G1 X88.374 Y90.269 E0.09536
G1 X88.323 Y90.592 E0.01031
G1 X88.269 Y90.698 E0.00375
G1 X85.802 Y88.231 E0.10979
G1 X85.447 Y88.412 E0.01252
G1 X88.088 Y91.053 E0.11753
G1 X88.051 Y91.126 E0.00259
G1 X87.838 Y91.339 E0.00944
G1 X85.161 Y88.662 E0.11913
G1 X84.949 Y88.874 E0.00944
G1 X84.912 Y88.947 E0.00259
G1 X87.553 Y91.588 E0.11753
G1 X87.198 Y91.769 E0.01252
G1 X84.731 Y89.302 E0.10979
G1 X84.677 Y89.408 E0.00375
G1 X84.626 Y89.731 E0.01031
G1 X86.769 Y91.874 E0.09535
G1 X86.500 Y91.917 E0.00856
G1 X86.234 Y91.875 E0.00849
G1 X84.625 Y90.266 E0.07157
G1 X84.677 Y90.592 E0.01038
G1 X84.948 Y91.124 E0.01880
G1 X85.764 Y91.940 E0.03629
M204 S1250
G1 E-2.24000 F4200.000
;WIPE_START
G1 F7200.000
G1 X84.948 Y91.124 E-0.63911
G1 X84.725 Y90.686 E-0.27289
;WIPE_END
G1 E-0.04800 F4200.000
G1 Z0.400 F9000.000
G1 X81.595 Y90.681
G1 Z0.200
G1 E3.20000 F2400.000
M204 S800
;TYPE:Perimeter
;WIDTH:0.42
G1 F1200.000
G1 X81.282 Y91.295 E0.02160
G1 X80.795 Y91.782 E0.02163
G1 X80.181 Y92.095 E0.02160
G1 X79.500 Y92.203 E0.02161
G1 X78.819 Y92.095 E0.02161
G1 X78.205 Y91.782 E0.02160
G1 X77.718 Y91.295 E0.02163
G1 X77.405 Y90.681 E0.02160
G1 X77.297 Y90.000 E0.02161
G1 X77.405 Y89.319 E0.02161
G1 X77.718 Y88.705 E0.02160
G1 X78.205 Y88.218 E0.02163
G1 X78.819 Y87.905 E0.02160
